assets/luts/LUTs/LEICA/GREG WLM.cube
#Generated by Pennl1
#闲鱼号：LOOK胶片感
#公众号：胶片感
TITLE GREG WLM
LUT_3D_SIZE 5
0.003921569 0.0 0.003921569
0.09509804 0.091176465 0.09019608
0.22549021 0.21568626 0.20980392
0.38529414 0.37352943 0.36666667
0.52156866 0.5137255 0.5058824
0.16078432 0.15686275 0.14901961
0.2110294 0.20465687 0.19705883
0.33039218 0.32156864 0.3151961
0.4632353 0.45539218 0.4507353
0.5833334 0.57843137 0.57058823
0.39411765 0.3843137 0.37843138
0.445098 0.43088233 0.4254902
0.5264706 0.51274514 0.50784314
0.612255 0.6009804 0.5965687
0.6960784 0.6862745 0.68235296
0.6254902 0.62058824 0.6127451
0.66102946 0.6571079 0.64926475
0.7044118 0.7004901 0.69264704
0.760049 0.7583334 0.7504902
0.8137255 0.80980396 0.8127451
0.84313726 0.8392157 0.83137256
0.8568627 0.85294116 0.845098
0.8764706 0.8745099 0.8666667
0.91078424 0.91078424 0.9029412
0.9568627 0.9529412 0.9529412
0.055882357 0.051960785 0.046078432
0.11838236 0.1137255 0.106617644
0.2333333 0.227451 0.21960784
0.39730394 0.3855392 0.38088238
0.53039217 0.5147059 0.50980395
0.17843139 0.17450981 0.16666667
0.21409313 0.20998773 0.20214461
0.3317402 0.32181373 0.31654412
0.47267157 0.46372554 0.45716912
0.592402 0.58455884 0.577451
0.4 0.38872546 0.38137257
0.4444853 0.43039215 0.4238971
0.529902 0.51691175 0.5095588
0.61580884 0.60490197 0.59705883
0.6990197 0.6921569 0.6843138
0.654902 0.6450981 0.6394608
0.65704656 0.65312505 0.6452819
0.7060049 0.70232844 0.6944853
0.75398284 0.75208336 0.74852943
0.8188726 0.81421566 0.81372553
0.8421568 0.8382353 0.83431375
0.85392153 0.85 0.84460783
0.877451 0.8720588 0.87058824
0.910049 0.9039216 0.9051471
0.95980394 0.95980394 0.95980394
0.14313726 0.13725491 0.12941177
0.17990196 0.17303923 0.16519609
0.2676471 0.25686276 0.25
0.41323534 0.4034314 0.39607844
0.5529412 0.5431373 0.5372549
0.22401962 0.21617645 0.21078432
0.2665441 0.2604167 0.2529412
0.360049 0.34901962 0.34436274
0.48602945 0.47536764 0.47144607
0.60490197 0.59656864 0.5892157
0.42941177 0.4137255 0.40882355
0.47328433 0.45759803 0.4536765
0.54019606 0.5259805 0.52107847
0.6242647 0.6147059 0.60759807
0.70980394 0.7039216 0.6960785
0.66176474 0.65637255 0.6490196
0.682598 0.6786765 0.6709559
0.7176471 0.71446085 0.7080883
0.7633578 0.7591912 0.7556373
0.82058823 0.8151961 0.8151961
0.84901965 0.84313726 0.84313726
0.8691177 0.8637255 0.8632353
0.885294 0.88137263 0.8794119
0.9205882 0.91568625 0.9166666
0.96666676 0.96666676 0.96666676
0.22647059 0.21470588 0.21078432
0.24558823 0.23480393 0.23063727
0.3269608 0.3147059 0.31029412
0.45784312 0.445098 0.44117647
0.577451 0.5666667 0.5617647
0.30637255 0.29338238 0.2884804
0.3545956 0.34227943 0.33762255
0.41838235 0.40428922 0.4
0.5223652 0.51053923 0.50330883
0.6365197 0.62867653 0.6208334
0.49264708 0.4779412 0.47352943
0.54154414 0.5272059 0.5224265
0.58921576 0.577451 0.57058823
0.63725495 0.6290442 0.62230396
0.72745097 0.720098 0.7142157
0.6870098 0.68014705 0.6723039
0.6946691 0.6930148 0.6853554
0.7395834 0.7367647 0.73125005
0.782353 0.77837014 0.7756128
0.83504903 0.83137256 0.8321078
0.8725491 0.8715687 0.86568624
0.8843137 0.8811275 0.87794125
0.9009804 0.9004902 0.8965687
0.9343137 0.9303922 0.9274511
0.9774509 0.9764706 0.9764706
0.33333334 0.32156864 0.31764707
0.35098037 0.3392157 0.33431375
0.40588236 0.3980392 0.39411765
0.49509805 0.47941178 0.4754902
0.6 0.59607846 0.5882353
0.40686274 0.39607844 0.3911765
0.46078432 0.445098 0.44117647
0.4960785 0.48333338 0.4779412
0.5681373 0.5563726 0.54852945
0.6598039 0.654902 0.64705884
0.5588236 0.55098045 0.5431373
0.6058824 0.59607846 0.58970594
0.65686274 0.6509804 0.6431373
0.6838236 0.67647064 0.6691177
0.74705887 0.7431373 0.7352941
0.72254896 0.7176471 0.7107843
0.7446078 0.73848045 0.7367647
0.7759804 0.7686274 0.7681373
0.8166666 0.8088235 0.80980396
0.8568627 0.85294116 0.85294116
0.88235295 0.88235295 0.8784314
0.8980392 0.89705884 0.8980392
0.9235294 0.91960776 0.91960776
0.95784307 0.95392156 0.95490193
0.99215686 0.99215686 0.99215686
