assets/luts/LUTs/LEICA/GREG WLM.cube
#Generated by Pennl1
#闲鱼号：LOOK胶片感
#公众号：胶片感
TITLE GREG WLM
LUT_3D_SIZE 9
0.003921569 0.0 0.003921569
0.031862747 0.031862747 0.031862747
0.09509804 0.091176465 0.09019608
0.15931374 0.15196079 0.14754903
0.22549021 0.21568626 0.20980392
0.32107845 0.30539218 0.3014706
0.38529414 0.37352943 0.36666667
0.45294118 0.44264707 0.4348039
0.52156866 0.5137255 0.5058824
0.07401961 0.07009804 0.066176474
0.09601716 0.090257354 0.088174015
0.13688727 0.12904413 0.12512255
0.19381127 0.18235293 0.17812498
0.25980395 0.24730393 0.24215688
0.34313726 0.3310662 0.32585788
0.4310049 0.41924018 0.41250002
0.49454656 0.4822304 0.47738975
0.55833334 0.5504902 0.54264706
0.16078432 0.15686275 0.14901961
0.18272059 0.17879902 0.17132354
0.2110294 0.20465687 0.19705883
0.26004905 0.2522059 0.24730393
0.33039218 0.32156864 0.3151961
0.3987745 0.3840686 0.38014707
0.4632353 0.45539218 0.4507353
0.5321079 0.5203432 0.51250005
0.5833334 0.57843137 0.57058823
0.25833336 0.25 0.24264707
0.28137255 0.27107844 0.26568627
0.3219363 0.30710787 0.3031863
0.37242648 0.35716912 0.3523897
0.4210784 0.40931374 0.4014706
0.4828431 0.46715686 0.4632353
0.53308827 0.5256128 0.51776963
0.5895221 0.5777574 0.5715074
0.6333333 0.6254902 0.6181373
0.39411765 0.3843137 0.37843138
0.41323534 0.3995098 0.39558825
0.445098 0.43088233 0.4254902
0.4892157 0.4735294 0.46789217
0.5264706 0.51274514 0.50784314
0.56666666 0.554902 0.5507353
0.612255 0.6009804 0.5965687
0.65269613 0.6441177 0.63700986
0.6960784 0.6862745 0.68235296
0.52254903 0.51029414 0.502451
0.5384804 0.5243873 0.51525736
0.56593144 0.551103 0.5459559
0.6032476 0.59154415 0.58455884
0.6193628 0.6132353 0.60539216
0.6522672 0.6409314 0.6335785
0.6957108 0.68786764 0.6839461
0.71770835 0.709375 0.70416665
0.7588235 0.75147057 0.74705887
0.6254902 0.62058824 0.6127451
0.63210785 0.6281863 0.62034315
0.66102946 0.6571079 0.64926475
0.68492645 0.68100494 0.6731618
0.7044118 0.7004901 0.69264704
0.7281863 0.7281863 0.72034323
0.760049 0.7583334 0.7504902
0.7807599 0.77683824 0.7729167
0.8137255 0.80980396 0.8127451
0.73627454 0.73235303 0.72450984
0.7553309 0.7504902 0.74356616
0.76482844 0.7590686 0.7512255
0.78088236 0.7769608 0.76911765
0.7931373 0.79044116 0.78259796
0.81421566 0.8088235 0.8024511
0.83958334 0.83566177 0.82781863
0.85447305 0.85055155 0.844179
0.8931373 0.8892157 0.8838235
0.84313726 0.8392157 0.83137256
0.84705883 0.84313726 0.8367647
0.8568627 0.85294116 0.845098
0.8632352 0.8593138 0.8514706
0.8764706 0.8745099 0.8666667
0.890196 0.88970584 0.88235295
0.91078424 0.91078424 0.9029412
0.9318628 0.93039215 0.92647064
0.9568627 0.9529412 0.9529412
0.018627452 0.013235294 0.014705883
0.04601716 0.04209559 0.043627452
0.10404412 0.097181365 0.09436274
0.1627451 0.15667893 0.1509804
0.22500002 0.21911766 0.2112745
0.30894607 0.29883578 0.2925858
0.3944853 0.38125 0.37634805
0.4682598 0.4564951 0.45104164
0.53431374 0.52254903 0.5147059
0.083333336 0.07941177 0.07401961
0.10349265 0.09599418 0.093604475
0.14062501 0.13475797 0.12783395
0.19515164 0.18566176 0.17888327
0.25931376 0.24632354 0.24166669
0.34483767 0.33215383 0.3273744
0.41724876 0.40545344 0.40101105
0.49248624 0.48014703 0.47434896
0.5541667 0.54724264 0.5393995
0.16764706 0.1637255 0.1569853
0.18088236 0.17627147 0.16911766
0.2135723 0.2077206 0.20042893
0.25995713 0.25151655 0.2459712
0.3313113 0.32444856 0.31715688
0.40317097 0.39165136 0.38615197
0.47144607 0.45992646 0.45511642
0.53324145 0.5211704 0.5159927
0.58933824 0.5824755 0.576103
0.2640319 0.25177696 0.24656864
0.2844516 0.26936275 0.26532632
0.32362133 0.31104472 0.30551472
0.36999077 0.35430452 0.35038298
0.42683822 0.41204044 0.4074755
0.48845747 0.47277114 0.4688266
0.53189343 0.5203432 0.512546
0.5939568 0.58278954 0.57515323
0.6413603 0.629902 0.62236524
0.3919118 0.38210785 0.37499997
0.41136643 0.3993566 0.39374998
0.44883582 0.43498775 0.42996323
0.4867035 0.47101718 0.46636033
0.5237745 0.50980395 0.5041667
0.5701594 0.55903804 0.5528493
0.61182594 0.60275733 0.595527
0.657016 0.64813113 0.64151347
0.7022059 0.6963235 0.68970597
0.5269608 0.51685053 0.5083333
0.5484758 0.53714 0.5285616
0.564951 0.55196077 0.5469516
0.59004295 0.5765625 0.5724801
0.62582725 0.61663604 0.6124081
0.6588925 0.6486826 0.6433441
0.6914369 0.6841299 0.6792126
0.7289752 0.72094816 0.715671
0.75618875 0.7522672 0.7444241
0.6378677 0.6295343 0.6238971
0.6480699 0.6415748 0.63437504
0.6615502 0.65386033 0.64757967
0.6867647 0.68284315 0.675
0.70931375 0.705576 0.69773287
0.72971815 0.7264093 0.7202666
0.7551776 0.7530638 0.74852943
0.79011947 0.78619796 0.7818168
0.8136029 0.8078432 0.8080882
0.74485296 0.7384804 0.73063725
0.7566866 0.74945617 0.7421875
0.7700674 0.76282173 0.7563113
0.775605 0.7695849 0.7630974
0.7974571 0.7932598 0.78569233
0.81319696 0.80927545 0.8014323
0.8407781 0.8361673 0.8308058
0.8652574 0.8602098 0.8564951
0.8934436 0.8916054 0.8870711
0.8416667 0.8392157 0.83137256
0.8407476 0.83774513 0.83045346
0.8531863 0.84926474 0.84289217
0.8645221 0.85912997 0.8542279
0.8745099 0.8691177 0.8666667
0.8903799 0.888603 0.88400733
0.9125 0.9085784 0.90612745
0.93578434 0.9318628 0.93033093
0.9607843 0.9583333 0.9607843
0.055882357 0.051960785 0.046078432
0.07941177 0.0754902 0.071078435
0.11838236 0.1137255 0.106617644
0.17340687 0.1694853 0.16164216
0.2333333 0.227451 0.21960784
0.31911767 0.30674022 0.30245098
0.39730394 0.3855392 0.38088238
0.47389704 0.45955884 0.45465687
0.53039217 0.5147059 0.50980395
0.10625 0.10134804 0.09509804
0.12469364 0.118688725 0.11294424
0.15658702 0.14901961 0.14246324
0.20341605 0.19643077 0.18920036
0.2697304 0.25863972 0.25324756
0.35433516 0.34257048 0.33857232
0.42882964 0.41752452 0.41066176
0.49987742 0.48811275 0.48419118
0.5560049 0.54632354 0.5403186
0.17843139 0.17450981 0.16666667
0.19077818 0.1867647 0.17938113
0.21409313 0.20998773 0.20214461
0.2637255 0.259712 0.25186887
0.3317402 0.32181373 0.31654412
0.40036765 0.38860297 0.3836703
0.47267157 0.46372554 0.45716912
0.53700984 0.52340686 0.51681983
0.592402 0.58455884 0.577451
0.271201 0.25808823 0.25416666
0.29313728 0.2783548 0.27443323
0.32585788 0.3109069 0.30698532
0.3735294 0.35785848 0.35392156
0.42763487 0.4134191 0.40931374
0.48670343 0.4713389 0.46671262
0.53661156 0.52306986 0.51443017
0.5894455 0.5775583 0.56689644
0.6454657 0.63284314 0.6234069
0.4 0.38872546 0.38137257
0.42089465 0.406924 0.4012868
0.4444853 0.43039215 0.4238971
0.48719364 0.47322303 0.46568632
0.529902 0.51691175 0.5095588
0.5697917 0.5593138 0.55110294
0.61580884 0.60490197 0.59705883
0.66109073 0.65379906 0.64613974
0.6990197 0.6921569 0.6843138
0.54424024 0.5359069 0.52745104
0.54885113 0.5383272 0.53144914
0.5670037 0.5571998 0.5497243
0.5972886 0.58621323 0.5807292
0.62469363 0.6172794 0.6122549
0.6555301 0.646875 0.63969064
0.6862745 0.67873776 0.671201
0.72372866 0.7169578 0.71138173
0.7632353 0.75674015 0.75183815
0.654902 0.6450981 0.6394608
0.65143996 0.64457726 0.6375613
0.65704656 0.65312505 0.6452819
0.6848958 0.68097425 0.6731311
0.7060049 0.70232844 0.6944853
0.7277574 0.7226409 0.71798414
0.75398284 0.75208336 0.74852943
0.79359686 0.7901348 0.7883885
0.8188726 0.81421566 0.81372553
0.7536765 0.7449755 0.74007356
0.7607384 0.75079656 0.7447916
0.7662071 0.75695467 0.7498469
0.78057605 0.772212 0.7658701
0.80006117 0.7950368 0.7882966
0.8135723 0.8087929 0.80180764
0.8422794 0.8365196 0.83333343
0.86602336 0.8609528 0.8602788
0.8892157 0.88529414 0.88492644
0.8421568 0.8382353 0.83431375
0.84718144 0.8432598 0.83725494
0.85392153 0.85 0.84460783
0.8633577 0.8582108 0.8572305
0.877451 0.8720588 0.87058824
0.8922794 0.88970584 0.88737744
0.910049 0.9039216 0.9051471
0.9360295 0.9324755 0.9339462
0.95980394 0.95980394 0.95980394
0.0995098 0.09509804 0.08774509
0.11256128 0.10704657 0.10079657
0.14031863 0.13627452 0.12855393
0.18970588 0.18229166 0.1778799
0.24681374 0.23872548 0.23088239
0.3288603 0.32089463 0.31354168
0.41727942 0.40625 0.4014706
0.48560047 0.47040442 0.46617648
0.5392157 0.5269608 0.5196079
0.13841914 0.13039216 0.1264706
0.15108763 0.14594057 0.13890165
0.17780331 0.1705576 0.16416973
0.22393535 0.21560203 0.20804992
0.28581494 0.27371323 0.2691483
0.36266086 0.34977025 0.3452206
0.43345585 0.41848958 0.41426167
0.5030484 0.49018842 0.48527116
0.5588235 0.5509804 0.5433211
0.20294118 0.19607843 0.19080885
0.21420036 0.2082261 0.2021293
0.23351718 0.22922795 0.22147672
0.27356008 0.2696385 0.26179534
0.34522063 0.33529413 0.33045343
0.4132966 0.39950982 0.39541972
0.4807598 0.46878064 0.4642157
0.5418812 0.52962625 0.5227635
0.614951 0.6066177 0.59877455
0.28670344 0.2723652 0.2675858
0.30900738 0.29566485 0.29170498
0.33892465 0.32323837 0.3193168
0.37879902 0.36579353 0.36181834
0.43054536 0.41807595 0.4141544
0.50115657 0.48857996 0.48111975
0.5417739 0.52696085 0.51852024
0.59749544 0.58809745 0.57709104
0.6518996 0.6401348 0.6327819
0.42352942 0.41176468 0.40588236
0.43713236 0.42487746 0.41786152
0.4591299 0.44460785 0.43848038
0.4981618 0.48419118 0.4768382
0.53112745 0.517647 0.5090686
0.5691483 0.55631125 0.54978555
0.6237745 0.61286765 0.6050858
0.6631434 0.6558211 0.6486213
0.70588243 0.69950986 0.6919117
0.54025733 0.5323529 0.52457106
0.55424327 0.5445159 0.5399816
0.57437193 0.56616116 0.56136644
0.5868337 0.58198535 0.5742035
0.62656254 0.6187194 0.61430764
0.6570619 0.652114 0.64437807
0.69322914 0.68570775 0.67791057
0.72920495 0.72443324 0.71678925
0.76121324 0.75686276 0.75245094
0.65955883 0.6530638 0.6477941
0.6551777 0.6484528 0.6406097
0.67000616 0.6659927 0.65824145
0.6834559 0.6795343 0.6716912
0.7083333 0.70441175 0.6965686
0.7377758 0.733793 0.72680765
0.76519614 0.7619178 0.7587928
0.7920037 0.78803617 0.78776044
0.81789213 0.8138481 0.81053925
0.76519614 0.75281864 0.7484069
0.77284014 0.7604856 0.7555913
0.7827818 0.7739276 0.7675092
0.78541666 0.77804077 0.7702206
0.804565 0.7992648 0.7920649
0.8181219 0.8140395 0.80850184
0.8406709 0.83437496 0.8324142
0.86658245 0.8626608 0.8619868
0.89687496 0.89295346 0.89276963
0.8485294 0.8441176 0.8401961
0.84797794 0.84767157 0.8435662
0.8541666 0.84767157 0.84718144
0.8663603 0.8624387 0.8619485
0.8808824 0.8769608 0.8764706
0.89705884 0.89013475 0.8926471
0.9186274 0.9150735 0.9142156
0.9412991 0.93737745 0.93688726
0.9686275 0.9681374 0.9681374
0.14313726 0.13725491 0.12941177
0.15 0.14607844 0.1382353
0.17990196 0.17303923 0.16519609
0.20931374 0.20367646 0.19754902
0.2676471 0.25686276 0.25
0.34117648 0.32769608 0.32352942
0.41323534 0.4034314 0.39607844
0.4762255 0.4620098 0.4580882
0.5529412 0.5431373 0.5372549
0.16960785 0.16053922 0.15343139
0.18385416 0.17693014 0.16936275
0.20545344 0.19417891 0.18921569
0.24583334 0.23514092 0.22950368
0.30134803 0.28921568 0.28468138
0.37493876 0.36283705 0.35827208
0.44638482 0.43357843 0.4284314
0.51366425 0.5018689 0.49629292
0.5732844 0.56617653 0.5583334
0.22401962 0.21617645 0.21078432
0.23786767 0.23143382 0.22432595
0.2665441 0.2604167 0.2529412
0.30208334 0.29448533 0.28829658
0.360049 0.34901962 0.34436274
0.42610294 0.41439947 0.41029412
0.48602945 0.47536764 0.47144607
0.54803926 0.53627455 0.52837014
0.60490197 0.59656864 0.5892157
0.31102943 0.29730392 0.29313725
0.3347733 0.31917894 0.31525737
0.36942405 0.35569856 0.35153192
0.41234687 0.39840686 0.39273897
0.44632354 0.4317402 0.4267157
0.503554 0.48982844 0.483701
0.5579657 0.54491425 0.5351716
0.60732234 0.5981618 0.588603
0.66176474 0.65 0.64215684
0.42941177 0.4137255 0.40882355
0.45085785 0.43676472 0.4314951
0.47328433 0.45759803 0.4536765
0.5047794 0.4900736 0.48517156
0.54019606 0.5259805 0.52107847
0.5821079 0.5721814 0.56544125
0.6242647 0.6147059 0.60759807
0.6626226 0.6544118 0.6469363
0.70980394 0.7039216 0.6960785
0.5664216 0.5566177 0.55073535
0.5710784 0.5628064 0.5561275
0.57935053 0.57022065 0.56415445
0.60009193 0.5922488 0.5846201
0.63075984 0.623652 0.61691177
0.67074144 0.6630821 0.65674025
0.6967524 0.69056374 0.6836397
0.7295343 0.720864 0.71580887
0.76936275 0.76519614 0.75955886
0.66176474 0.65637255 0.6490196
0.66697305 0.6621324 0.6560049
0.682598 0.6786765 0.6709559
0.69442403 0.69050246 0.6827206
0.7176471 0.71446085 0.7080883
0.7395834 0.73517156 0.7312499
0.7633578 0.7591912 0.7556373
0.7927083 0.7897059 0.7856618
0.82058823 0.8151961 0.8151961
0.77401966 0.7642157 0.76029414
0.77809435 0.77055764 0.76390934
0.78259796 0.77689946 0.76960784
0.79515934 0.79019606 0.78259796
0.8029412 0.7982843 0.7908088
0.8224571 0.81853557 0.8124081
0.8456495 0.84154415 0.8390319
0.8703738 0.8659927 0.86204046
0.90318626 0.8992647 0.89852947
0.84901965 0.84313726 0.84313726
0.8593138 0.8566176 0.85343134
0.8691177 0.8637255 0.8632353
0.8727941 0.8691176 0.86715686
0.885294 0.88137263 0.8794119
0.89754903 0.89387256 0.89166665
0.9205882 0.91568625 0.9166666
0.9436275 0.94289213 0.94289213
0.96666676 0.96666676 0.96666676
0.18333334 0.17598037 0.16813725
0.18627453 0.17990196 0.17205884
0.21348038 0.2060049 0.19828431
0.24258578 0.23180147 0.22438726
0.29509807 0.28357846 0.2794118
0.3754902 0.36813727 0.36372548
0.44264707 0.428799 0.42438725
0.50373775 0.49166667 0.48645827
0.5686275 0.56029415 0.552451
0.21090686 0.19834559 0.19393383
0.2226103 0.21329658 0.20723039
0.24120711 0.22886029 0.22374387
0.2751302 0.2620175 0.25782782
0.32794118 0.31626838 0.31118262
0.39833027 0.3862975 0.38221505
0.46352634 0.4528799 0.44734988
0.5333717 0.5215993 0.516391
0.5746936 0.5676471 0.5624387
0.25686276 0.24656864 0.23872548
0.27682292 0.26942402 0.26243874
0.30925244 0.3009804 0.2933517
0.33595282 0.32541358 0.31994486
0.38553923 0.37254903 0.36770833
0.44338232 0.4324295 0.4272059
0.5008885 0.4916054 0.48501837
0.56660545 0.5580883 0.55024517
0.6117647 0.6061275 0.59828436
0.34895834 0.3362745 0.33235294
0.37428004 0.3620251 0.35810357
0.40370712 0.3914522 0.3851716
0.44131434 0.42830884 0.42438725
0.48146448 0.46727937 0.46335787
0.51719517 0.5028569 0.49757966
0.5657935 0.5540288 0.5456955
0.62204355 0.6102098 0.6034314
0.6632966 0.65196085 0.6471201
0.46740192 0.45343137 0.44754905
0.47824755 0.4663909 0.46011028
0.5063113 0.4943628 0.4897059
0.52230394 0.5087929 0.5046263
0.55563724 0.5438726 0.5387255
0.597641 0.58762264 0.57999396
0.63400733 0.62420344 0.61807597
0.6818628 0.67156863 0.6664216
0.7102942 0.70441175 0.69828427
0.5661765 0.5548407 0.55
0.5807828 0.56993717 0.5656863
0.6030331 0.5921875 0.5867035
0.6177926 0.6064645 0.6020527
0.6367341 0.6271753 0.6212623
0.67252606 0.664254 0.6572687
0.697687 0.68984383 0.68291974
0.74703586 0.7394148 0.7324296
0.7731005 0.76617646 0.7613358
0.6738971 0.6699755 0.6629902
0.6789982 0.6750766 0.66723347
0.68985903 0.6856618 0.6780944
0.70490193 0.7010264 0.6931833
0.7227328 0.7204045 0.7125613
0.7440717 0.7424021 0.73561585
0.77438724 0.77239585 0.7660539
0.80284923 0.79892766 0.7988051
0.8303922 0.82438725 0.8274509
0.7714461 0.7634191 0.75772053
0.7832567 0.77873003 0.7710707
0.79362744 0.78811276 0.7806372
0.7923025 0.78838086 0.78053766
0.8126532 0.8079045 0.80079657
0.8310049 0.8270834 0.81997544
0.8470435 0.84304535 0.83832717
0.877091 0.8740885 0.8682828
0.90894604 0.9050245 0.9037377
0.86225486 0.86176467 0.85833335
0.86439955 0.8604779 0.8583333
0.86985296 0.86936283 0.86593145
0.87898284 0.8780637 0.87506133
0.8933823 0.89117646 0.8877451
0.90833336 0.90447307 0.9009805
0.92598045 0.92242646 0.92242646
0.95128685 0.9473652 0.9478554
0.972549 0.9691177 0.9691177
0.22647059 0.21470588 0.21078432
0.23578432 0.22585787 0.22009803
0.24558823 0.23480393 0.23063727
0.27855396 0.26629904 0.26237747
0.3269608 0.3147059 0.31029412
0.3921569 0.37781864 0.3738971
0.45784312 0.445098 0.44117647
0.52254903 0.5107844 0.5029412
0.577451 0.5666667 0.5617647
0.25514707 0.24227941 0.23737745
0.2707874 0.25727636 0.25159314
0.28795958 0.27573532 0.27172184
0.31891853 0.30626535 0.3004136
0.3651348 0.35398287 0.34895834
0.41858152 0.40571383 0.4017923
0.48278183 0.47129288 0.46681985
0.5436275 0.5341912 0.5282476
0.5975491 0.5926471 0.58480394
0.30637255 0.29338238 0.2884804
0.32610297 0.31531864 0.31032476
0.3545956 0.34227943 0.33762255
0.37928918 0.36688113 0.36237743
0.41838235 0.40428922 0.4
0.46571687 0.4557292 0.44914216
0.5223652 0.51053923 0.50330883
0.5739584 0.56246936 0.5545343
0.6365197 0.62867653 0.6208334
0.3932598 0.3805147 0.3736519
0.41133577 0.3999847 0.39511335
0.4460784 0.43109682 0.42696083
0.47218138 0.45772064 0.45347732
0.50459564 0.49148288 0.48394608
0.54687506 0.53200066 0.5257966
0.580576 0.56936276 0.56063116
0.6234835 0.61178005 0.6058364
0.6696079 0.66335785 0.6555147
0.49264708 0.4779412 0.47352943
0.50851715 0.49546567 0.4910539
0.54154414 0.5272059 0.5224265
0.56237745 0.54932594 0.5431986
0.58921576 0.577451 0.57058823
0.6145221 0.6029412 0.59632355
0.63725495 0.6290442 0.62230396
0.68848044 0.6810049 0.67401963
0.72745097 0.720098 0.7142157
0.5846814 0.5737746 0.566054
0.60177696 0.5909927 0.58613664
0.6186887 0.60790443 0.60101104
0.64621633 0.63595283 0.6306373
0.66427696 0.6539216 0.6488358
0.6878371 0.68085176 0.6730086
0.71081495 0.703125 0.6963848
0.7446079 0.7389093 0.73174024
0.78431374 0.7803922 0.77254903
0.6870098 0.68014705 0.6723039
0.6969976 0.690962 0.6835478
0.6946691 0.6930148 0.6853554
0.7193627 0.7152267 0.70772046
0.7395834 0.7367647 0.73125005
0.7603248 0.7556679 0.75183815
0.782353 0.77837014 0.7756128
0.8109069 0.80689347 0.8076287
0.83504903 0.83137256 0.8321078
0.7933824 0.78455883 0.778799
0.7916667 0.78474253 0.77758884
0.79748774 0.7931985 0.7853554
0.813894 0.8089461 0.8015625
0.82022053 0.816299 0.8107843
0.8376838 0.833946 0.82916665
0.8585478 0.8546261 0.84901965
0.88244486 0.8795956 0.8759652
0.90821075 0.9067402 0.90343136
0.8725491 0.8715687 0.86568624
0.87303925 0.8702206 0.8691176
0.8843137 0.8811275 0.87794125
0.8881127 0.88676465 0.88370097
0.9009804 0.9004902 0.8965687
0.9145833 0.9137255 0.9106618
0.9343137 0.9303922 0.9274511
0.95649505 0.95208335 0.95208335
0.9774509 0.9764706 0.9764706
0.28186277 0.27009806 0.26225492
0.28731617 0.27254903 0.26862746
0.2987745 0.2870098 0.2827206
0.32567403 0.31488973 0.30882353
0.36519608 0.3551471 0.3480392
0.41746324 0.40422794 0.40030643
0.47867647 0.46507356 0.46053922
0.5419118 0.5301471 0.5237745
0.58725494 0.5808824 0.57303923
0.3077206 0.29411766 0.28811276
0.32748163 0.31477484 0.30911458
0.34480703 0.33120406 0.32714462
0.36228555 0.34954044 0.3449525
0.40272674 0.3900429 0.3846201
0.4485524 0.43766087 0.43141082
0.49987748 0.4886336 0.48079044
0.5547105 0.54592526 0.5395757
0.6063726 0.6 0.5921569
0.36262256 0.35294113 0.34840685
0.38023898 0.3684436 0.36230087
0.4053309 0.39227942 0.3878064
0.42428008 0.4114124 0.40588236
0.44816178 0.43786764 0.4333946
0.48959866 0.477068 0.47052696
0.5358762 0.52484685 0.51727945
0.5935968 0.5826287 0.5747856
0.63186276 0.6242647 0.61825985
0.44699755 0.43553925 0.42916667
0.46507353 0.45183823 0.44780174
0.4776195 0.4640165 0.45965075
0.5268 0.5125307 0.5077436
0.5487745 0.53507966 0.52650124
0.5675705 0.5553156 0.5456342
0.601731 0.59103864 0.5829657
0.64875925 0.6369945 0.6292203
0.68155634 0.67359066 0.6639093
0.53995097 0.5242647 0.51911765
0.5526961 0.54047185 0.53428316
0.56911767 0.55710787 0.55006135
0.59188116 0.5821385 0.5738664
0.6125 0.6019608 0.594853
0.63363975 0.6245711 0.6173101
0.657598 0.6492034 0.64191175
0.6882966 0.68308824 0.6755209
0.73382354 0.72916675 0.72132355
0.62346816 0.6131741 0.6066177
0.62533706 0.61613816 0.60988826
0.64443934 0.6354473 0.62875307
0.6696002 0.6624694 0.6539522
0.6873468 0.6814032 0.6748468
0.7107154 0.7040365 0.69731927
0.72919726 0.7238051 0.71628374
0.7558824 0.75098807 0.74527425
0.79258585 0.7886642 0.780821
0.708456 0.70159316 0.6976716
0.70787364 0.7039828 0.69712013
0.7237746 0.71924025 0.7133885
0.73743874 0.73351717 0.7293351
0.7594976 0.7553922 0.75147057
0.7773438 0.772932 0.7679994
0.8004902 0.79641545 0.7953125
0.8223346 0.814951 0.81925553
0.84362745 0.8406862 0.84362745
0.8005515 0.7927083 0.78578424
0.80036 0.7962316 0.7883885
0.8076287 0.8032935 0.7954504
0.81910235 0.8138403 0.80833334
0.8308211 0.82536757 0.8219668
0.85018384 0.8464538 0.8441943
0.8678156 0.863894 0.8620098
0.8939798 0.8909774 0.88858765
0.9235907 0.9221201 0.9221201
0.8808824 0.8745099 0.87303925
0.8847426 0.8832721 0.8793505
0.8927696 0.8881127 0.88492644
0.8992035 0.89675254 0.8929534
0.9129902 0.90906864 0.9051471
0.92714465 0.9232231 0.92175245
0.9427697 0.938848 0.9406863
0.9647059 0.9632354 0.9632354
0.99068636 0.98676467 0.98676467
0.33333334 0.32156864 0.31764707
0.33823532 0.3264706 0.32254905
0.35098037 0.3392157 0.33431375
0.37352943 0.36225492 0.35784316
0.40588236 0.3980392 0.39411765
0.4392157 0.42696083 0.41960785
0.49509805 0.47941178 0.4754902
0.5470588 0.53676474 0.5289216
0.6 0.59607846 0.5882353
0.36862746 0.3529412 0.34901962
0.3793505 0.3636642 0.35827208
0.3860294 0.37242648 0.3685049
0.40863973 0.39442402 0.39050245
0.43382353 0.41813725 0.4142157
0.48020834 0.46697304 0.46305144
0.5181373 0.5063726 0.50024515
0.5783701 0.568076 0.5626838
0.6161765 0.60833335 0.6044118
0.40686274 0.39607844 0.3911765
0.42916667 0.4159314 0.4105392
0.46078432 0.445098 0.44117647
0.46985292 0.45502448 0.4511029
0.4960785 0.48333338 0.4779412
0.5209559 0.5117647 0.501348
0.5681373 0.5563726 0.54852945
0.6058824 0.59803927 0.58921576
0.6598039 0.654902 0.64705884
0.48186272 0.46666667 0.4622549
0.5087623 0.493076 0.48897058
0.52132356 0.5056373 0.4974265
0.54895836 0.5376226 0.52928925
0.5742647 0.56053925 0.5526961
0.59313726 0.58137256 0.57052696
0.6247549 0.61078435 0.60171574
0.6607843 0.64773285 0.6398897
0.70686275 0.69558823 0.6877451
0.5588236 0.55098045 0.5431373
0.56911767 0.56004906 0.5522059
0.6058824 0.59607846 0.58970594
0.61691177 0.60906863 0.6012255
0.65686274 0.6509804 0.6431373
0.6600491 0.65245104 0.64656866
0.6838236 0.67647064 0.6691177
0.70955884 0.7056373 0.6977941
0.74705887 0.7431373 0.7352941
0.6602941 0.6490196 0.64117646
0.6670343 0.6591912 0.65134805
0.6743873 0.66654414 0.658701
0.6934436 0.6890931 0.68125
0.7063727 0.7022059 0.69436276
0.7341912 0.7302697 0.72242653
0.74816173 0.7442402 0.7367647
0.77530634 0.7726716 0.76482844
0.7911765 0.787255 0.77941185
0.72254896 0.7176471 0.7107843
0.7432597 0.7378677 0.7372549
0.7446078 0.73848045 0.7367647
0.75894606 0.75490195 0.75490195
0.7759804 0.7686274 0.7681373
0.79950976 0.7926471 0.79301476
0.8166666 0.8088235 0.80980396
0.8295343 0.8245098 0.82549024
0.8568627 0.85294116 0.85294116
0.81715685 0.8156863 0.8078432
0.8151961 0.8151961 0.8088848
0.82732844 0.8262255 0.82230395
0.8398897 0.8362745 0.83235294
0.84828436 0.8463235 0.84436274
0.86697304 0.8617647 0.8630515
0.88468134 0.88026965 0.88137263
0.907353 0.9018996 0.9039829
0.93137246 0.92990196 0.92990196
0.88235295 0.88235295 0.8784314
0.89411765 0.890196 0.890196
0.8980392 0.89705884 0.8980392
0.9137255 0.90637255 0.9098039
0.9235294 0.91960776 0.91960776
0.9367647 0.9328431 0.9367647
0.95784307 0.95392156 0.95490193
0.975 0.97107846 0.97107846
0.99215686 0.99215686 0.99215686
