assets/luts/LUTs/LEICA/GREG WLM.cube
#Generated by Pennl1
#闲鱼号：LOOK胶片感
#公众号：胶片感
TITLE GREG WLM
LUT_3D_SIZE 33
0.003921569 0.0 0.003921569
0.008210785 0.004289216 0.004656863
0.013235294 0.009313726 0.0125
0.021813726 0.018995099 0.018995099
0.031862747 0.031862747 0.031862747
0.04656863 0.044730395 0.044730395
0.063725494 0.059803925 0.059803925
0.080882356 0.07696079 0.07438726
0.09509804 0.091176465 0.09019608
0.1112745 0.10735294 0.10735294
0.124754906 0.120833345 0.11715687
0.14166668 0.13382354 0.12990198
0.15931374 0.15196079 0.14754903
0.17818628 0.17426471 0.16642158
0.18921569 0.18406864 0.17745098
0.20637253 0.1985294 0.1930147
0.22549021 0.21568626 0.20980392
0.24460785 0.23517157 0.22892156
0.26985297 0.25931373 0.2541667
0.28762257 0.27279413 0.26887256
0.32107845 0.30539218 0.3014706
0.3254902 0.30980393 0.30588236
0.35416672 0.3387255 0.33480394
0.37377453 0.3620098 0.35747552
0.38529414 0.37352943 0.36666667
0.4094363 0.39901957 0.39374998
0.4240196 0.41446078 0.4083333
0.43210784 0.42242646 0.4164216
0.45294118 0.44264707 0.4348039
0.470098 0.45833334 0.4533088
0.49681374 0.485049 0.4779412
0.50551474 0.49375004 0.48946077
0.52156866 0.5137255 0.5058824
0.009313726 0.008946079 0.008946079
0.013936122 0.013269762 0.013235294
0.021515014 0.018558517 0.018259805
0.029308366 0.028044578 0.027941177
0.043259807 0.039568014 0.03933824
0.055342376 0.05159314 0.05142081
0.06809896 0.06454504 0.066176474
0.08222657 0.07819011 0.07904412
0.098958336 0.09494486 0.0945772
0.11562118 0.1113894 0.108333334
0.1293888 0.12509957 0.121200986
0.14630057 0.13846892 0.13442479
0.16234681 0.15482536 0.14747243
0.17655484 0.1687117 0.16401273
0.19225644 0.1842984 0.17682293
0.20747548 0.19941407 0.19178922
0.22267154 0.21482845 0.20876224
0.24419807 0.2342448 0.22995557
0.26619178 0.2542892 0.25025275
0.28664216 0.27450982 0.27058825
0.3174173 0.30217525 0.2982537
0.33022368 0.31798026 0.31061584
0.3516927 0.34362748 0.33580732
0.37334943 0.3625077 0.35503218
0.39485294 0.38612133 0.37944242
0.40612745 0.394604 0.39031482
0.4200138 0.40808824 0.4039599
0.43485367 0.42272133 0.4187998
0.45145527 0.43955266 0.43563116
0.4759995 0.46705344 0.46031326
0.49597123 0.48524052 0.48028493
0.51432294 0.50292593 0.49863666
0.53651965 0.5251226 0.5208334
0.027205883 0.023284314 0.02254902
0.030759802 0.027872244 0.026838236
0.035784315 0.03518689 0.031862747
0.045465685 0.04296875 0.041337315
0.056862745 0.054932598 0.052205887
0.06727941 0.06485141 0.06296722
0.08056066 0.079825364 0.07622549
0.09793199 0.09253217 0.088610604
0.110049024 0.10459559 0.10067402
0.121936284 0.11459099 0.11335784
0.13779107 0.12994793 0.1262255
0.15470283 0.14695926 0.14293812
0.16599266 0.16102941 0.15422796
0.18357845 0.1764706 0.17181373
0.19705883 0.18849571 0.18406864
0.21930914 0.20854014 0.20332415
0.23517156 0.2262255 0.21911766
0.25190717 0.24332874 0.23622088
0.2742494 0.26128983 0.25586706
0.29611674 0.2805913 0.2765089
0.3167586 0.3017157 0.29715076
0.3426241 0.32767314 0.32372856
0.36573222 0.3571998 0.35024512
0.3839614 0.37611827 0.3715763
0.4019608 0.39411765 0.38921574
0.41594672 0.40675548 0.39916515
0.43267465 0.41951594 0.4134804
0.44842982 0.43347886 0.42882198
0.46501225 0.45205265 0.4473959
0.4902497 0.4818321 0.4748851
0.50500923 0.49790135 0.4900582
0.5343827 0.52727485 0.5194317
0.5316177 0.52450985 0.5166667
0.0497549 0.045833334 0.041911766
0.05012255 0.05001915 0.04609758
0.054940257 0.05404412 0.05012255
0.063725494 0.06262255 0.058700982
0.07512255 0.07078738 0.06727941
0.08450521 0.0799977 0.07850031
0.097786464 0.09386489 0.09165901
0.11261106 0.10611596 0.1021944
0.12291667 0.11507354 0.11115196
0.13480392 0.12789139 0.12303921
0.14767157 0.13989736 0.13487285
0.16458334 0.15670574 0.1517157
0.18111214 0.17265625 0.16824448
0.19239815 0.18737362 0.17953049
0.2067402 0.19960937 0.19264704
0.22814415 0.21523437 0.21020985
0.24699757 0.23382352 0.22935048
0.26985297 0.25743338 0.25351182
0.29054075 0.27767313 0.27181372
0.3094401 0.2943704 0.28983226
0.3278033 0.31554842 0.30916056
0.3532897 0.34045652 0.33644685
0.3713082 0.3597197 0.35458794
0.3901501 0.38120404 0.37473193
0.40940565 0.40045956 0.39473036
0.43241805 0.42250302 0.416008
0.45206797 0.4403033 0.4351486
0.47196305 0.46019837 0.45345822
0.48622856 0.47446385 0.46772364
0.49803925 0.49111906 0.4835861
0.5109069 0.5058824 0.49803925
0.5329925 0.527968 0.52012485
0.54558825 0.54056376 0.5327206
0.07401961 0.07009804 0.066176474
0.074525125 0.07268689 0.07023591
0.08014706 0.07521446 0.07276348
0.086228564 0.082598045 0.080147065
0.09601716 0.090257354 0.088174015
0.102527566 0.096614584 0.09583333
0.11200981 0.106617644 0.10523898
0.12552084 0.118520215 0.11510416
0.13688727 0.12904413 0.12512255
0.14914216 0.14460784 0.13737746
0.1620098 0.15441176 0.14794731
0.18030025 0.1694853 0.16318935
0.19381127 0.18235293 0.17812498
0.2051777 0.19554228 0.18916972
0.22356005 0.21246935 0.20563725
0.24330577 0.23094362 0.22369795
0.25980395 0.24730393 0.24215688
0.2838695 0.26977637 0.2658548
0.30137867 0.2856924 0.28177083
0.3213695 0.30683213 0.30291057
0.34313726 0.3310662 0.32585788
0.35935968 0.3452206 0.34125307
0.38247547 0.37061885 0.36439952
0.40307903 0.3900735 0.38576898
0.4310049 0.41924018 0.41250002
0.4493566 0.4375919 0.43109682
0.45836398 0.4465993 0.4426777
0.47823223 0.4656863 0.46176472
0.49454656 0.4822304 0.47738975
0.5100797 0.50113356 0.49397978
0.5189951 0.51115197 0.50330883
0.53520226 0.52602637 0.519516
0.55833334 0.5504902 0.54264706
0.097303934 0.09154413 0.09129902
0.09786688 0.09357767 0.09357767
0.10404412 0.09654565 0.09654565
0.10943628 0.10291438 0.103431374
0.11723346 0.11017158 0.11122856
0.12450981 0.11777344 0.11850491
0.13322611 0.12538296 0.1272212
0.14191177 0.13527498 0.13333334
0.1520527 0.1460478 0.14212623
0.16756281 0.16176471 0.15608533
0.17583486 0.16984528 0.16579351
0.19429763 0.18413371 0.17837393
0.20583639 0.19590993 0.1901501
0.22403875 0.21365656 0.20829886
0.24060203 0.22924326 0.22467066
0.25590533 0.2443857 0.23922719
0.2711397 0.25925246 0.2544118
0.2961244 0.28496096 0.27920115
0.3136336 0.30036 0.295864
0.33553922 0.32331878 0.3193972
0.35784316 0.34607846 0.34033397
0.3681296 0.3563649 0.35237828
0.38381588 0.3736443 0.36788455
0.41408935 0.40056682 0.39480698
0.43575364 0.42398897 0.4181679
0.4550628 0.44393 0.43800935
0.46326593 0.45333946 0.44757968
0.48345974 0.47242644 0.46666667
0.5015932 0.48973653 0.48382354
0.52024746 0.5099801 0.5039752
0.525046 0.5153646 0.5093597
0.5484337 0.5368643 0.5310815
0.5644608 0.5547794 0.54877454
0.11862746 0.1129902 0.114705876
0.12120098 0.11491269 0.11491269
0.1254902 0.11838235 0.11838235
0.13150276 0.12647825 0.12696078
0.14083946 0.13382354 0.13553922
0.14803922 0.14240196 0.14411765
0.15441176 0.1475337 0.14924939
0.1598269 0.1545573 0.15402114
0.16930148 0.1637255 0.1620098
0.18277422 0.17706035 0.17348346
0.19100797 0.18491116 0.18305759
0.20740655 0.20122549 0.1955193
0.21960784 0.2117647 0.20392157
0.24191177 0.23406862 0.2266008
0.2529412 0.24578738 0.23965994
0.26940104 0.26217064 0.25693935
0.28835785 0.2796569 0.27377453
0.30833334 0.3004902 0.29395682
0.32818627 0.31916362 0.31318933
0.3509727 0.33969057 0.33356312
0.37279412 0.36102942 0.35490197
0.38545498 0.37369025 0.36756283
0.39667585 0.38858765 0.38295037
0.42620254 0.4147825 0.40880054
0.44123775 0.43167892 0.42481616
0.45536155 0.4456342 0.44112286
0.47573534 0.46665135 0.46004903
0.4995098 0.49166667 0.48382354
0.51390934 0.5036152 0.49822307
0.5262408 0.5160616 0.51055455
0.5397672 0.53020835 0.52408093
0.5599265 0.54836863 0.5426854
0.56642157 0.5568628 0.5507353
0.14093138 0.13700981 0.13186274
0.1424058 0.13713619 0.13198912
0.14484528 0.13982843 0.13468137
0.15270758 0.14840686 0.14325981
0.1607843 0.15602022 0.15183824
0.16811812 0.16299021 0.16041668
0.17441024 0.16860448 0.16603094
0.17926243 0.17318858 0.17061505
0.18838848 0.18281248 0.17830883
0.20164673 0.19751455 0.19123009
0.21470588 0.20710786 0.20428921
0.22381282 0.21846277 0.21192555
0.23933823 0.23149511 0.22365196
0.26164216 0.25379902 0.24595588
0.27347583 0.26685816 0.25901502
0.28926548 0.28479627 0.27750078
0.3050858 0.29852942 0.29136032
0.32701823 0.3191751 0.31213236
0.3479167 0.33830422 0.33265167
0.3653416 0.3538718 0.34860218
0.38340992 0.37164524 0.3663756
0.4057215 0.3939568 0.3861941
0.41892618 0.41341144 0.4070772
0.43585324 0.4268727 0.4223384
0.45410538 0.44626227 0.4393995
0.46640623 0.45721507 0.45240885
0.49353555 0.4823606 0.47640166
0.5128868 0.50247014 0.49583337
0.52795655 0.51669735 0.5096967
0.5375 0.52855396 0.5210899
0.5493643 0.5415212 0.53367805
0.56703055 0.55796576 0.55367655
0.56727946 0.5594363 0.5515932
0.16078432 0.15686275 0.14901961
0.1637255 0.15980393 0.15196079
0.16574755 0.16182598 0.15398285
0.17671569 0.17279412 0.16495098
0.18272059 0.17879902 0.17132354
0.18746938 0.18308823 0.1762255
0.19546571 0.1911152 0.18425244
0.20125613 0.19669119 0.18982843
0.2110294 0.20465687 0.19705883
0.22447917 0.21761642 0.20977329
0.23474264 0.22696078 0.22279412
0.24264707 0.23575367 0.23085171
0.26004905 0.2522059 0.24730393
0.27913603 0.2712929 0.26639095
0.29828432 0.28982845 0.2849265
0.31574756 0.3071385 0.30104166
0.33039218 0.32156864 0.3151961
0.3473652 0.33832723 0.33167893
0.3704657 0.35992646 0.35477942
0.38762254 0.37356007 0.36963853
0.3987745 0.3840686 0.38014707
0.41139704 0.39954048 0.39181986
0.4341912 0.42432603 0.4194853
0.44935665 0.43903184 0.43495712
0.4632353 0.45539218 0.4507353
0.47674635 0.46755514 0.46228555
0.50055146 0.4887868 0.48137254
0.51924026 0.5074755 0.5000919
0.5321079 0.5203432 0.51250005
0.54840684 0.5394608 0.53373164
0.5626838 0.5548407 0.54754907
0.57625616 0.568413 0.5641238
0.5833334 0.57843137 0.57058823
0.18786764 0.1839461 0.17610295
0.18548177 0.1815602 0.17371707
0.19006588 0.18614429 0.17830116
0.19821154 0.19429 0.18644685
0.20271139 0.19878982 0.1909467
0.20845589 0.2029833 0.19669119
0.2170343 0.21166514 0.20526962
0.22521064 0.22128907 0.21344592
0.23155639 0.22717527 0.21933211
0.2427696 0.23544347 0.23039216
0.25506282 0.2503217 0.2432598
0.26740196 0.25955883 0.25553387
0.28455883 0.2767157 0.2694853
0.30257353 0.2947304 0.2875
0.3219516 0.31288296 0.3066866
0.33700597 0.3268344 0.3213197
0.35214463 0.3439951 0.33645836
0.37121248 0.3631204 0.3555262
0.38524818 0.37470895 0.36728704
0.3942287 0.38198525 0.37733996
0.4232077 0.4108303 0.40401345
0.44429767 0.4325138 0.4246898
0.446201 0.43774512 0.43051472
0.4632621 0.45490196 0.4476716
0.47876838 0.47009805 0.46369484
0.49180835 0.48158315 0.47631356
0.5104933 0.5005898 0.49274668
0.5299403 0.5181756 0.51033247
0.54468447 0.53498775 0.5271446
0.5620328 0.55401736 0.54661465
0.57634807 0.5685049 0.5634651
0.5862171 0.57837397 0.57139635
0.5981618 0.5909314 0.5830883
0.20686275 0.20294118 0.19509806
0.20732997 0.2034084 0.19556525
0.21568626 0.2117647 0.20392156
0.22316176 0.21820618 0.21036306
0.22745097 0.22123161 0.21338849
0.23013176 0.22609529 0.21836704
0.23480392 0.23077513 0.22303922
0.24579504 0.24187347 0.23403032
0.25545344 0.25153187 0.24368873
0.26727942 0.26004902 0.25241268
0.29048714 0.28287378 0.27504596
0.3003753 0.2924173 0.28492647
0.3130515 0.30153188 0.29736522
0.3254366 0.3147212 0.30975032
0.34845284 0.3405331 0.33276656
0.36245406 0.3544654 0.34676778
0.37328428 0.36544117 0.35943627
0.39095435 0.3831112 0.37894455
0.40424326 0.39623165 0.3895374
0.42423406 0.41614583 0.40849417
0.44396445 0.43587622 0.4280637
0.44726562 0.43561584 0.43133423
0.45975792 0.44823837 0.44384193
0.4884038 0.47745863 0.4696155
0.50802696 0.50012255 0.49234068
0.5176777 0.50841 0.50199145
0.534084 0.5224572 0.516682
0.54299945 0.53123474 0.52534467
0.5548714 0.54325986 0.5367954
0.5731771 0.56429994 0.5564568
0.59817713 0.590334 0.58567715
0.59623164 0.5917203 0.5842448
0.6183824 0.61053926 0.6063726
0.23210785 0.22426471 0.2202206
0.23232998 0.22828585 0.22044271
0.23429075 0.22953433 0.22169116
0.24492188 0.23704429 0.2292356
0.2494332 0.2429381 0.23517157
0.25741807 0.2515357 0.24553081
0.2680147 0.26004902 0.2539905
0.27418047 0.26621476 0.2609873
0.28443632 0.2763787 0.26960784
0.29720053 0.28921568 0.2814951
0.31728706 0.3057598 0.30160078
0.32291666 0.3110294 0.3031901
0.33916974 0.3272825 0.31954658
0.3498392 0.33797872 0.33096662
0.36523438 0.3534697 0.34823835
0.37972963 0.36796492 0.3601218
0.3929534 0.37928918 0.37334555
0.40843287 0.3928692 0.38882506
0.42961094 0.41396293 0.41000304
0.4450444 0.42935812 0.42543656
0.45807287 0.44238663 0.43846506
0.46335784 0.4476716 0.44375
0.4953585 0.48359376 0.4796645
0.5126877 0.5009422 0.49689797
0.5295037 0.51786155 0.5138174
0.5466108 0.5349265 0.5309245
0.55199915 0.54023445 0.53459716
0.5540518 0.5422871 0.53450906
0.566345 0.5569547 0.5491575
0.58879447 0.5808288 0.5730737
0.6087929 0.5978401 0.59001994
0.6085325 0.59689033 0.5924901
0.6237745 0.6159314 0.60808825
0.25833336 0.25 0.24264707
0.26464462 0.2563113 0.24895833
0.26078433 0.2525429 0.24509804
0.27032784 0.26138175 0.25464153
0.28137255 0.27107844 0.26568627
0.289951 0.28003985 0.27403495
0.29880515 0.28682598 0.2826287
0.31017157 0.29808518 0.2939951
0.3219363 0.30710787 0.3031863
0.33236825 0.31957722 0.31565565
0.34852943 0.3362745 0.33235294
0.35392156 0.3382506 0.33098957
0.37242648 0.35716912 0.3523897
0.39408702 0.37915137 0.3717984
0.39347425 0.3812194 0.3738664
0.40850183 0.39644608 0.388894
0.4210784 0.40931374 0.4014706
0.4339461 0.42218137 0.41433826
0.4468137 0.4323529 0.4272059
0.4650429 0.4493566 0.44543505
0.4828431 0.46715686 0.4632353
0.48955268 0.47386643 0.46994486
0.50625 0.49500614 0.49037993
0.52700675 0.51675856 0.5089154
0.53308827 0.5256128 0.51776963
0.5492188 0.54002756 0.5335325
0.562837 0.5508579 0.5454351
0.5761949 0.5642004 0.55841
0.5895221 0.5777574 0.5715074
0.605622 0.5942096 0.5889706
0.610478 0.6019915 0.59519
0.62228864 0.6144455 0.6066483
0.6333333 0.6254902 0.6181373
0.28750002 0.27573532 0.27181375
0.28909314 0.27724802 0.27254903
0.29799327 0.28610602 0.28144917
0.30675936 0.29719672 0.2904565
0.31321996 0.30228248 0.297212
0.32340688 0.3113779 0.30542663
0.33419117 0.3210861 0.31506586
0.34649587 0.33215764 0.32718292
0.35088852 0.33520222 0.33128065
0.36692324 0.35123697 0.3473154
0.38295037 0.36726406 0.36334252
0.38914675 0.37441406 0.3703699
0.40791973 0.3958793 0.38841912
0.4220741 0.40791592 0.40332416
0.4284314 0.41360298 0.4094133
0.44040287 0.42647058 0.42079502
0.4511029 0.43890935 0.4314951
0.46311277 0.45134807 0.44401425
0.47715992 0.4632889 0.45782015
0.49056375 0.47573534 0.4709559
0.50536156 0.48978248 0.4857537
0.51684284 0.50115657 0.49723497
0.52855396 0.52009803 0.51305914
0.53617495 0.53139555 0.5235524
0.5431679 0.5376226 0.52977943
0.56431144 0.5551203 0.5486252
0.5792433 0.5661382 0.56221664
0.5966222 0.58342147 0.5778723
0.611826 0.6000613 0.59499085
0.631116 0.6221699 0.61604625
0.63412225 0.62697613 0.6217831
0.654002 0.6462393 0.63868344
0.65134805 0.6435049 0.6387255
0.3169118 0.30392158 0.3
0.32145375 0.3093214 0.3029565
0.3299326 0.31475186 0.31032476
0.33875614 0.3261106 0.32025123
0.34025738 0.32702208 0.3231005
0.35408244 0.33965993 0.3344746
0.36352634 0.35053614 0.34543505
0.37650126 0.36174172 0.35782018
0.3829044 0.36813727 0.36421567
0.39577973 0.38131896 0.37636337
0.40424326 0.3897825 0.38578433
0.4155331 0.4025429 0.39853707
0.43373162 0.42123163 0.41446078
0.43743104 0.42777267 0.42078736
0.45087317 0.43910843 0.43396142
0.46518078 0.45232075 0.44557294
0.4768382 0.46372554 0.4572304
0.48835018 0.47658548 0.47107077
0.50542283 0.49365813 0.48704046
0.5190181 0.506296 0.4994103
0.5249694 0.5106924 0.50536156
0.5352252 0.51957726 0.5156174
0.5448683 0.5333487 0.52803314
0.5505745 0.54273134 0.5348882
0.5672182 0.5590687 0.55122554
0.59018075 0.58018535 0.57369024
0.5937194 0.5819547 0.57803315
0.60343903 0.5916743 0.58775276
0.62515324 0.61338854 0.608701
0.6401731 0.631227 0.62608
0.6546875 0.6490349 0.6416973
0.6729014 0.665311 0.65857846
0.67156863 0.6637255 0.65588236
0.3539216 0.34142157 0.3359069
0.356767 0.3462278 0.34086245
0.36353406 0.34944087 0.3452206
0.3723039 0.3584176 0.353351
0.3771446 0.36291364 0.35899204
0.38309973 0.36741346 0.3634919
0.39133728 0.37565103 0.37172946
0.40463388 0.3889476 0.38502604
0.4142157 0.4002757 0.39635414
0.4284237 0.41506585 0.40917966
0.4344363 0.422572 0.4170113
0.44906938 0.4333831 0.42791823
0.45890012 0.4435049 0.43929228
0.46458337 0.4512255 0.44548482
0.47105548 0.4576976 0.4530484
0.4836818 0.4709712 0.46472117
0.49503675 0.48327205 0.47622547
0.5082108 0.49550018 0.48998547
0.52048105 0.50821847 0.5016008
0.5317785 0.51819474 0.5121707
0.5377298 0.52567405 0.51951593
0.55485606 0.53929234 0.535298
0.56711096 0.5570849 0.5492418
0.5692364 0.56114435 0.5535501
0.5881434 0.578125 0.57187504
0.60330886 0.5920918 0.5860945
0.6148361 0.60466456 0.5991498
0.62598044 0.61580884 0.61029416
0.6368567 0.6266851 0.6197151
0.64685583 0.6383579 0.6316598
0.6615579 0.6550092 0.6474648
0.675 0.66730624 0.6615733
0.68553925 0.6776961 0.6714461
0.39411765 0.3843137 0.37843138
0.39503676 0.386826 0.3791667
0.4035539 0.39178923 0.3859069
0.40471813 0.39240196 0.38707104
0.41323534 0.3995098 0.39558825
0.41752452 0.403799 0.39987746
0.42843136 0.41360295 0.40968138
0.43786764 0.42218137 0.4182598
0.445098 0.43088233 0.4254902
0.45863968 0.4449142 0.44068626
0.46629906 0.45257354 0.4468137
0.4768382 0.46115196 0.4533701
0.4892157 0.4735294 0.46789217
0.49779418 0.48210788 0.4777573
0.50453436 0.48946077 0.48357844
0.5146446 0.5009191 0.49583334
0.5264706 0.51274514 0.50784314
0.5336397 0.51991427 0.5151961
0.5392157 0.52683824 0.52156866
0.54993874 0.53817403 0.53229165
0.56666666 0.554902 0.5507353
0.58002454 0.56825984 0.5624387
0.5942402 0.58455884 0.5785539
0.5982231 0.58976716 0.5825368
0.612255 0.6009804 0.5965687
0.62162995 0.6125 0.6059437
0.6314951 0.623652 0.61580884
0.6444241 0.6355393 0.6287378
0.65269613 0.6441177 0.63700986
0.66476715 0.6555147 0.6504902
0.6750001 0.66678923 0.66127455
0.6818015 0.67395836 0.66807604
0.6960784 0.6862745 0.68235296
0.43664217 0.42487746 0.41862747
0.43709028 0.426551 0.41870788
0.44022673 0.42613357 0.41902575
0.4388059 0.42471278 0.4207912
0.4528186 0.43959865 0.4348039
0.46017158 0.44731542 0.44215685
0.46989125 0.45490196 0.45098042
0.4764859 0.46079963 0.45687807
0.4829657 0.4702206 0.46335784
0.48798254 0.47425318 0.46971887
0.49583337 0.48024663 0.47632506
0.50482535 0.4891391 0.48129594
0.52477026 0.509084 0.50144
0.52300096 0.507824 0.5012255
0.5321921 0.5193322 0.51148903
0.5450253 0.5326134 0.52541745
0.55441177 0.54105395 0.5359682
0.56649053 0.5540786 0.54877454
0.5768689 0.5651042 0.55885416
0.58774513 0.5759804 0.5697304
0.597932 0.58616734 0.5799173
0.6006817 0.59046036 0.582667
0.6191866 0.60766697 0.6035003
0.6272097 0.6191177 0.61152345
0.6369485 0.62732846 0.62126225
0.64388025 0.6345091 0.628194
0.65004593 0.6422028 0.63435966
0.66068476 0.6519953 0.64623547
0.6714461 0.6615503 0.656633
0.6873353 0.6760187 0.6716491
0.6949909 0.68511796 0.6811964
0.69980854 0.69181603 0.68578434
0.70661765 0.6971813 0.6909314
0.46715686 0.45269606 0.44485295
0.47693014 0.46235448 0.4545113
0.46715686 0.45197612 0.44385725
0.47122395 0.4574755 0.44892004
0.48602945 0.47181374 0.4647365
0.49590996 0.48357078 0.4763021
0.504565 0.49005827 0.48344055
0.5074602 0.4917739 0.48692557
0.5163603 0.5015931 0.49675244
0.5150582 0.49956343 0.49545035
0.52662385 0.5109375 0.50701594
0.5303386 0.51734835 0.5122013
0.54341304 0.5304228 0.52527577
0.543413 0.5301011 0.5249541
0.55513173 0.542356 0.53636646
0.5627068 0.55363816 0.545795
0.5769608 0.5678922 0.5606618
0.5877221 0.5786535 0.5713082
0.6023438 0.589568 0.58357847
0.61394763 0.60159314 0.5964461
0.6240809 0.60995716 0.60481006
0.62287074 0.61102176 0.6058747
0.6271293 0.62083334 0.6141391
0.64191175 0.6363435 0.62850034
0.6528799 0.6447304 0.6371936
0.6667739 0.6571998 0.6501609
0.670098 0.65955883 0.6528952
0.68063724 0.67009807 0.6641698
0.69626224 0.68495715 0.6800245
0.7056295 0.6977405 0.6918812
0.7073529 0.70197606 0.6953584
0.72179073 0.7166437 0.7089155
0.7286765 0.7235294 0.7156863
0.4959559 0.4802696 0.47242644
0.5076823 0.49199605 0.48415288
0.49901962 0.48349416 0.4754902
0.5008464 0.48663834 0.47817862
0.5087776 0.49532786 0.4874847
0.5207644 0.505936 0.49809286
0.5308747 0.5155638 0.50772065
0.5369868 0.52130055 0.51603097
0.54791665 0.5322304 0.52601105
0.55458033 0.53889406 0.53449374
0.56997555 0.5571615 0.5503677
0.55904186 0.54727715 0.5433556
0.57075673 0.55937505 0.55507046
0.5797373 0.5701785 0.5631932
0.5825521 0.5714231 0.56416976
0.5871975 0.57935435 0.5715112
0.5996324 0.59178925 0.5839461
0.6063917 0.5967295 0.59070545
0.61279875 0.60071236 0.5944164
0.62095594 0.60900354 0.6044118
0.64100796 0.62849265 0.6245711
0.6465955 0.63183594 0.62791437
0.6435585 0.63657326 0.6287301
0.6580538 0.65093446 0.64357
0.6744792 0.66663605 0.6618566
0.68379676 0.6756587 0.66982615
0.6942249 0.68418354 0.67805606
0.70170045 0.6899356 0.6855584
0.7150276 0.703263 0.6990196
0.71985674 0.7115274 0.7047871
0.7289522 0.7244562 0.71661305
0.7434666 0.7395451 0.7317019
0.7433824 0.73946077 0.7316177
0.52254903 0.51029414 0.502451
0.5404412 0.52786463 0.5200215
0.53333336 0.5176471 0.50980395
0.5354014 0.519853 0.51200986
0.5384804 0.5243873 0.51525736
0.5437653 0.5315104 0.5202359
0.5522672 0.54001224 0.5306679
0.5583793 0.5461244 0.53860295
0.56593144 0.551103 0.5459559
0.57087934 0.5580883 0.55409014
0.5734069 0.56161153 0.5572304
0.5725797 0.560815 0.5567862
0.6032476 0.59154415 0.58455884
0.59852946 0.5878983 0.58273596
0.6028186 0.59463847 0.5878677
0.61285233 0.6064032 0.60059744
0.6193628 0.6132353 0.60539216
0.62732846 0.61919427 0.6116422
0.6363358 0.62800246 0.6203125
0.6404718 0.6321385 0.6246783
0.6522672 0.6409314 0.6335785
0.67101717 0.6587776 0.6547488
0.6651654 0.6573223 0.64947915
0.68140316 0.67356 0.6663297
0.6957108 0.68786764 0.6839461
0.70569855 0.69667584 0.69258577
0.70955884 0.69957113 0.6938726
0.7161765 0.7078432 0.7004901
0.71770835 0.709375 0.70416665
0.73060673 0.72262555 0.7183517
0.74246335 0.73780644 0.73060673
0.7547794 0.74774826 0.74301475
0.7588235 0.75147057 0.74705887
0.5520834 0.54031867 0.53247553
0.559915 0.548495 0.54029566
0.5569623 0.5481618 0.5372319
0.55904955 0.5471623 0.53931916
0.55782783 0.54598653 0.53809744
0.56745946 0.55569476 0.5477291
0.5757889 0.5640242 0.5561275
0.5809628 0.5691981 0.56135494
0.5894915 0.5776348 0.57273287
0.591525 0.5797411 0.57581955
0.5986673 0.5869026 0.57941943
0.59977025 0.59180456 0.58408016
0.61968446 0.6117188 0.60389096
0.62196314 0.6140242 0.60627687
0.6227099 0.61486673 0.6070619
0.6355124 0.62771904 0.6214921
0.64246327 0.63658094 0.6306373
0.64948684 0.64318705 0.6375996
0.6544194 0.6465763 0.63992035
0.6664063 0.65856314 0.65072
0.6700521 0.6654259 0.65758276
0.67805225 0.6738856 0.6661612
0.68308055 0.6754749 0.6711933
0.7025926 0.69795495 0.690131
0.7122856 0.7053921 0.6976716
0.72115886 0.7157667 0.709352
0.7245634 0.7166514 0.71267617
0.7350988 0.7272557 0.7211933
0.74281555 0.7349725 0.7295803
0.7419501 0.73683745 0.73018533
0.7505132 0.74656856 0.7387485
0.7633578 0.75932527 0.7515932
0.7759804 0.77193636 0.7642157
0.5590687 0.55147064 0.5436275
0.5753676 0.5710784 0.5632583
0.590288 0.5824908 0.5748468
0.57725185 0.57068783 0.5628447
0.57953435 0.5741422 0.5662991
0.59305304 0.5870481 0.579205
0.5943934 0.58826596 0.5824908
0.60490197 0.59705883 0.5904795
0.62107843 0.6161765 0.60833335
0.62398136 0.6169577 0.61221665
0.6279259 0.6237745 0.61616117
0.6178768 0.61395526 0.6061121
0.6340686 0.6296875 0.62184435
0.64613205 0.638534 0.6314951
0.6548254 0.6483762 0.6430607
0.65696234 0.65304077 0.64519763
0.6622549 0.6583333 0.65049016
0.6720588 0.66813725 0.6602941
0.6696998 0.6632507 0.65540755
0.6862439 0.67864585 0.67367494
0.69139093 0.6837929 0.6796262
0.69142157 0.6838235 0.6760953
0.6965533 0.6926317 0.6847886
0.7090762 0.7051547 0.6973116
0.7193627 0.71550244 0.7076593
0.7239047 0.72022825 0.7123852
