assets/luts/LUTs/LEICA/LEICA SEP.cube
#Generated by PennL1 - 闲鱼号：LOOK胶片感 公众号：胶片感
TITLE LEICA SEP
LUT_3D_SIZE 9
0.003921569 0.003921569 0.0
0.043627452 0.039705884 0.02401961
0.08039216 0.07647059 0.068627454
0.13186276 0.12696078 0.116666675
0.18235295 0.17058824 0.14313726
0.22647059 0.21470587 0.17941177
0.27254903 0.2627451 0.21666667
0.32254905 0.3147059 0.2676471
0.36078432 0.34509805 0.30980393
0.07254902 0.068627454 0.057843138
0.10294118 0.09901961 0.08186275
0.15012255 0.13835785 0.11090687
0.19558823 0.18382353 0.15857843
0.23725492 0.22549018 0.19019608
0.2867647 0.27873775 0.23223038
0.33186275 0.32340688 0.2781863
0.37009805 0.35857844 0.31335786
0.41764703 0.4019608 0.35490197
0.16470589 0.15294118 0.1254902
0.19509804 0.18333334 0.15
0.22843137 0.21666667 0.18137255
0.26458335 0.2531863 0.21678922
0.31127453 0.3034314 0.25637257
0.3490196 0.33860296 0.29926473
0.39558822 0.38039213 0.3362745
0.43909314 0.4240196 0.37512255
0.47941178 0.4637255 0.4166667
0.24215685 0.23039216 0.19509803
0.27254903 0.26127452 0.2245098
0.30980393 0.3019608 0.25490198
0.33762258 0.3293505 0.2844363
0.37867647 0.3634804 0.31985295
0.4249387 0.40925243 0.36262256
0.46274507 0.44705883 0.4
0.501777 0.4860907 0.44264707
0.5534314 0.53137255 0.4759804
0.33137256 0.32352942 0.2764706
0.35514706 0.34730393 0.3002451
0.3867647 0.375 0.32990196
0.42450982 0.40882355 0.36176473
0.45882356 0.44313726 0.39607844
0.49485296 0.4791667 0.43210784
0.5426471 0.5200981 0.46960783
0.5828432 0.5629902 0.50686276
0.6294118 0.6058824 0.5470588
0.41764706 0.40196082 0.3553922
0.44724265 0.43155637 0.38449755
0.4714461 0.4557598 0.40870097
0.5074142 0.48572305 0.43866423
0.54607844 0.5232843 0.46862745
0.5829657 0.56219363 0.5063726
0.6247549 0.6012255 0.5446079
0.6679535 0.6444241 0.581679
0.71127456 0.6877451 0.625
0.4911765 0.4754902 0.43235296
0.52316177 0.50551474 0.4564951
0.5566177 0.53308827 0.47818628
0.5932598 0.5697304 0.5216912
0.6279412 0.60490197 0.5406863
0.6670343 0.6435049 0.5807598
0.7056373 0.68284315 0.6178922
0.7421569 0.72218144 0.6487745
0.777451 0.75784314 0.68333334
0.5887255 0.5651961 0.51029414
0.62549025 0.60196084 0.53921574
0.6552696 0.6317402 0.5689951
0.68572307 0.66219366 0.59944856
0.720098 0.6973039 0.63235295
0.7540442 0.73443633 0.65992653
0.7889706 0.7693628 0.69485295
0.8219976 0.79748774 0.72297794
0.8607843 0.8333333 0.7627451
0.6784314 0.654902 0.5921569
0.70343137 0.6813726 0.61421573
0.732353 0.7127452 0.63823533
0.7622549 0.7426471 0.66813725
0.7941177 0.7745098 0.70000005
0.8308824 0.81029415 0.732353
0.8637254 0.83627456 0.7617647
0.892647 0.86519605 0.7906863
0.9254902 0.8980392 0.82352936
0.007843138 0.007843138 0.0
0.055392157 0.05147059 0.035784315
0.09387255 0.08995098 0.07720588
0.14865197 0.13474265 0.1158701
0.19632353 0.18455882 0.15563726
0.23823528 0.22647059 0.19117646
0.29031864 0.2824755 0.23541668
0.33523285 0.32738972 0.2803309
0.37009805 0.35735294 0.3127451
0.08339461 0.07947304 0.070526965
0.115602024 0.111887254 0.09165901
0.16594669 0.15418199 0.12673101
0.20688573 0.19512102 0.1598269
0.2491728 0.23740809 0.20211397
0.29705116 0.28897825 0.24260877
0.34117648 0.33126533 0.29041055
0.38612896 0.37419578 0.32883734
0.42941177 0.4137255 0.36666667
0.17585784 0.16409314 0.13664216
0.20441177 0.19264705 0.15811887
0.24047181 0.22815564 0.1903799
0.27673104 0.2660999 0.22257966
0.32034314 0.31231618 0.26580885
0.35667893 0.3482843 0.30287993
0.4075061 0.39181986 0.3451287
0.4512408 0.4355545 0.38849568
0.49227944 0.47843137 0.42585784
0.2514706 0.24001226 0.20379902
0.28689492 0.27342218 0.24083945
0.31862748 0.31078434 0.26372552
0.34918046 0.34047946 0.2938496
0.39151347 0.3758272 0.33072916
0.43432903 0.41864276 0.37158394
0.47506127 0.459375 0.41231617
0.5205806 0.5012485 0.45164678
0.5629289 0.5393995 0.48449755
0.3406863 0.32941177 0.2904412
0.36838233 0.3555147 0.31427696
0.40122548 0.38737747 0.3413603
0.43489584 0.41920954 0.3738664
0.46740195 0.45171568 0.40465686
0.50502455 0.48924634 0.44255516
0.55306375 0.5310662 0.48014706
0.59828436 0.57475495 0.517402
0.6414216 0.6178922 0.5551471
0.42696077 0.4112745 0.36421567
0.45611212 0.44042587 0.39336705
0.48252144 0.4668352 0.41977635
0.5140778 0.4987745 0.45042893
0.55471814 0.53339463 0.47775733
0.5936045 0.5708793 0.5134574
0.63723963 0.61524206 0.55088854
0.67940414 0.6558747 0.59312963
0.7208946 0.69865197 0.6320466
0.5053922 0.48713234 0.44240198
0.53814346 0.52081805 0.46384802
0.5681679 0.5501532 0.49341297
0.6040594 0.58053 0.5238511
0.6425245 0.6189951 0.55625
0.6795803 0.65605086 0.59330577
0.718076 0.6972733 0.626348
0.7565564 0.7358456 0.6646446
0.7903186 0.77071077 0.69620097
0.60496324 0.58143383 0.5216299
0.63194704 0.61128986 0.54758734
0.66515017 0.64410233 0.57942706
0.6972886 0.67326134 0.6095971
0.7289522 0.7086091 0.63630515
0.7618336 0.7421109 0.6679458
0.79708946 0.77794117 0.70343137
0.83304995 0.80743724 0.73476565
0.8695466 0.8420956 0.7699755
0.6877451 0.6642157 0.6014706
0.71819854 0.6961397 0.62898284
0.74424016 0.7231618 0.6530637
0.775 0.75539213 0.68088233
0.8061275 0.7850491 0.7105392
0.84203434 0.81458336 0.74166673
0.8715687 0.84411764 0.77169114
0.9025735 0.87512255 0.80061275
0.93333334 0.90588236 0.83137256
0.020588236 0.021568628 0.029411767
0.06409314 0.060294118 0.055024512
0.10808824 0.10416667 0.08529412
0.16397059 0.15220588 0.124754906
0.20784312 0.19607843 0.17058824
0.25379902 0.24203432 0.2067402
0.30392158 0.29558825 0.24877451
0.3464461 0.3379902 0.2927696
0.3843137 0.36862746 0.3254902
0.093259804 0.089338236 0.07193628
0.1289522 0.12208946 0.09954044
0.17769608 0.16593137 0.13792893
0.22028185 0.20851715 0.17536764
0.26390934 0.25140932 0.21501225
0.31127453 0.30136335 0.2593597
0.35156253 0.34344363 0.297212
0.40049022 0.38480392 0.34033397
0.44264707 0.42696077 0.37990195
0.19117647 0.17892158 0.1502451
0.21565564 0.20389093 0.16859683
0.24895833 0.23645833 0.20079657
0.29123777 0.2828738 0.23737745
0.33235294 0.3245098 0.27745098
0.37117034 0.35765934 0.31467527
0.4200368 0.4043505 0.35729167
0.4615196 0.44598654 0.39846817
0.504902 0.48995098 0.4406863
0.26813728 0.25943628 0.21495098
0.2989277 0.29108456 0.24402574
0.3318321 0.32398897 0.27693015
0.36340383 0.35007662 0.30575982
0.40416667 0.38811275 0.3428309
0.448989 0.428799 0.38174018
0.48556983 0.46979165 0.42294732
0.53511035 0.5106158 0.4661152
0.5780638 0.5545344 0.4996324
0.3509804 0.34313726 0.29607844
0.38002452 0.36825985 0.32316178
0.41286767 0.39791667 0.3509804
0.44577208 0.43137258 0.38045344
0.4789216 0.46323532 0.4161765
0.5191177 0.5041667 0.45330882
0.56397057 0.544853 0.4884804
0.6126226 0.5890932 0.5332109
0.6534314 0.629902 0.5671569
0.4379902 0.42230392 0.3752451
0.46704963 0.45150125 0.4040288
0.49466914 0.47769606 0.43063724
0.52651656 0.5129902 0.4559283
0.5683211 0.5447917 0.4898897
0.60732234 0.5838389 0.52441794
0.6502452 0.6265626 0.5635417
0.6921109 0.6695466 0.60647976
0.73308825 0.7131128 0.6397059
0.5227941 0.49926472 0.45514706
0.5495711 0.53238356 0.47536767
0.58082116 0.56464463 0.5087623
0.62196696 0.5987133 0.537163
0.65649515 0.63296574 0.57022065
0.6924939 0.66982234 0.60450375
0.73039216 0.71004903 0.6377451
0.76862746 0.7490196 0.6745098
0.8061274 0.7845589 0.7102941
0.61507356 0.59154415 0.53296566
0.64574146 0.62221205 0.55946696
0.6798101 0.654902 0.5921569
0.7128677 0.69148284 0.62230396
0.7441177 0.723652 0.6528187
0.7745711 0.7546416 0.68109685
0.8119179 0.7886336 0.7153493
0.8463542 0.8189032 0.74678314
0.8794118 0.8519608 0.7778186
0.70098037 0.677451 0.6147059
0.728799 0.7067402 0.63958335
0.7556373 0.73602945 0.66151965
0.7882353 0.7686274 0.69411767
0.8186275 0.79509807 0.72058827
0.8525736 0.8251226 0.75453436
0.8833333 0.85588235 0.7813726
0.9122549 0.88480395 0.81029415
0.94411767 0.9166666 0.8421569
0.029411765 0.035784315 0.016666668
0.07604167 0.0721201 0.06427696
0.11544118 0.11151961 0.09583333
0.17457108 0.16280638 0.1353554
0.22156861 0.20980391 0.1754902
0.26525736 0.25349265 0.21819854
0.31580883 0.3079657 0.26090688
0.35496324 0.34662992 0.30202207
0.4004902 0.3848039 0.3377451
0.10281863 0.09889706 0.07977942
0.1471967 0.13543199 0.11006434
0.18867955 0.17691483 0.1508119
0.23092064 0.21915594 0.18439798
0.27781865 0.2665135 0.22662377
0.3243413 0.31649816 0.26943934
0.3631587 0.35208336 0.31066176
0.4131817 0.39749542 0.3504366
0.45214462 0.43645832 0.3893995
0.20036764 0.18860292 0.15355393
0.22973347 0.2183364 0.18209252
0.2609988 0.24923408 0.21393995
0.30379903 0.29370403 0.25340074
0.34381127 0.33578432 0.28921568
0.38507965 0.3696385 0.32380515
0.42990193 0.41421568 0.36715686
0.47371322 0.45695466 0.40989584
0.5200981 0.49852943 0.45147058
0.28186274 0.2740196 0.22696078
0.31388634 0.30598193 0.25910693
0.34172794 0.33314952 0.28673407
0.373629 0.3639476 0.3177543
0.41813722 0.40287992 0.3558211
0.45942858 0.44374233 0.3966835
0.49673715 0.48016235 0.43331802
0.5451211 0.5274051 0.47056526
0.58817405 0.56464463 0.50876224
0.3647059 0.35343134 0.30808824
0.39485294 0.37916666 0.3342218
0.42365196 0.4079657 0.36096814
0.45851713 0.44240195 0.39534312
0.49264705 0.475 0.42806372
0.5347121 0.51541054 0.46636033
0.5783088 0.5566177 0.501103
0.6237439 0.6039216 0.5416667
0.6686275 0.6458334 0.5828432
0.45588234 0.4401961 0.39313728
0.47568932 0.46000305 0.41294423
0.5083333 0.48805147 0.44099265
0.54112285 0.52751225 0.47030485
0.5789522 0.5605699 0.5039522
0.61806065 0.59453124 0.537163
0.66286767 0.639231 0.57648593
0.7053921 0.6852941 0.6122549
0.74405634 0.7235907 0.6516544
0.5377451 0.51384807 0.46041667
0.55880827 0.5452972 0.48730084
0.5994179 0.5758885 0.52074146
0.6341452 0.6106158 0.5478707
0.66954654 0.64601713 0.58327204
0.7036305 0.6802083 0.61714154
0.7399204 0.7193628 0.6477022
0.78083646 0.76122856 0.68671876
0.816299 0.79424024 0.720098
0.63186276 0.60833335 0.54852945
0.65939796 0.63538605 0.57264096
0.6907169 0.66622245 0.60347736
0.7241038 0.7022212 0.6311581
0.7536765 0.7339767 0.65974265
0.7880132 0.7684054 0.6938956
0.8213236 0.7968137 0.7223039
0.85766697 0.83044577 0.7573453
0.89031863 0.86286765 0.7896446
0.71421576 0.69411767 0.62107843
0.73890936 0.71697307 0.6494486
0.7681372 0.74852943 0.67401963
0.80104166 0.7814339 0.706924
0.8318628 0.80441177 0.73039216
0.8626838 0.8352329 0.7637255
0.8942402 0.8667892 0.7922794
0.92665446 0.8992035 0.8246936
0.95343137 0.9259804 0.8514706
0.039215688 0.047058824 0.027450982
0.08529412 0.08137255 0.07205883
0.13284314 0.1259804 0.108333334
0.1875 0.1757353 0.14779413
0.23235294 0.22058824 0.18529412
0.28063726 0.27058825 0.23014706
0.3269608 0.31911767 0.27205884
0.36421567 0.35637254 0.30931374
0.41176468 0.39607844 0.34901962
0.11666667 0.10980392 0.087254904
0.16053922 0.14877452 0.122242644
0.19914216 0.18737745 0.15980393
0.24083947 0.22907476 0.19378063
0.29129905 0.27977943 0.23700981
0.33449754 0.3266544 0.27959558
0.37555146 0.36170343 0.31764704
0.42454046 0.4088542 0.36179537
0.46397057 0.44828433 0.4012255
0.20980391 0.19803922 0.1627451
0.2411152 0.22824755 0.19295344
0.27389708 0.26507354 0.22095588
0.31605393 0.30545345 0.26023287
0.35367647 0.34313726 0.29926473
0.39914218 0.38370097 0.3376838
0.44509804 0.4297794 0.3816176
0.48216912 0.46740195 0.4175858
0.5294118 0.5147059 0.45882353
0.2911765 0.27990198 0.23455882
0.32346815 0.315625 0.2685662
0.35251227 0.34338236 0.30018383
0.38648897 0.37123162 0.32781863
0.42879903 0.41311276 0.36691177
0.46832108 0.4526348 0.405576
0.5165441 0.49485296 0.44546568
0.5536765 0.5397059 0.48161763
0.6044118 0.5808824 0.5289216
0.3764706 0.36078432 0.31764707
0.40784314 0.39215687 0.34705883
0.4370098 0.42205882 0.37279412
0.46887255 0.45318627 0.40612745
0.5044118 0.48921567 0.43823528
0.5497549 0.52953434 0.4735294
0.59411764 0.57058823 0.51323533
0.63933825 0.61556375 0.5563726
0.6833334 0.659804 0.5970589
0.46470588 0.4490196 0.4019608
0.4890625 0.4731924 0.42613357
0.51868874 0.5017157 0.44822305
0.55625 0.5373162 0.48088235
0.59362745 0.5730393 0.5154412
0.636152 0.6126226 0.55073535
0.67401963 0.6506128 0.58768386
0.7176471 0.6960784 0.627451
0.75710785 0.7375 0.6629902
0.5495098 0.5259804 0.47107846
0.57849264 0.55937505 0.50398284
0.60906863 0.589951 0.52720594
0.6466299 0.6231005 0.5603554
0.68235296 0.65882355 0.59607846
0.71887255 0.69620097 0.6299633
0.75306374 0.7308824 0.66629905
0.7911765 0.77156866 0.6970588
0.82892156 0.80245095 0.72892153
0.64362746 0.6213236 0.55490196
0.6733456 0.6515625 0.58808213
0.7050245 0.6818015 0.6135417
0.73486525 0.7139399 0.6433823
0.7665441 0.7458334 0.6746323
0.80064344 0.78103554 0.7065258
0.8357843 0.8087009 0.7358456
0.86764705 0.8401961 0.7656863
0.90073526 0.87328434 0.7995098
0.72745097 0.70392156 0.64117646
0.75245094 0.7316176 0.66078436
0.78039217 0.7607843 0.6862745
0.8112745 0.79068625 0.7166667
0.845098 0.8176471 0.7490196
0.87524515 0.8477942 0.7754902
0.90539217 0.87794125 0.8034314
0.93504906 0.90882355 0.8306373
0.9666667 0.9392157 0.86470586
0.054411765 0.051960785 0.035784315
0.09675245 0.09283088 0.0846201
0.15 0.1382353 0.110784315
0.19754902 0.18578431 0.1514706
0.24117649 0.22941178 0.19411765
0.29601717 0.28131127 0.23768382
0.33909315 0.32732844 0.29203433
0.37726718 0.36942402 0.32236522
0.43088233 0.4151961 0.36813727
0.13584559 0.12898286 0.108884804
0.17139247 0.15962777 0.13669579
0.2115043 0.19973959 0.16567096
0.2549403 0.24319853 0.20783548
0.30226716 0.2929841 0.2470282
0.34411764 0.3362745 0.28921568
0.38956803 0.37388173 0.33069855
0.43786767 0.42218137 0.37512255
0.4786152 0.46292892 0.4158701
0.22242647 0.21066175 0.17536765
0.24950981 0.23774509 0.20245099
0.28750002 0.27738973 0.23520221
0.32683825 0.31884193 0.27149206
0.36452207 0.35018384 0.3089461
0.4134038 0.39771754 0.3508885
0.45680147 0.4406863 0.39362746
0.49526656 0.48011643 0.43144915
0.5492647 0.52610296 0.47107846
0.30134803 0.2935049 0.24644607
0.33249083 0.32164523 0.2858456
0.36047798 0.35102636 0.30503985
0.40251228 0.38682598 0.34282324
0.4411458 0.42545953 0.3790441
0.47935814 0.46367186 0.41661304
0.5271753 0.50675553 0.45689338
0.5686811 0.5555147 0.4971584
0.6181373 0.5946079 0.5387255
0.38627452 0.3740196 0.32916668
0.41657475 0.40303308 0.35597426
0.44920343 0.43351716 0.38645834
0.48069856 0.46501225 0.41795343
0.51678926 0.4997549 0.45159313
0.5565564 0.5427697 0.4846201
0.60851717 0.5852941 0.5253677
0.65386033 0.6303309 0.5675858
0.69558823 0.6720588 0.6093137
0.47291666 0.45729163 0.410049
0.50339305 0.48545498 0.43839616
0.5381741 0.51678926 0.46243873
0.57117033 0.5476639 0.4927543
0.60900736 0.58556986 0.53020835
0.64604014 0.624709 0.5612286
0.68530947 0.66842836 0.60343146
0.72830117 0.7107843 0.6390089
0.76709557 0.7474878 0.672978
0.5639706 0.5404412 0.48553923
0.59483767 0.57130826 0.52081805
0.62723655 0.60370713 0.54298407
0.6596967 0.6361673 0.5734222
0.6940564 0.67199755 0.6088848
0.7303615 0.7098499 0.63826597
0.7662684 0.7466606 0.6721508
0.8034314 0.78367037 0.70923716
0.8390932 0.8133579 0.74191177
0.6578432 0.63412994 0.57138485
0.68711704 0.6635876 0.60084254
0.71652883 0.69500613 0.6273438
0.744401 0.7247932 0.65028334
0.77705276 0.75744486 0.68293506
0.81295186 0.7890549 0.7164216
0.84826905 0.82109374 0.75
0.8786075 0.85152423 0.7773208
0.9142157 0.8864584 0.81213236
0.7367647 0.7171569 0.6426471
0.76482844 0.74522066 0.6707108
0.79105395 0.7714461 0.6969363
0.8283701 0.8009191 0.72984064
0.8544118 0.8269608 0.7563726
0.88480395 0.857353 0.78670347
0.9148284 0.8872549 0.8127451
0.9436275 0.91617644 0.8416667
0.97205883 0.9519608 0.87254906
0.06960785 0.0627451 0.063725494
0.10698529 0.103063725 0.09227941
0.16421568 0.15245098 0.125
0.2115196 0.19975491 0.1644608
0.2544118 0.24264705 0.20735294
0.30416667 0.29632354 0.24926472
0.3480392 0.3362745 0.30882353
0.3954657 0.3797794 0.33664215
0.43627453 0.42058825 0.37352943
0.14705883 0.13529412 0.10784314
0.1817402 0.16974571 0.14692096
0.2227022 0.2109375 0.17564338
0.26657477 0.25520834 0.21871936
0.31311274 0.3052696 0.25821078
0.35399815 0.34543505 0.30170035
0.4004902 0.38480395 0.3391238
0.44891238 0.4332261 0.3861673
0.48921567 0.47352943 0.42647058
0.23210785 0.22107843 0.18357843
0.2588235 0.24806985 0.20974265
0.2998162 0.2875613 0.24050245
0.33710173 0.3288603 0.28299636
0.37512255 0.36433822 0.31875
0.42227328 0.40658697 0.3598652
0.46678922 0.45 0.40294117
0.5142157 0.49215686 0.44509804
0.5625 0.5389706 0.48406863
0.31446078 0.30661765 0.25955883
0.3386336 0.32775736 0.29379597
0.3716299 0.36280638 0.31623775
0.4122549 0.39656866 0.34950984
0.45281863 0.43713233 0.3900735
0.49183518 0.47496936 0.42861518
0.53661156 0.5206189 0.4644914
0.5879595 0.56539524 0.5098039
0.63125 0.6077206 0.5449755
0.39999998 0.38431373 0.33970588
0.428125 0.4124387 0.36537987
0.45943627 0.44448528 0.3930147
0.49215686 0.4759804 0.42916667
0.5308824 0.5107843 0.45882353
0.5750613 0.5522672 0.4971201
0.6185049 0.59828436 0.5368873
0.6666054 0.64307594 0.5800245
0.7058824 0.68284315 0.6186275
0.48492646 0.46924022 0.42218137
0.5166514 0.49581802 0.4487592
0.549326 0.52772677 0.4726103
0.58630514 0.5628217 0.5079044
0.6173407 0.59767157 0.53511035
0.65890014 0.6363358 0.573269
0.701348 0.6792892 0.6143383
0.7428768 0.7230851 0.6491268
0.7819853 0.76237744 0.68786764
0.5710785 0.5563726 0.49852943
0.60379905 0.58247554 0.524326
0.6414216 0.6178922 0.5551471
0.67478555 0.65125614 0.58851105
0.70477945 0.6829657 0.61507356
0.73970586 0.7204657 0.64788604
0.77696073 0.75735295 0.68284315
0.8195772 0.79451597 0.72153807
0.84901965 0.82745093 0.75147057
0.6699755 0.6464461 0.583701
0.6981617 0.6746324 0.6118873
0.72775733 0.70814955 0.6336397
0.7599571 0.7390625 0.668413
0.7900735 0.77046573 0.6959559
0.82457113 0.7994179 0.727068
0.85726106 0.8305453 0.7584865
0.8896446 0.86302084 0.78920037
0.9278186 0.9 0.82549024
0.75 0.7264706 0.6637255
0.77610296 0.7564951 0.6819853
0.8058824 0.78627455 0.71176475
0.8376226 0.8101716 0.7366422
0.8642157 0.8367647 0.76617646
0.8950981 0.8676471 0.7936275
0.9303922 0.9029412 0.82843137
0.95821077 0.9307598 0.85625
0.9764706 0.9568627 0.8784314
0.07450981 0.07058824 0.0627451
0.12150736 0.117585786 0.100428924
0.1752451 0.1634804 0.13602942
0.21960783 0.20784312 0.18112744
0.2659314 0.25539216 0.21642157
0.31617647 0.30833334 0.26127452
0.35453433 0.34276962 0.3104167
0.40680146 0.3911152 0.345527
0.4519608 0.4362745 0.38921568
0.15882352 0.14705881 0.11960784
0.19348194 0.18171723 0.15242802
0.23304228 0.22127758 0.18598346
0.2799556 0.26782325 0.22693014
0.32429537 0.31541055 0.27300858
0.36709556 0.35603553 0.31058517
0.41366422 0.39797795 0.35183823
0.46012563 0.44443935 0.39738053
0.5000613 0.484375 0.43731618
0.24313726 0.23137257 0.19607843
0.27346814 0.26395527 0.22190563
0.30931374 0.3014706 0.2530331
0.34716606 0.33772978 0.29361215
0.38817403 0.3728554 0.32898286
0.43624386 0.4205576 0.3736213
0.47702205 0.46133578 0.41427696
0.52107847 0.5079198 0.45327818
0.5707108 0.54718137 0.49227944
0.32647058 0.31862745 0.27156863
0.35061276 0.34148285 0.29828432
0.38382354 0.36878064 0.32501534
0.42089462 0.40520835 0.35814953
0.4627757 0.4470895 0.40003067
0.5023821 0.4864813 0.44006586
0.5479933 0.53241426 0.47486213
0.59852946 0.57500005 0.51973045
0.64399517 0.62046576 0.55772066
0.4142157 0.39852938 0.35147056
0.4420343 0.4241728 0.37628675
0.4695466 0.4538603 0.4068015
0.50186884 0.48489586 0.43792894
0.5417893 0.52316177 0.4702206
0.5819241 0.5635417 0.5056373
0.6327819 0.6092525 0.54944855
0.6796262 0.65563726 0.59289217
0.7193628 0.69705886 0.6306373
0.49558824 0.47990197 0.43284315
0.5277344 0.50771296 0.45693165
0.55718446 0.53820467 0.48193932
0.5967601 0.57371324 0.5183287
0.63422185 0.61069244 0.5486214
0.67132354 0.6480852 0.58446693
0.71225494 0.69001234 0.6234069
0.7544118 0.734804 0.6602941
0.79264706 0.7730392 0.6985294
0.5862745 0.5627451 0.5058824
0.61891854 0.5957721 0.53408396
0.6498775 0.6263481 0.563603
0.68458945 0.6611366 0.59816176
0.7193628 0.69779414 0.62916666
0.75390625 0.7314492 0.6654872
0.78881747 0.76920956 0.69469976
0.8308824 0.8034314 0.7318628
0.8642157 0.83676475 0.7639706
0.6822917 0.6587623 0.5960172
0.7102711 0.6876608 0.6221584
0.7403186 0.7187807 0.65006125
0.77039677 0.7507889 0.6762791
0.8041667 0.78210783 0.70805764
0.83785236 0.81053925 0.73828894
0.867356 0.840671 0.76753986
0.9013864 0.87577355 0.8018153
0.93529415 0.9096814 0.8342525
0.76323533 0.7436275 0.6691177
0.78731614 0.7677083 0.6931985
0.82218134 0.79473037 0.7216912
0.8496323 0.82218134 0.74895835
0.8769608 0.84950984 0.7789216
0.9075368 0.8800858 0.805576
0.93529415 0.9115196 0.83517164
0.965625 0.938174 0.86366415
0.9764706 0.9568627 0.88235295
0.08627451 0.08235294 0.06666667
0.13627452 0.12205883 0.10735294
0.18529412 0.17352942 0.14019608
0.22843137 0.21666665 0.18137255
0.2784314 0.2647059 0.2254902
0.3245098 0.31666666 0.26960784
0.36568627 0.35196078 0.30784315
0.41764706 0.4019608 0.35490197
0.4588235 0.44313726 0.39607844
0.17058824 0.15882353 0.13627452
0.20398284 0.19221814 0.16844364
0.24313726 0.23137255 0.19607842
0.28774512 0.27732843 0.23155637
0.33063728 0.32205883 0.27720588
0.37677696 0.3620711 0.31844363
0.42634803 0.41066176 0.36360294
0.46721813 0.4515319 0.40447307
0.5142157 0.48921567 0.44509804
0.25392157 0.24215686 0.20686275
0.28713238 0.27745098 0.23480392
0.32303923 0.3151961 0.26813728
0.35477945 0.34607846 0.29975492
0.39803922 0.38627452 0.33970588
0.44644612 0.43075982 0.383701
0.4862745 0.47156864 0.42156863
0.53406864 0.5158089 0.4617647
0.58725494 0.56372553 0.5088236
0.3392157 0.32794118 0.29803923
0.36145836 0.34834558 0.30392158
0.3974265 0.38039216 0.3375
0.43131128 0.41562498 0.36856616
0.46911767 0.45343137 0.40661764
0.5182598 0.4925858 0.4519608
0.5625 0.5400736 0.48480392
0.6106618 0.5871324 0.5273285
0.6539216 0.6303922 0.5676471
0.4254902 0.40980393 0.3627451
0.4512255 0.43553922 0.3884804
0.47941178 0.4637255 0.4166667
0.51299024 0.49338233 0.4477941
0.5529412 0.53431374 0.48039216
0.602451 0.5789216 0.5205883
0.6450981 0.6215687 0.5588236
0.6904412 0.6669118 0.6041667
0.7313726 0.70980394 0.64117646
0.5147059 0.49215686 0.44509804
0.5443015 0.5207721 0.4668505
0.56519616 0.55196077 0.4936275
0.6068015 0.5832721 0.5215074
0.64656866 0.6213236 0.5585785
0.6856005 0.6632966 0.6001226
0.725 0.7019608 0.6377451
0.7637255 0.7441177 0.6696079
0.8058824 0.78627455 0.71176475
0.59607846 0.57254905 0.5156863
0.6313726 0.60784316 0.54509807
0.6607843 0.6372549 0.5745098
0.6952206 0.6716912 0.6089461
0.7294118 0.70637256 0.6450981
0.76409316 0.7433824 0.67107844
0.79852945 0.7784314 0.7041667
0.83909315 0.8138481 0.7411765
0.87058824 0.84313726 0.772549
0.69460785 0.67107844 0.60833335
0.7219976 0.7008579 0.63094366
0.75085783 0.7301471 0.6589461
0.7852941 0.7656863 0.6911765
0.81495094 0.79289216 0.71838236
0.85177696 0.82432604 0.7515932
0.8819853 0.85453427 0.7800245
0.91127455 0.8822917 0.80471814
0.94460785 0.9171569 0.8426471
0.7764706 0.75686276 0.68235296
0.7990196 0.7794118 0.70490193
0.827451 0.8 0.7294117
0.8598039 0.83235294 0.7617647
0.8901961 0.8627451 0.79019606
0.9171568 0.88970584 0.8151961
0.9470588 0.9196078 0.845098
0.97107846 0.9514706 0.87303925
0.9764706 0.9568627 0.88235295
