assets/luts/LUTs/LEICA/LEICA NAT.cube
#Generated by Pennl1
#闲鱼号：LOOK胶片感
#公众号：胶片感
TITLE LEICA NAT
LUT_3D_SIZE 9
0.007843138 0.0 0.007843138
0.12892157 0.056372553 0.06176471
0.23039216 0.0627451 0.07254902
0.36127454 0.083333336 0.094607845
0.5 0.11764707 0.1254902
0.6284314 0.14803922 0.15931374
0.74705887 0.18235293 0.19411764
0.8656863 0.2127451 0.2230392
1.0 0.24313726 0.2509804
0.06421569 0.114705876 0.059313726
0.12579657 0.12009804 0.0666054
0.23125 0.13002451 0.0757353
0.35606617 0.14626226 0.09136029
0.4995098 0.16715688 0.120588236
0.62579656 0.19099265 0.15196079
0.74816173 0.21482845 0.18480395
0.87205887 0.2425245 0.22303922
1.0 0.26715687 0.25
0.064705886 0.22549021 0.06666667
0.1367647 0.23210783 0.06605393
0.22745098 0.23210785 0.063725494
0.34963235 0.2372549 0.083333336
0.49313727 0.24754903 0.112745106
0.62230396 0.26519608 0.1514706
0.7438725 0.28235298 0.18137255
0.8671569 0.30232847 0.21249999
0.99215686 0.3254902 0.24019605
0.083333336 0.34509805 0.08627451
0.14313728 0.34638482 0.0846201
0.24093136 0.34816176 0.089705884
0.35134804 0.3495098 0.091176465
0.49191177 0.35906863 0.11960785
0.6269608 0.37248775 0.15588236
0.7397059 0.38529408 0.18921569
0.86372554 0.4 0.21979167
0.9960785 0.41911766 0.25
0.1137255 0.4882353 0.11176471
0.16985294 0.49411768 0.1129902
0.25196078 0.49411768 0.11421569
0.3625 0.49313727 0.11200981
0.49607843 0.49411768 0.11470589
0.6240196 0.5017157 0.14975491
0.7382353 0.5151961 0.18235293
0.86372554 0.52524513 0.2142157
0.99803925 0.5411765 0.24705882
0.14803922 0.6240196 0.1514706
0.19332108 0.62732846 0.1514706
0.26691177 0.6279412 0.15183824
0.37003672 0.6247549 0.14583334
0.50906867 0.6245098 0.15122549
0.62101716 0.6275123 0.14589462
0.73406863 0.6333333 0.17794117
0.8639094 0.6362745 0.21029413
0.9960785 0.652451 0.23970586
0.18627451 0.7294117 0.18627451
0.2127451 0.7295343 0.18590686
0.28039217 0.72916675 0.18529414
0.39007354 0.7332108 0.18284315
0.5151961 0.73382354 0.18578433
0.6311275 0.73272055 0.1822304
0.7401961 0.73676467 0.18382353
0.86825985 0.74080884 0.21813725
0.9960785 0.7519608 0.2519608
0.21813725 0.8666667 0.21666667
0.24497549 0.86966914 0.2161152
0.3077206 0.86764705 0.21629903
0.41047797 0.8696078 0.21470588
0.52745104 0.87058824 0.21544117
0.63725495 0.87156856 0.21648286
0.74938726 0.8688726 0.21605392
0.8696078 0.86513484 0.2127451
0.9975491 0.8799019 0.24460784
0.24705882 0.9960785 0.24705882
0.26715687 0.99509805 0.24460784
0.3254902 0.9960785 0.24509804
0.42352942 0.99558836 0.23921567
0.5392157 0.99411774 0.2392157
0.652451 0.9960785 0.23921567
0.75392157 0.9960785 0.24117646
0.87745094 0.9960785 0.23676471
0.9960785 1.0 0.24313726
0.0627451 0.055392157 0.12794119
0.13578433 0.06121324 0.13584559
0.23566176 0.06568628 0.1435049
0.36286768 0.0846201 0.15974265
0.5058824 0.115686275 0.17843139
0.6311275 0.15177697 0.20018382
0.7432597 0.18566176 0.22818628
0.86905634 0.21268381 0.24816178
0.9936275 0.24215685 0.28039217
0.06292892 0.12107844 0.12598039
0.12662378 0.1251685 0.13540135
0.22594976 0.13685663 0.1516391
0.34833792 0.15490195 0.16547948
0.49859068 0.17637868 0.18241422
0.62755054 0.19632351 0.20481771
0.7459407 0.22002143 0.22924325
0.870504 0.24754903 0.25882354
0.99846816 0.27291667 0.27941176
0.06740196 0.2292892 0.13112745
0.14100797 0.22539829 0.13915442
0.22493872 0.2265625 0.13952206
0.34718138 0.23788296 0.15215993
0.49117646 0.25226715 0.17708333
0.6177083 0.26864278 0.1955576
0.73707104 0.28973654 0.22052693
0.8664216 0.31214768 0.24750307
0.9954658 0.33823532 0.2794118
0.08431373 0.34313726 0.14252451
0.15932138 0.3375 0.16479014
0.23658086 0.34077817 0.16179535
0.34450063 0.34260112 0.16288297
0.48903188 0.35854784 0.18278188
0.6233686 0.37205115 0.20867035
0.74057907 0.39024207 0.23019303
0.8656097 0.40733 0.25602025
0.9958946 0.42696083 0.2831495
0.11421569 0.4887255 0.16936275
0.1779412 0.49123773 0.17889094
0.25526962 0.49001232 0.18302695
0.35781252 0.49025735 0.17797181
0.49534318 0.49019608 0.18382353
0.62187505 0.5014706 0.20153186
0.7387255 0.51390934 0.22101717
0.86602336 0.5303922 0.2504902
0.9960785 0.54509807 0.28137255
0.14822304 0.6194853 0.18854167
0.20128676 0.62077206 0.19443168
0.27107844 0.62143075 0.19860601
0.37984073 0.6194776 0.19946386
0.50548404 0.6217218 0.19543505
0.61842066 0.62133884 0.19784005
0.7378677 0.63016236 0.22048101
0.8660387 0.64178926 0.24633119
0.9975491 0.653125 0.27512255
0.18848039 0.7343138 0.21924019
0.22083335 0.7327512 0.23069851
0.29117647 0.7337316 0.23039216
0.39443934 0.7345894 0.2282016
0.51678926 0.73437506 0.23290442
0.6309743 0.7347886 0.22882965
0.7413296 0.73615193 0.23284312
0.8641391 0.7465074 0.2566483
0.99583334 0.7529412 0.28235298
0.22267157 0.8639094 0.24852943
0.25141695 0.86646754 0.2488128
0.31374082 0.868413 0.2512255
0.41444546 0.8674556 0.24882047
0.53125 0.86593145 0.25012255
0.64165133 0.868053 0.24675246
0.7487745 0.868413 0.24856004
0.8647672 0.8678156 0.25034466
0.9960172 0.8759804 0.2740196
0.24313726 1.0 0.27990198
0.27291667 0.9969976 0.27107844
0.3305147 0.9996323 0.2707108
0.4291054 0.99460787 0.27212012
0.5421569 0.99485296 0.26862746
0.649326 0.99638486 0.27426472
0.7555147 0.9966912 0.2694853
0.87199754 0.9936275 0.26960784
0.9960785 1.0 0.27892157
0.06960785 0.0627451 0.23921567
0.14362745 0.06482843 0.24203432
0.23921567 0.06348039 0.24215688
0.36433825 0.08039216 0.25159314
0.50441176 0.112745106 0.2617647
0.62757355 0.15159315 0.27965686
0.74240196 0.18431373 0.29387257
0.87058824 0.2185049 0.31593138
0.99705887 0.24411765 0.33823532
0.069362745 0.12708333 0.23627451
0.14270833 0.1356005 0.2309896
0.22925858 0.13949144 0.23529413
0.36047795 0.15863971 0.251777
0.50055146 0.17904411 0.2644608
0.629519 0.19806984 0.28134194
0.74577206 0.22270218 0.29702818
0.8738971 0.24823834 0.32689953
0.9988971 0.2735294 0.34730393
0.07034314 0.23088235 0.23063727
0.14353554 0.22334561 0.2205576
0.22352941 0.22867648 0.22071078
0.337163 0.24375 0.24010417
0.48406863 0.2627451 0.26225492
0.61360294 0.2785233 0.27411154
0.73406863 0.2984069 0.29724264
0.862163 0.32129294 0.31746325
0.9950981 0.34852943 0.35612747
0.085784316 0.34240198 0.23713236
0.15646446 0.33806682 0.24408701
0.23881741 0.33216912 0.25012255
0.34437805 0.33935356 0.2526961
0.4863358 0.35949758 0.2738358
0.6193934 0.3805454 0.2931832
0.73700976 0.3988358 0.3098039
0.86646754 0.42254904 0.33538604
0.9960785 0.4416667 0.36642158
0.11372549 0.48774514 0.24950981
0.17732844 0.48572302 0.2514706
0.26409316 0.47977942 0.26421568
0.36470586 0.48186272 0.26372552
0.4887255 0.48553923 0.27009806
0.61648285 0.5028799 0.28278187
0.7392158 0.5207108 0.30845588
0.8678922 0.5347427 0.3303309
0.9975491 0.55049026 0.35980392
0.14865197 0.6180147 0.2625
0.2002451 0.6208793 0.26763177
0.2818015 0.6152267 0.27591914
0.3809589 0.6154259 0.28051472
0.5035539 0.61580884 0.27953434
0.6167126 0.6139246 0.28273594
0.73526347 0.62653184 0.29592526
0.8597733 0.6397059 0.3210325
0.99620104 0.65612745 0.3507353
0.18848039 0.72843134 0.2857843
0.2234375 0.7304228 0.29393384
0.30588236 0.7289216 0.30710787
0.40275735 0.7322917 0.30723038
0.5227941 0.73014706 0.30955884
0.63195467 0.72889096 0.3092831
0.73988974 0.7290442 0.3137255
0.86920965 0.7484988 0.336489
0.99558836 0.759804 0.3620098
0.21960784 0.86556375 0.30882353
0.2532782 0.86292887 0.31115195
0.32699144 0.86394006 0.3221201
0.42524514 0.8644149 0.3242494
0.5400736 0.86513484 0.32224265
0.64474577 0.863603 0.32273284
0.75208336 0.86439955 0.32882965
0.86856616 0.865334 0.32981008
0.9960785 0.87769604 0.3507353
0.24019605 0.9960785 0.32941177
0.27561274 0.9977941 0.3334559
0.34950984 0.9992648 0.34926474
0.4442402 0.99620104 0.34166667
0.54852945 0.9975491 0.34460786
0.65539217 0.99742657 0.34852943
0.7595588 0.9960785 0.34754905
0.8759804 0.9954658 0.34583336
0.9901961 0.99705887 0.35
0.091176465 0.07892157 0.36176473
0.15888481 0.080698535 0.35931373
0.24534315 0.07977942 0.3704657
0.36476716 0.08719363 0.37162986
0.50735295 0.11544118 0.37083334
0.6297794 0.15196079 0.3788603
0.7498775 0.18492648 0.40404415
0.8766543 0.2163603 0.4173407
0.9960785 0.24313726 0.44558823
0.08774509 0.14215687 0.35079658
0.16494332 0.15612747 0.36426166
0.24681374 0.15315564 0.35879293
0.35327053 0.16106005 0.36224726
0.49883577 0.17818627 0.3735294
0.6282093 0.19960937 0.38645834
0.7425092 0.22144607 0.40085784
0.87193626 0.24901196 0.4252145
0.99871325 0.275 0.4392157
0.08553922 0.23860294 0.3493873
0.15825674 0.23762254 0.34001228
0.23740809 0.23866424 0.33167893
0.33812806 0.24027269 0.3345282
0.48394608 0.26213235 0.3586397
0.61665136 0.28324142 0.37939647
0.7368873 0.30312502 0.39745712
0.8658702 0.3249081 0.41960785
0.9965687 0.3522059 0.44252452
0.093259804 0.34264708 0.35716912
0.15979627 0.3470282 0.35390627
0.24623163 0.33537072 0.3503983
0.35654107 0.34859836 0.36030176
0.47735906 0.36642158 0.37518382
0.61305916 0.38818166 0.39794734
0.7318934 0.41188726 0.4222886
0.86339617 0.43759957 0.4457797
0.99313724 0.4606005 0.47058827
0.11200981 0.4884804 0.3625
0.1775429 0.48875618 0.36326596
0.26072305 0.48045343 0.36550248
0.37040442 0.47864583 0.37184435
0.48676476 0.4816177 0.3759804
0.6141851 0.5036152 0.40125617
0.7321079 0.5233456 0.41966915
0.86357236 0.5454351 0.44617036
0.9977941 0.5625 0.46862745
0.14895834 0.62058824 0.37702206
0.20080423 0.6175475 0.3719133
0.28097427 0.6164522 0.38048407
0.39430147 0.6092448 0.39065564
0.5041054 0.6085478 0.38857234
0.6096201 0.6084406 0.3898667
0.7281556 0.6285999 0.40833336
0.85764396 0.64389557 0.43199295
0.99215686 0.6646446 0.46862745
0.18982844 0.73284316 0.39460787
0.2246783 0.73235303 0.39408702
0.3053615 0.72974885 0.4056373
0.42212006 0.7255821 0.42889094
0.5291667 0.7258579 0.42585784
0.63318014 0.7245558 0.4283854
0.7341299 0.72552085 0.42552084
0.86438423 0.7490656 0.45006126
0.9935049 0.7658088 0.47022057
0.2189951 0.8675245 0.4094363
0.25343138 0.86626077 0.4128983
0.32783395 0.86127454 0.42208943
0.4406939 0.86455274 0.43651196
0.5537071 0.85906863 0.44298407
0.6518612 0.86110604 0.43807444
0.7509345 0.85851717 0.43953738
0.86573225 0.8614048 0.44479933
0.9975491 0.88253677 0.4666054
0.24362746 0.9960785 0.43039215
0.27683824 0.9960785 0.42941177
0.34816182 0.9953432 0.4392157
0.45980388 0.9926471 0.4558211
0.5651961 0.9960785 0.46004903
0.6632353 0.9960172 0.458701
0.76776963 0.9960785 0.46127453
0.87788 0.9936275 0.4588235
0.9916667 0.9960785 0.4632353
0.12352942 0.10980392 0.49803925
0.17254902 0.11887255 0.5095588
0.25490195 0.11764707 0.50686276
0.3671569 0.11911765 0.5056373
0.5058824 0.12254902 0.5098039
0.62647057 0.1517157 0.5166667
0.7441177 0.18382353 0.5254902
0.8681372 0.21348041 0.5338236
1.0 0.24509804 0.5529412
0.12034314 0.1627451 0.50196075
0.18480392 0.1747549 0.5058211
0.26299018 0.17542894 0.50128675
0.36853558 0.18026961 0.50487137
0.49877456 0.17941177 0.50392157
0.6240809 0.19969362 0.5162378
0.7425858 0.22285539 0.5257353
0.87276345 0.24727328 0.54001224
0.9965687 0.2737745 0.55563724
0.11617648 0.24852943 0.49460787
0.17732844 0.25165445 0.48903188
0.26066178 0.26299024 0.4814951
0.361152 0.26121324 0.47616422
0.48602945 0.26078433 0.48014703
0.6129902 0.27873775 0.49975494
0.7367647 0.30257356 0.513603
0.8622549 0.3235907 0.53339463
0.9960785 0.35147062 0.552451
0.12058825 0.35563725 0.502451
0.17843139 0.35808825 0.4981311
0.26384804 0.36207107 0.49166667
0.3725796 0.3632047 0.48866424
0.48578432 0.37058827 0.49240196
0.61148894 0.39142156 0.5106618
0.7332721 0.4151961 0.5329044
0.86173403 0.43973652 0.55113363
0.99558836 0.4620098 0.56911767
0.11960785 0.49215683 0.49901962
0.18321079 0.4921569 0.49485296
0.2654412 0.48529413 0.49166667
0.3747549 0.4814951 0.4892157
0.49411765 0.49215683 0.49460787
0.6098039 0.50808823 0.5139706
0.72990197 0.534804 0.5409314
0.85968137 0.5553922 0.56213236
0.99215686 0.57843137 0.582353
0.14975491 0.6252451 0.49411765
0.2013174 0.6213542 0.5058211
0.28106618 0.6135417 0.4994486
0.3916973 0.6086091 0.4994179
0.51164216 0.6079657 0.504902
0.60643387 0.610723 0.5073836
0.7254902 0.6313726 0.52879906
0.8571386 0.6516238 0.5537071
0.99583334 0.67598045 0.579902
0.19117647 0.7294117 0.52205884
0.22990197 0.7346813 0.5251226
0.30392158 0.7313726 0.525
0.41844362 0.7264093 0.533027
0.5387255 0.72573537 0.5411765
0.6348652 0.72328436 0.5477329
0.73235303 0.7279411 0.54718137
0.8609681 0.7496324 0.56593144
0.99411774 0.7686274 0.5916667
0.21715686 0.86740196 0.53039217
0.25349265 0.8674326 0.53238356
0.32922792 0.8631741 0.53486526
0.4431679 0.86151963 0.54457724
0.5632353 0.8594362 0.5569854
0.65989584 0.8605392 0.56145835
0.75575984 0.86115205 0.5629902
0.8626838 0.8623468 0.5590687
0.99852943 0.88504905 0.58406866
0.24509804 0.99803925 0.5431373
0.2767157 0.99730396 0.5389706
0.34901962 0.9950981 0.54656863
0.46593136 0.9926471 0.5590687
0.5833334 0.9960785 0.5794118
0.67034316 0.9963236 0.5818628
0.7735294 0.9960785 0.57892156
0.8808824 0.9960785 0.57500005
0.99215686 0.9960785 0.582353
0.15588236 0.14754903 0.6240196
0.19883578 0.15324755 0.63376224
0.27267158 0.15453433 0.6409314
0.3778186 0.15202206 0.63762254
0.5115196 0.15563726 0.642402
0.6318015 0.15539217 0.6353554
0.7491423 0.18529414 0.64509803
0.87285537 0.2178309 0.65539217
1.0 0.24313726 0.67107844
0.15704657 0.18480392 0.6317402
0.20684743 0.1985907 0.626685
0.27927393 0.20055147 0.62591916
0.38337162 0.19824602 0.6330806
0.5124388 0.20113356 0.63033086
0.624326 0.20296416 0.63301164
0.7418505 0.2233609 0.64018077
0.8694546 0.2487209 0.6510494
0.9984069 0.2769608 0.66176474
0.14546569 0.25796568 0.6143383
0.19929534 0.26957723 0.61335784
0.28048408 0.28268996 0.6119792
0.38174018 0.28007048 0.6125919
0.50306374 0.28210786 0.60814947
0.6132353 0.28062195 0.60698533
0.737163 0.30211398 0.62683827
0.867065 0.3255668 0.6388327
0.9957108 0.35318634 0.65906864
0.15104167 0.37156865 0.62567407
0.20868567 0.37122396 0.6289522
0.29227942 0.37904412 0.62977946
0.39596355 0.3912301 0.61698073
0.50818014 0.3929841 0.62438726
0.60967374 0.39165902 0.6162837
0.73863363 0.41312805 0.6394608
0.8675092 0.43809742 0.65529263
0.9960785 0.4626838 0.6695466
0.14828432 0.4995098 0.6193628
0.20392156 0.49901962 0.62405026
0.28584558 0.5028799 0.6166667
0.39261642 0.50189954 0.6084559
0.50980395 0.5063726 0.607598
0.6099571 0.51250005 0.61093754
0.7303309 0.5349878 0.63406867
0.86176467 0.56044734 0.65775126
0.9943627 0.5801471 0.6784314
0.15490197 0.62346816 0.6157476
0.20183824 0.6212163 0.6225184
0.28628987 0.615334 0.6114277
0.39778647 0.6091988 0.6072151
0.5143689 0.6088542 0.6088236
0.6167816 0.6175245 0.61575526
0.72126234 0.6344057 0.6301011
0.85250455 0.6619868 0.6552773
0.9947917 0.6902574 0.6898285
0.18933824 0.72879905 0.6267157
0.22545955 0.7311428 0.63664216
0.3008272 0.7312194 0.64087015
0.41855088 0.7269148 0.63754594
0.53817403 0.7240196 0.6401348
0.6411305 0.72189033 0.6441483
0.7318015 0.7283701 0.6469669
0.8617953 0.7529719 0.6737592
0.9960785 0.7801471 0.6935049
0.21697305 0.8643382 0.6433211
0.2511642 0.86684287 0.64083946
0.32772672 0.8659774 0.63909316
0.44447 0.8596967 0.64447
0.5609988 0.8608762 0.6505515
0.6630515 0.8598882 0.66443783
0.7585172 0.8600797 0.66292894
0.8616268 0.86009496 0.6607154
0.99424016 0.89148283 0.68823534
0.24362746 0.9960785 0.6539216
0.2759804 0.9995099 0.6539828
0.35061282 0.9957108 0.6474265
0.4632353 0.9951594 0.65998775
0.5818628 0.9977941 0.6696078
0.686826 0.9960785 0.68596816
0.78419125 0.9935049 0.6805147
0.8822917 0.9923407 0.676777
0.99215686 0.9960785 0.6926471
0.19313723 0.18235293 0.74607843
0.22316176 0.18504903 0.7502451
0.29093137 0.18308826 0.74926484
0.39840686 0.18590686 0.7533088
0.5245098 0.18578433 0.7480392
0.6389706 0.18443629 0.7469363
0.7492647 0.18480392 0.7517157
0.8723039 0.2172794 0.7607843
0.9960785 0.24509804 0.77156866
0.19313726 0.21286765 0.75024515
0.23134191 0.22026654 0.75174636
0.29920346 0.22365199 0.7491728
0.4021293 0.22333029 0.7526043
0.5238358 0.22493874 0.7533089
0.6376532 0.22545955 0.75580573
0.7496324 0.22417282 0.7528799
0.87420344 0.2488511 0.76394
1.0 0.27438727 0.77230394
0.17965686 0.2764706 0.7352941
0.221875 0.2861826 0.73710173
0.3 0.29950982 0.73253685
0.40297186 0.3012868 0.7352022
0.5165441 0.30134803 0.73333323
0.6291973 0.3008272 0.7321078
0.7312499 0.30238974 0.7297794
0.8642463 0.32503065 0.74656856
0.9950981 0.35269606 0.76176476
0.18431373 0.3816177 0.73860294
0.22461705 0.3858762 0.74310666
0.30998775 0.39880514 0.7478555
0.42231923 0.41609985 0.74376535
0.52953434 0.41648284 0.7420956
0.63791364 0.41780025 0.74039525
0.7318934 0.41694242 0.74157476
0.86220896 0.4383119 0.755959
0.9950981 0.45808825 0.7742647
0.18039216 0.5088236 0.7436274
0.22395834 0.514951 0.73884803
0.30955884 0.5205883 0.7427696
0.41960785 0.52720594 0.7348039
0.53676474 0.53431374 0.7276961
0.63376224 0.5335171 0.7309437
0.7291666 0.53553927 0.7294117
0.8613357 0.5599265 0.75575984
0.99509805 0.582353 0.7803922
0.18051471 0.6265931 0.7316177
0.22429535 0.62758887 0.7386336
0.29950982 0.62965685 0.7337929
0.41668195 0.6296109 0.7327359
0.5332721 0.6284314 0.7190564
0.6312194 0.63301164 0.7139246
0.7278492 0.6377451 0.7219364
0.86027884 0.6626685 0.7487286
0.9960785 0.6884803 0.78370106
0.18578433 0.73357844 0.7409314
0.22573529 0.73400736 0.75027573
0.30857843 0.7322304 0.7476716
0.42668504 0.7292279 0.74705887
0.5433824 0.72745097 0.7406863
0.642065 0.7259497 0.7434129
0.7422794 0.73884803 0.74914217
0.8668505 0.76155025 0.7764093
0.9960785 0.78627455 0.8031863
0.21311276 0.8660539 0.75490195
0.25019914 0.8638174 0.74546576
0.32916665 0.8632966 0.74837625
0.44286153 0.8601409 0.7452819
0.5667892 0.8598652 0.7509191
0.66753983 0.8572305 0.75456506
0.7640625 0.86066186 0.7588236
0.86723346 0.86455274 0.7627145
0.9969363 0.8944853 0.7943628
0.24313726 0.9990196 0.7607843
0.27561274 0.9990196 0.7583334
0.34632355 0.99803925 0.7583334
0.45575982 0.99338233 0.76115197
0.57990193 0.9975491 0.7735294
0.68823534 0.9926471 0.7783088
0.79068625 0.99828434 0.78921574
0.8910539 0.99424016 0.7851717
0.9960785 0.9960785 0.78921574
0.21960784 0.21029413 0.8745099
0.24908087 0.2166054 0.8805147
0.31188726 0.21458332 0.8785539
0.4150735 0.21875 0.8848039
0.53700984 0.22058824 0.8835785
0.6467525 0.21666667 0.88045347
0.7545344 0.21948531 0.8845588
0.8748774 0.21960784 0.8822916
0.9960785 0.24460784 0.8892157
0.22267157 0.24411765 0.8761029
0.25755975 0.24738818 0.8765166
0.32008272 0.2513787 0.87849265
0.4198606 0.25183824 0.8816023
0.5369792 0.25 0.8852022
0.6514553 0.24974725 0.8811504
0.75447303 0.24727328 0.87898284
0.8774587 0.25002298 0.88065255
0.9969976 0.27291667 0.8919731
0.21372548 0.30306375 0.8644608
0.24566483 0.3066636 0.8596201
0.31776962 0.3192402 0.8613358
0.42166054 0.32389706 0.861489
0.5363358 0.32377452 0.86145836
0.6444853 0.32446384 0.86220896
0.7466912 0.3235907 0.8571692
0.8660387 0.3250613 0.860095
0.9971814 0.3515932 0.8854167
0.21783087 0.4017157 0.8720588
0.25124848 0.40979627 0.8752834
0.32840073 0.41976103 0.8761489
0.44338998 0.43742338 0.8710325
0.5519608 0.43961397 0.8806066
0.65225184 0.4400735 0.8705729
0.7522212 0.43641236 0.8726562
0.8618873 0.44247854 0.87636334
0.9960785 0.46207106 0.8913604
0.21151958 0.5242647 0.86691177
0.2521446 0.5281863 0.8661458
0.32659313 0.53333336 0.8686887
0.44083947 0.5438726 0.8634804
0.5625 0.55575985 0.8593138
0.6577819 0.5587317 0.8637561
0.74975497 0.5568015 0.8589461
0.8626839 0.5596814 0.8642463
0.9960785 0.58210784 0.8906863
0.21194853 0.63615197 0.8674021
0.24386491 0.63847274 0.85700065
0.3202359 0.6375613 0.85553
0.44004285 0.6418352 0.8550628
0.55928314 0.6517157 0.8537378
0.66141236 0.6639706 0.8534467
0.75064343 0.6595282 0.8527879
0.8563572 0.66260725 0.8556526
0.9947917 0.68958336 0.8931373
0.21372548 0.7427696 0.86715686
0.25283396 0.7438726 0.87503064
0.33158702 0.74191177 0.87628675
0.4466759 0.74895835 0.8748161
0.56685054 0.75067407 0.8738358
0.66865814 0.7537837 0.8685049
0.76565564 0.75845593 0.8715073
0.86891854 0.7612745 0.8757659
0.9960785 0.78627455 0.8998774
0.21452206 0.8639706 0.8715073
0.25187653 0.86358 0.8653876
0.32714462 0.86531866 0.8649204
0.4448453 0.8626302 0.8615809
0.56660545 0.8610907 0.8579351
0.66966146 0.8566942 0.8596048
0.7626073 0.8635417 0.8602482
0.8690564 0.8677237 0.87053466
0.9960785 0.8976716 0.8980392
0.24313726 0.9975491 0.89019614
0.27616423 0.9975491 0.8761029
0.3480392 0.99644613 0.8727941
0.4622549 0.9944853 0.87812495
0.58676475 0.99803925 0.8791666
0.6906863 0.9972427 0.88572305
0.78786767 0.9960785 0.8897059
0.89485294 0.99558824 0.8947304
0.99215686 1.0 0.89901966
0.2509804 0.24705882 1.0
0.2735294 0.24313726 0.9960785
0.32941177 0.24607842 1.0
0.42696083 0.2465686 0.9995099
0.5431373 0.24509804 0.99803925
0.6450981 0.24313726 0.9995099
0.75490195 0.24411765 0.99705887
0.8696078 0.24705882 0.9975491
0.99215686 0.24313726 0.9960785
0.24558823 0.26813728 0.9960785
0.28045344 0.27199757 0.9969976
0.3367647 0.27463236 0.9950981
0.4317402 0.2713848 0.9973653
0.5477941 0.27549022 0.99730396
0.65833336 0.27450982 0.99822307
0.7681373 0.27414218 0.99742645
0.8765932 0.27591914 0.99662995
0.9960785 0.26960784 0.9931373
0.24313726 0.3254902 0.99411774
0.27585784 0.33370098 0.9939952
0.34926474 0.34779412 0.9914216
0.4422794 0.34583336 0.98958325
0.55441177 0.3480392 0.99313724
0.65661764 0.34791666 0.9920343
0.76519614 0.34656867 0.9946079
0.8746324 0.34730393 0.9950981
0.99313724 0.35294122 0.99705887
0.24362746 0.41568625 0.9960785
0.27977943 0.42696083 0.99852943
0.3533089 0.43382353 0.9987745
0.46280637 0.4519608 0.9965074
0.56960785 0.45833334 0.9977941
0.66041666 0.45839462 0.9957108
0.76666665 0.45698532 0.9960785
0.8771446 0.45735297 0.9960785
0.9926471 0.4588235 0.9995099
0.24313726 0.5372549 0.99411774
0.2762255 0.5419118 0.994853
0.34950984 0.55098045 0.9946079
0.46544117 0.56004906 0.9943627
0.5852941 0.57843137 0.99411774
0.6781863 0.5818628 0.99583334
0.7764706 0.5808824 0.99558836
0.8811274 0.5816177 0.9926471
0.99411774 0.582353 0.99215686
0.24264707 0.64117646 0.9887255
0.2824755 0.6535539 0.9971814
0.34816176 0.65539217 0.9946079
0.46029416 0.6641544 0.99558836
0.58480394 0.6723039 0.99730396
0.6843137 0.6863971 0.98829657
0.78210783 0.6898285 0.9916667
0.88676476 0.6870711 0.9960785
0.9965687 0.6980392 0.9960785
0.24411765 0.7441177 0.9960785
0.28088236 0.7530638 0.9966912
0.34975493 0.7556373 0.9995099
0.46384802 0.7606618 0.9996323
0.5857843 0.7705883 0.9975491
0.69031864 0.7783088 0.99522066
0.7943628 0.7877451 0.99803925
0.89178926 0.7851717 0.99644613
0.99215686 0.78529423 0.99803925
0.24803925 0.8745099 0.99460787
0.28137255 0.875 0.9969976
0.35416666 0.8738971 0.9939952
0.46697304 0.8789215 0.99460787
0.58382356 0.87941176 0.98774505
0.69148284 0.8854167 0.9898284
0.7979166 0.8931373 0.9950981
0.8971201 0.8946691 0.98976713
0.99852943 0.89460796 0.9960785
0.23921567 1.0 0.99215686
0.2735294 0.9960785 0.9897058
0.3480392 0.9950981 0.99215686
0.46715686 0.9960785 0.9887255
0.5803922 0.99803925 0.9882353
0.6877451 0.9960785 0.9882353
0.7931373 0.9960785 0.99215686
0.89460796 0.99852943 0.99215686
0.9960785 0.9960785 0.99215686
