assets/luts/LUTs/LEICA/LEICA SEP.cube
#Generated by PennL1 - 闲鱼号：LOOK胶片感 公众号：胶片感
TITLE LEICA SEP
LUT_3D_SIZE 5
0.003921569 0.003921569 0.0
0.08039216 0.07647059 0.068627454
0.18235295 0.17058824 0.14313726
0.27254903 0.2627451 0.21666667
0.36078432 0.34509805 0.30980393
0.16470589 0.15294118 0.1254902
0.22843137 0.21666667 0.18137255
0.31127453 0.3034314 0.25637257
0.39558822 0.38039213 0.3362745
0.47941178 0.4637255 0.4166667
0.33137256 0.32352942 0.2764706
0.3867647 0.375 0.32990196
0.45882356 0.44313726 0.39607844
0.5426471 0.5200981 0.46960783
0.6294118 0.6058824 0.5470588
0.4911765 0.4754902 0.43235296
0.5566177 0.53308827 0.47818628
0.6279412 0.60490197 0.5406863
0.7056373 0.68284315 0.6178922
0.777451 0.75784314 0.68333334
0.6784314 0.654902 0.5921569
0.732353 0.7127452 0.63823533
0.7941177 0.7745098 0.70000005
0.8637254 0.83627456 0.7617647
0.9254902 0.8980392 0.82352936
0.020588236 0.021568628 0.029411767
0.10808824 0.10416667 0.08529412
0.20784312 0.19607843 0.17058824
0.30392158 0.29558825 0.24877451
0.3843137 0.36862746 0.3254902
0.19117647 0.17892158 0.1502451
0.24895833 0.23645833 0.20079657
0.33235294 0.3245098 0.27745098
0.4200368 0.4043505 0.35729167
0.504902 0.48995098 0.4406863
0.3509804 0.34313726 0.29607844
0.41286767 0.39791667 0.3509804
0.4789216 0.46323532 0.4161765
0.56397057 0.544853 0.4884804
0.6534314 0.629902 0.5671569
0.5227941 0.49926472 0.45514706
0.58082116 0.56464463 0.5087623
0.65649515 0.63296574 0.57022065
0.73039216 0.71004903 0.6377451
0.8061274 0.7845589 0.7102941
0.70098037 0.677451 0.6147059
0.7556373 0.73602945 0.66151965
0.8186275 0.79509807 0.72058827
0.8833333 0.85588235 0.7813726
0.94411767 0.9166666 0.8421569
0.039215688 0.047058824 0.027450982
0.13284314 0.1259804 0.108333334
0.23235294 0.22058824 0.18529412
0.3269608 0.31911767 0.27205884
0.41176468 0.39607844 0.34901962
0.20980391 0.19803922 0.1627451
0.27389708 0.26507354 0.22095588
0.35367647 0.34313726 0.29926473
0.44509804 0.4297794 0.3816176
0.5294118 0.5147059 0.45882353
0.3764706 0.36078432 0.31764707
0.4370098 0.42205882 0.37279412
0.5044118 0.48921567 0.43823528
0.59411764 0.57058823 0.51323533
0.6833334 0.659804 0.5970589
0.5495098 0.5259804 0.47107846
0.60906863 0.589951 0.52720594
0.68235296 0.65882355 0.59607846
0.75306374 0.7308824 0.66629905
0.82892156 0.80245095 0.72892153
0.72745097 0.70392156 0.64117646
0.78039217 0.7607843 0.6862745
0.845098 0.8176471 0.7490196
0.90539217 0.87794125 0.8034314
0.9666667 0.9392157 0.86470586
0.06960785 0.0627451 0.063725494
0.16421568 0.15245098 0.125
0.2544118 0.24264705 0.20735294
0.3480392 0.3362745 0.30882353
0.43627453 0.42058825 0.37352943
0.23210785 0.22107843 0.18357843
0.2998162 0.2875613 0.24050245
0.37512255 0.36433822 0.31875
0.46678922 0.45 0.40294117
0.5625 0.5389706 0.48406863
0.39999998 0.38431373 0.33970588
0.45943627 0.44448528 0.3930147
0.5308824 0.5107843 0.45882353
0.6185049 0.59828436 0.5368873
0.7058824 0.68284315 0.6186275
0.5710785 0.5563726 0.49852943
0.6414216 0.6178922 0.5551471
0.70477945 0.6829657 0.61507356
0.77696073 0.75735295 0.68284315
0.84901965 0.82745093 0.75147057
0.75 0.7264706 0.6637255
0.8058824 0.78627455 0.71176475
0.8642157 0.8367647 0.76617646
0.9303922 0.9029412 0.82843137
0.9764706 0.9568627 0.8784314
0.08627451 0.08235294 0.06666667
0.18529412 0.17352942 0.14019608
0.2784314 0.2647059 0.2254902
0.36568627 0.35196078 0.30784315
0.4588235 0.44313726 0.39607844
0.25392157 0.24215686 0.20686275
0.32303923 0.3151961 0.26813728
0.39803922 0.38627452 0.33970588
0.4862745 0.47156864 0.42156863
0.58725494 0.56372553 0.5088236
0.4254902 0.40980393 0.3627451
0.47941178 0.4637255 0.4166667
0.5529412 0.53431374 0.48039216
0.6450981 0.6215687 0.5588236
0.7313726 0.70980394 0.64117646
0.59607846 0.57254905 0.5156863
0.6607843 0.6372549 0.5745098
0.7294118 0.70637256 0.6450981
0.79852945 0.7784314 0.7041667
0.87058824 0.84313726 0.772549
0.7764706 0.75686276 0.68235296
0.827451 0.8 0.7294117
0.8901961 0.8627451 0.79019606
0.9470588 0.9196078 0.845098
0.9764706 0.9568627 0.88235295
