assets/luts/LUTs/LEICA/LEICA VIV.cube
#Generated by Pennl1
#闲鱼号：LOOK胶片感
#公众号：胶片感
TITLE LEICA VIV
LUT_3D_SIZE 5
0.0 0.0 0.015686275
0.26568627 0.0 0.00882353
0.5411765 0.0 0.013725491
0.787255 0.0 0.015686275
0.99215686 0.0 0.007843138
0.0 0.2627451 0.0
0.2644608 0.2647059 0.003921569
0.53186274 0.26862746 0.0
0.78602946 0.27034315 0.0
0.9960785 0.27254903 0.0
0.0 0.5254902 0.0019607844
0.26715687 0.532353 0.0034313728
0.53431374 0.532353 0.0029411765
0.77794117 0.5343138 0.0004901961
0.99411774 0.53137255 0.003921569
0.0009803922 0.77254903 0.0009803922
0.2639706 0.775 0.0036764708
0.53333336 0.7774509 0.0024509805
0.782353 0.77622545 0.0029411765
0.9950981 0.77549016 0.0
0.0 0.9960785 0.003921569
0.2647059 0.9960785 0.0
0.53333336 0.99803925 0.0
0.7803922 0.9990196 0.0
0.9960785 1.0 0.0
0.0029411765 0.0 0.2784314
0.2762255 0.0 0.28480393
0.54019606 0.0 0.28578433
0.78676474 0.0 0.28088236
1.0 0.0 0.2794118
0.0036764708 0.27107844 0.27083334
0.2579044 0.26844364 0.2541054
0.53786767 0.2567402 0.24852943
0.78155637 0.24136028 0.23210785
0.99583334 0.24215688 0.24338235
0.00049019605 0.5279412 0.2637255
0.23713236 0.53578436 0.24068628
0.539951 0.53676474 0.23848039
0.7827206 0.5291667 0.2411765
0.9975491 0.52254903 0.24509804
0.00073529413 0.77156866 0.26715687
0.23713236 0.779902 0.2389706
0.5316177 0.778799 0.23909312
0.7851717 0.77763486 0.2394608
0.9968138 0.7745098 0.24632354
0.0029411765 0.9990196 0.2754902
0.23186272 0.99828434 0.22671568
0.5235294 0.9960785 0.2259804
0.7784315 0.9960785 0.22647059
0.99313724 0.99705887 0.23529413
0.0019607844 0.0 0.5372549
0.27009803 0.0 0.54607844
0.5441177 0.0 0.55
0.78578436 0.0 0.54558825
1.0 0.0 0.54901963
0.00049019605 0.26862746 0.53088236
0.23848039 0.24227941 0.5400736
0.53700984 0.23848039 0.53406864
0.78602946 0.2382353 0.5253677
0.9931373 0.23921567 0.52401966
0.0 0.53039217 0.53627455
0.23431373 0.5345589 0.5433824
0.5333333 0.53137255 0.534804
0.78186274 0.5230392 0.5296569
0.99705887 0.5088235 0.5137255
0.0019607847 0.7696078 0.5382353
0.23014708 0.77953434 0.53382355
0.5098039 0.7838236 0.51323533
0.78602946 0.7834559 0.5109069
0.9960785 0.76617646 0.5191177
0.003921569 0.99803925 0.5411765
0.22745097 0.99460787 0.51225495
0.4921569 0.9960785 0.4892157
0.767647 0.9960785 0.48284316
0.99411774 1.0 0.4882353
0.0009803922 0.0 0.78529423
0.27279413 0.0 0.79289216
0.5431373 0.0 0.7921569
0.78651965 0.0 0.79387265
1.0 0.0 0.79901963
0.0009803922 0.26666665 0.7759804
0.2351103 0.23174019 0.7803922
0.52524513 0.23039216 0.77818626
0.7786151 0.23167889 0.7720588
0.99313724 0.23627451 0.77132356
0.0004901961 0.5284314 0.7838236
0.23296568 0.52830887 0.78602946
0.50416666 0.50686276 0.7855392
0.78419113 0.5019608 0.78419113
0.9965687 0.5029412 0.7759804
0.0046568634 0.77377456 0.7806372
0.23314953 0.779228 0.792402
0.5060049 0.78321093 0.7926471
0.7742034 0.775919 0.7864584
0.9960785 0.7718138 0.7855392
0.0 0.9990196 0.7852941
0.2245098 0.9960785 0.77254903
0.4887255 0.9960785 0.7656863
0.7561275 0.9953432 0.759804
0.9960785 0.9990196 0.759804
0.0 0.0 0.9960785
0.27254903 0.0 0.9990196
0.5372549 0.0 0.99803925
0.78529423 0.0 1.0
1.0 0.0 0.9960785
0.003921569 0.26960784 0.9950981
0.22769609 0.235049 0.99191177
0.52205884 0.23186274 0.99215686
0.7794117 0.22916667 0.99215686
0.9960785 0.23137254 0.9950981
0.0 0.5294118 0.99411774
0.225 0.52254903 0.9950981
0.49607843 0.49019608 0.9960785
0.7671569 0.4892157 0.99509805
0.9960785 0.49019608 0.9960785
0.0019607844 0.7705883 1.0
0.22892159 0.77230394 0.9995099
0.48921567 0.76176476 0.9965687
0.76029414 0.7583334 0.99558836
0.99313724 0.7529412 0.99705887
0.0 0.9960785 0.9960785
0.22647059 0.99313724 0.9882353
0.48823532 0.9960785 0.9882353
0.759804 0.9960785 0.9901961
0.99215686 1.0 0.9882353
