assets/luts/LUTs/LEICA/LEICA BRS.cube
#Generated by PennL1 - 闲鱼号：LOOK胶片感 公众号：胶片感
TITLE LEICA BRS
LUT_3D_SIZE 9
0.03529412 0.0 0.047058824
0.13039216 0.0014705884 0.058823533
0.22745098 0.003921569 0.051960785
0.38186276 0.016176471 0.067156866
0.53137255 0.01764706 0.068627454
0.6862745 0.015196079 0.07009804
0.8019608 0.016666668 0.07058824
0.89705884 0.020588236 0.08186275
0.9647059 0.019607844 0.08235294
0.03529412 0.083333336 0.044607844
0.14123775 0.088786766 0.05189951
0.24620098 0.09375 0.05367647
0.40049022 0.10061275 0.05851716
0.5468138 0.10416667 0.059558827
0.6979166 0.11164216 0.06354167
0.81299025 0.11936275 0.0627451
0.8985294 0.12193628 0.06819853
0.9637255 0.12401961 0.061274514
0.03529412 0.20784312 0.03627451
0.13958333 0.21531862 0.034313727
0.26519608 0.2127451 0.035539217
0.4134804 0.21102941 0.038848042
0.5725491 0.22009805 0.040686276
0.72046566 0.23235293 0.049264707
0.8281863 0.24534316 0.051715687
0.9098039 0.25539216 0.059558827
0.97058827 0.26666668 0.063725494
0.05147059 0.3539216 0.05490196
0.14852941 0.3552696 0.043811277
0.26568627 0.3627451 0.044362746
0.41329658 0.35686272 0.043627452
0.5916667 0.35196078 0.03651961
0.74460787 0.3577819 0.03707108
0.8482843 0.37401962 0.04656863
0.9233456 0.3874387 0.054656863
0.9887255 0.4034314 0.05784314
0.05490196 0.5117647 0.043137256
0.16397059 0.52500004 0.038480394
0.2901961 0.5284314 0.038235296
0.42990196 0.53333336 0.04754902
0.6019608 0.5254902 0.04803922
0.75686276 0.51225495 0.018382354
0.87107843 0.51617646 0.012254903
0.9414216 0.5296569 0.009068628
1.0 0.5411765 0.025490198
0.0627451 0.6818628 0.0377451
0.18008578 0.68302697 0.027941177
0.3089461 0.689951 0.027941177
0.4541054 0.69368875 0.034191176
0.60906863 0.6995098 0.05661765
0.7481618 0.6894608 0.06053922
0.87622553 0.6697304 0.024754902
0.9585172 0.6632353 0.00030637253
0.9995098 0.66764706 0.0073529417
0.0754902 0.8009803 0.04117647
0.18284315 0.808701 0.03517157
0.32058823 0.8142157 0.037009805
0.47352943 0.8167892 0.037132353
0.6161765 0.822549 0.05784314
0.7511029 0.81666666 0.08039216
0.8610294 0.81053925 0.08504902
0.94142157 0.7901961 0.0502451
0.9990196 0.7735294 0.024509804
0.08235294 0.8985294 0.03284314
0.20876226 0.90392154 0.025245098
0.3469363 0.907598 0.022058824
0.49411765 0.9075981 0.023590688
0.6362745 0.9129902 0.0375
0.75441176 0.91225487 0.06213236
0.85514706 0.9132353 0.094240196
0.9376226 0.89889705 0.097426474
1.0 0.8892157 0.07254902
0.08627451 0.9647059 0.03137255
0.21666667 0.972549 0.028431375
0.35980392 0.97156864 0.016666668
0.51176476 0.9730392 0.023529412
0.6529412 0.9764706 0.03137255
0.7656862 0.98039216 0.06176471
0.85490197 0.98039216 0.08921569
0.9289216 0.98039216 0.1004902
0.9960785 0.972549 0.10980392
0.039705884 0.0 0.14852941
0.1322304 0.0042892164 0.15116422
0.24436276 0.004656863 0.14877452
0.38645834 0.012745098 0.1569853
0.5401961 0.021568628 0.16397059
0.6887868 0.027634803 0.17230393
0.8066176 0.034558825 0.18112746
0.8934436 0.037683826 0.18180147
0.9622549 0.038235296 0.18970588
0.06176471 0.089338236 0.134375
0.13524817 0.097870715 0.14001226
0.24761032 0.10137868 0.14970896
0.38598347 0.109129906 0.15661766
0.545864 0.11755515 0.15857844
0.69436276 0.120404415 0.16207108
0.81245404 0.123483464 0.16511948
0.896538 0.12686123 0.17168352
0.9650736 0.12316177 0.1673407
0.04411765 0.20906861 0.1329657
0.13969058 0.21606924 0.12791054
0.26262257 0.21587011 0.13097428
0.40690872 0.21999082 0.14341299
0.56372553 0.2291054 0.14197305
0.71023285 0.2360141 0.15117954
0.8282169 0.24996936 0.15
0.9079657 0.25465688 0.15107231
0.9751226 0.26115197 0.16360295
0.043137256 0.3485907 0.1351103
0.15057445 0.35657936 0.13990504
0.27487746 0.3656403 0.1351103
0.4271063 0.36443016 0.13904719
0.59246325 0.3624081 0.14249387
0.73617494 0.3727252 0.13571538
0.8476103 0.38604474 0.15079658
0.92593443 0.39450827 0.16159621
0.9927084 0.39901963 0.16053922
0.053921573 0.514951 0.13946079
0.16360295 0.52518386 0.13241422
0.29074758 0.5344976 0.13272059
0.43615195 0.5398591 0.13645835
0.60379905 0.52977943 0.13713236
0.7594976 0.51936275 0.11792279
0.8718137 0.52616423 0.11194853
0.9431373 0.53728557 0.11933211
0.99803925 0.5436275 0.12524511
0.059926473 0.6772059 0.13658088
0.17745863 0.68375456 0.12244946
0.31409317 0.68898594 0.12594976
0.45602793 0.6954274 0.123154104
0.61078435 0.69892764 0.14056373
0.7575291 0.6870022 0.14296876
0.87689954 0.6759191 0.11344976
0.95761335 0.6667663 0.08863358
0.99871325 0.6669118 0.083088234
0.07328431 0.80061275 0.13995099
0.19376531 0.8082874 0.13828126
0.32463235 0.8146753 0.1349571
0.47829348 0.8207261 0.13435969
0.6286152 0.82077205 0.14724265
0.7593137 0.81818324 0.16481312
0.8655024 0.8112439 0.16924019
0.9500612 0.7946844 0.14353555
0.9966912 0.775 0.102328435
0.0754902 0.9039828 0.13553922
0.19656096 0.904879 0.12090227
0.34322917 0.9044271 0.12141544
0.4976103 0.9074831 0.11906403
0.64178926 0.9118566 0.13020834
0.75759804 0.9153646 0.15099572
0.85471815 0.91383266 0.17140013
0.93643534 0.9013787 0.17454045
0.997978 0.8882966 0.14650737
0.07990196 0.9686275 0.14117648
0.2028799 0.9731005 0.12328432
0.34129903 0.9719363 0.11789216
0.5053922 0.97432595 0.12015931
0.6529412 0.9752451 0.12377451
0.76096815 0.97794116 0.14375001
0.8502451 0.97928923 0.16544119
0.92647064 0.97702205 0.17450981
0.9936275 0.9700981 0.1887255
0.04901961 0.007843138 0.25784314
0.13517156 0.0047794124 0.27230394
0.2504902 0.0061274515 0.27352944
0.39865196 0.011887255 0.2692402
0.5406863 0.022058824 0.2769608
0.683701 0.036642157 0.28786767
0.8036765 0.04411765 0.28921568
0.888603 0.05404412 0.28982845
0.95980394 0.058823533 0.3029412
0.0870098 0.10220589 0.24411765
0.14813113 0.1016391 0.25062808
0.25159314 0.10291055 0.2634498
0.39419425 0.11254595 0.2669577
0.54270834 0.12481617 0.26599267
0.6878983 0.13296568 0.2697917
0.80407476 0.14041054 0.28082108
0.8915748 0.14745712 0.2910846
0.9655638 0.14730392 0.29240197
0.11470588 0.20931372 0.23970589
0.16890319 0.21446076 0.23140319
0.2603554 0.2232843 0.23394608
0.3948223 0.23247549 0.24767157
0.5540441 0.24215688 0.2531863
0.7017157 0.25202206 0.25741422
0.81599265 0.2568015 0.25814953
0.9001838 0.26007968 0.262163
0.9612745 0.26053923 0.26813725
0.067524515 0.3507353 0.25416666
0.15666361 0.3609988 0.25194547
0.27383578 0.36847425 0.24754903
0.42875305 0.37011337 0.24025737
0.5851103 0.37591913 0.25876227
0.72912073 0.383655 0.25931373
0.8388481 0.39666057 0.26939338
0.9138174 0.40560663 0.27412683
0.9838235 0.3985294 0.27132356
0.053431373 0.51862746 0.25588238
0.15992647 0.5270834 0.24675246
0.2897059 0.53627455 0.2457108
0.44626227 0.54019606 0.24938726
0.6071079 0.53676474 0.24411766
0.75759804 0.5343138 0.23621324
0.86115193 0.54117656 0.2377451
0.9380515 0.5509192 0.25110295
0.99215686 0.55490196 0.25392157
0.062254906 0.67536765 0.2531863
0.17391238 0.6832261 0.23534006
0.30946693 0.69237137 0.2425245
0.4560968 0.6986672 0.234712
0.6158701 0.6976716 0.24362746
0.75971204 0.6909467 0.24871324
0.8765931 0.6816483 0.22965686
0.957644 0.6794731 0.22400428
0.994853 0.6754902 0.21384804
0.067892164 0.80245095 0.2615196
0.19120711 0.8071997 0.25373775
0.32665443 0.81476724 0.24944854
0.4783701 0.8241116 0.24568014
0.63590693 0.8269608 0.2574755
0.76436883 0.8191483 0.2637255
0.866973 0.8156863 0.26654413
0.95272666 0.79856 0.25453433
0.9992647 0.78039217 0.21568626
0.07585785 0.9047794 0.25477943
0.19549632 0.90378374 0.24313727
0.3401961 0.90554535 0.2354473
0.4939032 0.91021746 0.23014706
0.642647 0.9139093 0.23749998
0.7611826 0.9132353 0.2471967
0.85490197 0.9144914 0.26780027
0.94411767 0.9048866 0.27236518
0.9941176 0.8871324 0.24571079
0.0754902 0.9735294 0.2637255
0.19999999 0.97610295 0.25012255
0.3360294 0.9703432 0.23504902
0.49656862 0.97610295 0.23713234
0.6446079 0.97794116 0.22941177
0.76274514 0.9764706 0.24852942
0.85612744 0.97843134 0.25857845
0.9311274 0.9807598 0.26875
0.9990196 0.9696079 0.28235295
0.07990196 0.024509804 0.4
0.1481005 0.007659314 0.41617647
0.2512255 0.01004902 0.42083335
0.39117646 0.011335785 0.42034313
0.55098045 0.013725491 0.40906864
0.6920343 0.026102941 0.41170344
0.80833334 0.036029413 0.42340687
0.8976103 0.04742647 0.43174016
0.9573529 0.058333337 0.42745098
0.115502454 0.12389707 0.3635417
0.15797335 0.11081495 0.38314185
0.25905332 0.1046875 0.3955423
0.39891237 0.116299026 0.3999617
0.5639706 0.12022059 0.39347425
0.69613206 0.13622856 0.39119944
0.80465686 0.14355086 0.3945619
0.89008886 0.1555377 0.40569088
0.95661765 0.15704657 0.40545344
0.15269609 0.22745098 0.3507353
0.19362745 0.22936581 0.35265014
0.27132353 0.22840074 0.36461398
0.4138174 0.23337927 0.37755823
0.56170344 0.24644609 0.37371323
0.70090383 0.2615962 0.3726256
0.80928314 0.267739 0.3792892
0.8875613 0.27431068 0.3877298
0.9542892 0.2796569 0.39387256
0.16917893 0.3471201 0.38002452
0.21063879 0.3657169 0.38203892
0.28999695 0.3699142 0.3756587
0.4332721 0.3765012 0.36678922
0.5725184 0.39270833 0.38569242
0.7100338 0.40017617 0.38753062
0.8178002 0.40848655 0.3961244
0.89689034 0.41525733 0.39676774
0.9650735 0.41243875 0.4047794
0.084068626 0.5193628 0.3958333
0.17212011 0.5275123 0.37732846
0.29399508 0.54044116 0.37175247
0.44837624 0.5474571 0.37159926
0.61078435 0.5427696 0.36311275
0.7474878 0.5466912 0.3802696
0.84620094 0.55625004 0.38376224
0.9239277 0.5679841 0.39359683
0.9835784 0.5671569 0.3965686
0.05876226 0.68572307 0.39503676
0.17585784 0.68361676 0.36220896
0.3057598 0.695818 0.3671109
0.46228552 0.70248926 0.36872706
0.62153804 0.7043199 0.36691177
0.75432754 0.6943321 0.37252605
0.8737286 0.6881893 0.3598652
0.9487822 0.6897059 0.3654871
0.9946692 0.69166666 0.37732843
0.07450981 0.8050245 0.3958333
0.1944087 0.8112745 0.3841452
0.3231924 0.8199142 0.3775429
0.4763634 0.82783395 0.38439032
0.63278186 0.8249387 0.38026962
0.7639553 0.8241881 0.38434434
0.86933213 0.81614584 0.3897978
0.9511948 0.80546874 0.3704504
1.0 0.7863971 0.36237746
0.07726716 0.90588236 0.3915441
0.19706647 0.90099573 0.379833
0.33694854 0.9071538 0.3697304
0.49185815 0.9095052 0.36904106
0.64390326 0.9137255 0.37426472
0.7630055 0.91545653 0.3733992
0.8586857 0.91418505 0.38342524
0.94516695 0.9077282 0.3898361
1.0 0.8907476 0.36917895
0.089705884 0.9764706 0.40735298
0.19669119 0.9739583 0.38786766
0.3245098 0.9762255 0.383701
0.49123773 0.9760417 0.3810662
0.64607847 0.975 0.3625
0.75735295 0.9778186 0.36905634
0.85637254 0.9868872 0.3800245
0.92806375 0.97879905 0.39522058
0.99264705 0.9754902 0.38872546
0.11568628 0.047058824 0.5411765
0.16960785 0.020588236 0.5561275
0.25539216 0.009313726 0.5681373
0.3992647 0.010294118 0.56102943
0.5539216 0.012745099 0.5627451
0.70563734 0.019117648 0.5642157
0.8171569 0.023529412 0.5593138
0.9044118 0.033333335 0.5590687
0.96470594 0.04509804 0.5529412
0.14607844 0.14289217 0.5279412
0.18645833 0.12938112 0.5280944
0.2677696 0.113051474 0.5431373
0.40431988 0.114950985 0.54607844
0.56078434 0.1194853 0.5416667
0.70612746 0.1288603 0.5401654
0.82034314 0.13339461 0.53419125
0.9015625 0.140625 0.53875613
0.9666667 0.14362746 0.55490196
0.18529412 0.24950981 0.49509805
0.22046567 0.24852942 0.49264708
0.28480393 0.24019608 0.51200986
0.4161152 0.2413603 0.5119486
0.5740196 0.24436276 0.514951
0.7113358 0.25637257 0.51507354
0.8207108 0.26801473 0.514951
0.89301467 0.27401963 0.5186275
0.9583334 0.28039217 0.5318628
0.24534315 0.3625 0.49852943
0.27205884 0.37640932 0.49751836
0.32873774 0.38167894 0.5023897
0.43893996 0.3872549 0.51038605
0.58615196 0.3939951 0.52181375
0.71060055 0.40526962 0.5193321
0.8113358 0.41783088 0.5247549
0.8896446 0.41871935 0.5278799
0.95612746 0.41691175 0.5328431
0.19803922 0.5176471 0.52647066
0.22916667 0.5301471 0.5128677
0.31715685 0.54093134 0.51617646
0.44975492 0.54901963 0.5128677
0.6117647 0.5534314 0.49803922
0.73406863 0.5651961 0.5142157
0.827451 0.57450986 0.5281863
0.8995098 0.57843137 0.5379902
0.9607843 0.57843137 0.5441177
0.08210784 0.67965686 0.51862746
0.1885723 0.69215685 0.51629907
0.31507355 0.69375 0.50839466
0.4610294 0.7072917 0.5084559
0.62708336 0.7089461 0.49914214
0.7602941 0.70612746 0.49705884
0.86311275 0.7072917 0.5115196
0.9329351 0.70723045 0.51761645
0.98014706 0.70735294 0.5208334
0.075980395 0.80490196 0.5377451
0.19754902 0.81305146 0.5300245
0.3254902 0.8210784 0.52107847
0.4791667 0.8256128 0.5188113
0.63529414 0.82990193 0.5169118
0.7704044 0.82647055 0.52107847
0.8704657 0.8197304 0.5219363
0.94981617 0.81145835 0.51366425
1.0 0.79950976 0.51225495
0.07647059 0.90637255 0.5286765
0.20101103 0.9052696 0.5236826
0.3382966 0.90704656 0.51274514
0.4897059 0.91231614 0.50291055
0.639951 0.91495097 0.50428927
0.7628676 0.9188726 0.5078125
0.8595588 0.9155637 0.51727945
0.9433824 0.9092524 0.519179
1.0 0.89632356 0.5058824
0.08627451 0.972549 0.5392157
0.19509804 0.97450984 0.532353
0.33235294 0.97794116 0.5254902
0.4855392 0.9730392 0.5240196
0.63823533 0.97745097 0.51274514
0.76642156 0.9877451 0.51593137
0.8568628 0.98676467 0.51225495
0.93014705 0.9764706 0.5186275
0.9941177 0.9725491 0.52745104
0.14852941 0.07009804 0.68284315
0.2 0.04411765 0.7004289
0.27389708 0.015686275 0.70772064
0.4053309 0.012193628 0.7102329
0.55098045 0.017401962 0.7095589
0.70618874 0.019546568 0.69626224
0.81825984 0.021446079 0.6939951
0.91256124 0.022426471 0.6867647
0.9759804 0.027941177 0.6970588
0.1807598 0.16145834 0.6586397
0.21101409 0.14839156 0.6575291
0.27954966 0.12401961 0.67225796
0.4113358 0.113878675 0.68285847
0.560478 0.122212015 0.6791667
0.70680916 0.12460938 0.6752375
0.82405025 0.13046876 0.669807
0.9092448 0.13478862 0.6727022
0.97414213 0.13762255 0.67083335
0.21580881 0.27267158 0.62573534
0.24911153 0.26492035 0.63111216
0.30189952 0.2532782 0.6414522
0.4240043 0.24390319 0.6585938
0.5796569 0.2512255 0.6538603
0.7186428 0.2532935 0.64889705
0.8313419 0.26393998 0.6561581
0.91064644 0.27271754 0.6474571
0.97205883 0.27561277 0.6648284
0.28615198 0.38664216 0.6139706
0.31578586 0.38978246 0.6113205
0.36812192 0.39445466 0.6342678
0.44670647 0.3929611 0.65378374
0.59163606 0.4020527 0.6670343
0.7295726 0.40565258 0.6507966
0.834712 0.41587007 0.6530331
0.90666366 0.41911763 0.6614354
0.97359073 0.4201593 0.6642157
0.32181373 0.5232843 0.63039213
0.336489 0.53170955 0.61715686
0.397549 0.5450368 0.62781864
0.48538604 0.55530024 0.635478
0.6140932 0.5623775 0.641054
0.73299634 0.56945467 0.64656866
0.8293505 0.57512254 0.6556986
0.89353555 0.57873774 0.65882355
0.9512255 0.5772059 0.6634804
0.20465685 0.67493874 0.6647672
0.23121938 0.6896063 0.6481388
0.3240809 0.6962316 0.647258
0.46475953 0.6971277 0.6376149
0.62438726 0.71366423 0.63186276
0.7602482 0.71109074 0.6334176
0.8514706 0.720098 0.64620095
0.9158318 0.7255668 0.66409314
0.9617034 0.7297794 0.6810662
0.09301471 0.80857843 0.671201
0.19886641 0.81587017 0.66161156
0.3375613 0.8173407 0.66253066
0.47921264 0.82553613 0.66234684
0.63504905 0.8319853 0.6601103
0.7655024 0.8354167 0.6503064
0.8706496 0.83060664 0.6503064
0.9475797 0.8212776 0.6635417
0.99105394 0.8199755 0.6599265
0.07714461 0.90386033 0.6661152
0.19908087 0.9071615 0.6460555
0.3404412 0.911489 0.64695156
0.49103862 0.91040134 0.64748776
0.6371017 0.91216296 0.6546569
0.7619256 0.9190487 0.6459942
0.85908395 0.9204351 0.64754903
0.9381358 0.91285235 0.65065867
1.0 0.9004902 0.6539829
0.085784316 0.972549 0.67156863
0.20085785 0.972549 0.6644608
0.33284312 0.9772059 0.6626226
0.4877451 0.97383577 0.6695466
0.63799024 0.9821078 0.6551471
0.75465685 0.98137254 0.65814954
0.8540441 0.98811275 0.6602941
0.9278186 0.9856005 0.6544118
0.9960785 0.9759804 0.6514706
0.18431373 0.1 0.7823529
0.21617648 0.065073535 0.80490196
0.28455883 0.025490196 0.81936276
0.4170343 0.012622549 0.8181373
0.5617647 0.012745098 0.8176471
0.70453435 0.021200981 0.81875
0.81911767 0.021813726 0.8095588
0.91066176 0.026102941 0.81029415
0.97745097 0.03137255 0.8009804
0.20894608 0.1877451 0.77855396
0.23201594 0.16516544 0.768413
0.29577208 0.1294424 0.7867954
0.41878062 0.11853554 0.80245095
0.5665442 0.12126226 0.79583335
0.7080117 0.1243413 0.7951133
0.82208943 0.13296568 0.7918199
0.90937495 0.13469669 0.79447
0.98014706 0.13345589 0.7966912
0.2509804 0.29460785 0.75441176
0.27181372 0.28030026 0.74157476
0.32150733 0.26488972 0.7610907
0.43357843 0.2503064 0.7762868
0.582353 0.25 0.7726716
0.7159007 0.25649512 0.76715684
0.83406866 0.2676471 0.77322304
0.9177696 0.27230394 0.7774204
0.9818627 0.27181375 0.78578436
0.31360295 0.4137255 0.7254902
0.33851105 0.4065104 0.72051173
0.37971812 0.40585172 0.734375
0.45818016 0.40332413 0.7645221
0.59595597 0.40428925 0.78560054
0.7337623 0.40897673 0.77768075
0.8370711 0.4130821 0.77913606
0.91864276 0.4202359 0.778799
0.9783088 0.41482845 0.78039217
0.36764705 0.54852945 0.72107846
0.39405638 0.54773283 0.7095588
0.44227943 0.55588233 0.7175246
0.51685053 0.56354165 0.73670346
0.614951 0.56568635 0.7669118
0.74129903 0.5696691 0.7719363
0.8427696 0.5769608 0.76727945
0.9178309 0.5801471 0.78069854
0.9720588 0.577451 0.7799019
0.3629902 0.67487746 0.75330883
0.38523287 0.67896754 0.73316485
0.4361826 0.6919424 0.73318017
0.53609073 0.7040748 0.74218756
0.64448535 0.7158088 0.75183827
0.7516851 0.7173253 0.7571232
0.8495405 0.7242034 0.7583333
0.9105086 0.7241268 0.76835173
0.9567402 0.72107846 0.78492653
0.22132352 0.81102943 0.78700984
0.25646445 0.814277 0.7787071
0.35716912 0.8204044 0.7836397
0.49773288 0.826348 0.78036153
0.6410539 0.830147 0.77585787
0.7625 0.83195466 0.7645527
0.8668505 0.8344363 0.76691175
0.93789834 0.8289522 0.7824755
0.9796569 0.82990193 0.7968137
0.09031863 0.907598 0.78517157
0.20816484 0.9050858 0.77138484
0.34007356 0.9080882 0.7673101
0.48878676 0.9153186 0.7709712
0.64068633 0.9155024 0.7681373
0.7629136 0.91957724 0.7672335
0.8615196 0.9204351 0.7655637
0.9398897 0.91813725 0.7673867
0.99828434 0.9145833 0.7791667
0.083333336 0.9764706 0.78137255
0.2069853 0.97659314 0.78223044
0.33700982 0.9764706 0.78333336
0.4845588 0.9769608 0.7801471
0.63676476 0.9852941 0.77941173
0.75625 0.9855392 0.78088236
0.85392153 0.9875 0.7828432
0.9281863 0.9871323 0.775
1.0 0.97745097 0.777451
0.21274509 0.11666667 0.86764705
0.24460784 0.08302696 0.8849265
0.30355394 0.036397062 0.9055147
0.42218137 0.018014707 0.89975494
0.5634804 0.016911766 0.9019608
0.70275736 0.02089461 0.8995098
0.8142157 0.021691177 0.8992647
0.9085172 0.02745098 0.9012868
0.972549 0.029901963 0.8906863
0.23229167 0.20134804 0.86237746
0.25690106 0.17936581 0.86268383
0.3069853 0.14191177 0.8746783
0.4231924 0.12228861 0.8881128
0.5697917 0.12279412 0.8890625
0.70789677 0.12584253 0.8913986
0.8180454 0.12881434 0.88756126
0.9105009 0.13373928 0.8870941
0.9766544 0.13333334 0.8889706
0.273652 0.31029412 0.8377451
0.29443935 0.2969363 0.8352788
0.3364277 0.27230394 0.8492034
0.44031864 0.25341606 0.87107843
0.58504903 0.2505515 0.86746323
0.71954656 0.25972733 0.87337625
0.82984066 0.26574755 0.86513484
0.9177543 0.2725337 0.8714155
0.98014706 0.27561274 0.87585783
0.32824755 0.43216914 0.805576
0.35891545 0.4284467 0.81596965
0.39306065 0.41674325 0.8274816
0.46318933 0.40609682 0.85647976
0.59304535 0.402451 0.88042283
0.7304228 0.4071385 0.8720818
0.8346967 0.41395524 0.87469363
0.9175628 0.41898745 0.8762561
0.9835171 0.41335785 0.8754902
0.4012255 0.56593144 0.79901963
0.42257965 0.5705883 0.7943628
0.46158087 0.57273287 0.8038603
0.52628684 0.5703432 0.8305147
0.61531866 0.5676471 0.8618873
0.74022675 0.56985295 0.8723346
0.8441789 0.57665443 0.8697304
0.92224264 0.5796569 0.8727635
0.98651963 0.57843137 0.8754902
0.4449755 0.6831495 0.8212623
0.46215534 0.6859222 0.8085861
0.5075828 0.69568014 0.8107691
0.57935053 0.7102176 0.82023585
0.66406256 0.71443015 0.8354473
0.7499234 0.71467525 0.85893077
0.8515778 0.7218443 0.8625919
0.9255668 0.7268382 0.867356
0.9808211 0.72107846 0.87463236
0.41017157 0.7968137 0.85637254
0.43238357 0.7981158 0.85346204
0.48578432 0.80827206 0.8530024
0.56674325 0.8178462 0.8544118
0.6799633 0.8248162 0.85839456
0.7741881 0.82982534 0.8666054
0.860386 0.8309436 0.8687194
0.93512565 0.8291207 0.87210476
0.9751226 0.8234069 0.8808823
0.23731619 0.89754903 0.86697304
0.27313113 0.9032169 0.8593903
0.36962318 0.9068168 0.85769
0.49713546 0.9132353 0.85775125
0.64396447 0.91629905 0.86133575
0.76549476 0.9189568 0.86289066
0.86153495 0.9202053 0.8599418
0.93789065 0.9214844 0.86142004
0.9927696 0.92107844 0.87947303
0.11813726 0.98039216 0.87892157
0.21636029 0.9764093 0.87107843
0.34632355 0.9791666 0.87083334
0.4884804 0.97561276 0.87218136
0.6338236 0.9857843 0.87083334
0.7561275 0.98431367 0.8750613
0.84926474 0.98725486 0.8721814
0.92610294 0.98523283 0.8738971
0.99852943 0.98431367 0.8745098
0.22745098 0.13725491 0.9372549
0.26078433 0.09558824 0.94705886
0.32352942 0.05 0.9617647
0.42058825 0.019607844 0.9686275
0.57058823 0.01764706 0.97058827
0.69558823 0.016176471 0.9700981
0.80980396 0.023529412 0.9686275
0.9078431 0.023529412 0.9661765
0.9764706 0.03137255 0.9607843
0.2509804 0.21372549 0.92156863
0.27254903 0.19185048 0.9342525
0.32585785 0.14975491 0.94938725
0.42555147 0.12726717 0.9656863
0.5794118 0.12009804 0.96544117
0.71060055 0.12046569 0.96770835
0.8161765 0.1322304 0.9579657
0.9030637 0.13033089 0.95980394
0.9764706 0.13284314 0.9622549
0.29215688 0.3264706 0.9098039
0.31813726 0.31029415 0.91617644
0.35563725 0.2882353 0.93308824
0.44852942 0.25612745 0.95159316
0.58970594 0.24950981 0.95441175
0.7204657 0.25857845 0.9535539
0.82843137 0.2654412 0.9558823
0.91495097 0.26617646 0.95575976
0.9764706 0.27450982 0.9470588
0.3509804 0.44362745 0.8838235
0.36813724 0.4428309 0.8833333
0.40183824 0.4297794 0.90612745
0.46599263 0.4072917 0.9356005
0.5909314 0.39583334 0.9607843
0.7265318 0.4009804 0.96427697
0.8333334 0.4094363 0.9563725
0.9106617 0.4141544 0.95710784
0.98480386 0.4132353 0.9568627
0.41960782 0.58431375 0.8666667
0.44117647 0.5870098 0.86200976
0.4730392 0.58921576 0.87254906
0.5372549 0.5796569 0.90661764
0.61764705 0.5686275 0.94509804
0.73676467 0.5666667 0.9612745
0.8397059 0.5715686 0.95441175
0.92083335 0.5769608 0.95343137
0.9901961 0.5803922 0.9509804
0.4583333 0.69509804 0.8691177
0.49785542 0.7047181 0.8738358
0.5329657 0.7102942 0.8767157
0.59319854 0.71813726 0.88302696
0.67083335 0.7200981 0.920098
0.7465686 0.71458334 0.94822305
0.8469363 0.717402 0.95281863
0.92352945 0.71482843 0.94785535
0.99215686 0.722549 0.9558823
0.49215686 0.7882353 0.9
0.52401966 0.7884804 0.9093137
0.5615196 0.80220586 0.91151965
0.6346814 0.8093137 0.91090685
0.70637256 0.82156867 0.91617644
0.7903186 0.8245098 0.93026966
0.85539216 0.82867646 0.9529412
0.92549026 0.8279412 0.95098037
0.99215686 0.8245098 0.95882356
0.41666666 0.88529414 0.9254902
0.45575982 0.89252454 0.9282476
0.51433825 0.8958333 0.92732847
0.6036765 0.8988358 0.93039215
0.70318633 0.90563726 0.9308824
0.7928308 0.9117647 0.9294118
0.86825985 0.9185049 0.94693625
0.9280024 0.9220589 0.95600486
0.98970586 0.92352945 0.9568627
0.28235295 0.9686275 0.9490196
0.3259804 0.97156864 0.94411767
0.40882352 0.9764706 0.9421569
0.5254902 0.98039216 0.9465686
0.64117646 0.97843134 0.9509804
0.7588235 0.98431367 0.9563725
0.85 0.9882353 0.95
0.92647064 0.9906863 0.9514706
0.99215686 0.99215686 0.9529412
