assets/luts/LUTs/LEICA/LEICA SEL.cube
#Generated by PennL1 - 闲鱼号：LOOK胶片感 公众号：胶片感
TITLE LEICA SEL
LUT_3D_SIZE 5
0.023529412 0.023529412 0.023529412
0.12352942 0.12352942 0.1627451
0.26862746 0.26078433 0.31176472
0.41470587 0.40686274 0.45784315
0.5647059 0.5568628 0.6117647
0.19901961 0.19117647 0.24215686
0.24142157 0.23357843 0.28455883
0.33186275 0.3240196 0.375
0.46397057 0.45612743 0.51004905
0.59607846 0.5921569 0.64705884
0.4137255 0.40588236 0.45686275
0.4343137 0.42941177 0.47892156
0.4911765 0.4852941 0.5352942
0.58480394 0.5803922 0.6308824
0.6882353 0.6882353 0.7352941
0.63431376 0.6333333 0.6843138
0.644853 0.64093137 0.69779414
0.6838235 0.6838235 0.7308824
0.7468138 0.74485296 0.7928922
0.8235294 0.8352941 0.87058824
0.8509804 0.86274505 0.8980392
0.85784316 0.8656863 0.9127451
0.8764706 0.8901961 0.92549026
0.92156863 0.9343137 0.9696079
0.9764706 0.9764706 0.98431367
0.025490196 0.025490196 0.033333335
0.12696078 0.12696078 0.16617647
0.27009806 0.26225492 0.3132353
0.42083335 0.4129902 0.46568626
0.5686275 0.56078434 0.6156863
0.2004902 0.19460785 0.24460785
0.23958334 0.23174019 0.28272063
0.33296567 0.32512254 0.37610292
0.46348038 0.4567402 0.5072304
0.6002451 0.59926474 0.6482843
0.41470587 0.40686274 0.45784312
0.43357843 0.4279412 0.47818625
0.49142158 0.48553923 0.53700984
0.5833334 0.57953435 0.6294118
0.6867647 0.68529415 0.7352941
0.63480395 0.6338236 0.68480396
0.64748776 0.6438113 0.6996937
0.6817402 0.6817402 0.72879905
0.7456495 0.74368876 0.79172796
0.82279414 0.83357847 0.8718137
0.8509804 0.86274505 0.8980392
0.85343134 0.8634804 0.9039216
0.8740197 0.8877451 0.9230392
0.92156863 0.9343137 0.9696079
0.9764706 0.9764706 0.9764706
0.021568628 0.021568628 0.021568628
0.125 0.125 0.16421568
0.27058825 0.2627451 0.3137255
0.41960782 0.4117647 0.4627451
0.57058823 0.5627451 0.61764705
0.1995098 0.19166666 0.24264705
0.24129903 0.23345587 0.2855392
0.33112746 0.32328433 0.375
0.46433824 0.4564951 0.51053923
0.59411764 0.59411764 0.64117646
0.41470587 0.40686274 0.45980394
0.43553925 0.42916667 0.47941178
0.49215686 0.48480392 0.5382353
0.58406866 0.579902 0.6303922
0.6862745 0.68529415 0.7343137
0.6338236 0.63284314 0.6838235
0.64681375 0.64338243 0.6982844
0.68308824 0.68308824 0.7301471
0.74497557 0.7430147 0.791054
0.8210784 0.8318628 0.870098
0.8509804 0.86274505 0.8980392
0.85490197 0.86274505 0.9098039
0.87745106 0.8892157 0.9303922
0.92156863 0.9343137 0.9696079
0.9764706 0.9764706 0.9764706
0.02254902 0.02254902 0.024509804
0.12794119 0.12794119 0.16715688
0.27009806 0.26225492 0.3132353
0.42181373 0.4139706 0.46568626
0.5686275 0.56078434 0.6156863
0.19975491 0.19191177 0.24289216
0.24093138 0.23308823 0.28406864
0.33284312 0.325 0.37598038
0.46348038 0.45563725 0.5071691
0.5950981 0.59950984 0.6487745
0.4151961 0.40735295 0.4583333
0.4359069 0.42806372 0.47953433
0.49191177 0.48357844 0.5382353
0.5819853 0.58137256 0.6296569
0.68578434 0.68284315 0.73578435
0.63553923 0.63480395 0.68480396
0.6450981 0.64117646 0.6971814
0.6819853 0.6819853 0.7290442
0.7457108 0.74375004 0.79178923
0.8213235 0.83235294 0.8698529
0.85882354 0.87058824 0.90588236
0.85490197 0.8656863 0.9039216
0.87352943 0.88725483 0.922549
0.9210784 0.9328432 0.96813726
0.9764706 0.9764706 0.9764706
0.019607844 0.019607844 0.019607844
0.12941177 0.12941177 0.16862746
0.27058825 0.2627451 0.3137255
0.422549 0.41470587 0.46862745
0.57254905 0.5647059 0.61960787
0.20294118 0.19509804 0.24607845
0.23872548 0.23088236 0.28186277
0.33186275 0.3240196 0.3764706
0.46593136 0.45808822 0.50980395
0.5892157 0.5950981 0.6421569
0.41568628 0.40784314 0.46078432
0.43676472 0.42892155 0.48137254
0.4921569 0.4862745 0.5382353
0.58382356 0.579902 0.63186276
0.6901961 0.6901961 0.73725486
0.63235295 0.6313726 0.68235296
0.64705884 0.6441177 0.69705886
0.6818628 0.6818628 0.72892165
0.7490196 0.74705887 0.79509807
0.81960785 0.8303922 0.8686274
0.8509804 0.86274505 0.8980392
0.85490197 0.86274505 0.9098039
0.87843144 0.89215684 0.927451
0.922549 0.9343137 0.9676471
0.9764706 0.9764706 0.9764706
