assets/luts/LUTs/LEICA/LEICA BLU.cube
#Generated by PennL1 - 闲鱼号：LOOK胶片感 公众号：胶片感
TITLE LEICA BLU
LUT_3D_SIZE 5
0.023529412 0.015686275 0.02745098
0.13725491 0.15686275 0.18039216
0.29411766 0.32156864 0.35294116
0.45588237 0.4911765 0.5264706
0.62352943 0.654902 0.69803923
0.11862745 0.13725491 0.1637255
0.2002451 0.22769609 0.25906864
0.352451 0.38284314 0.41274512
0.5156863 0.55098045 0.5862745
0.67156863 0.71372557 0.7519608
0.25686276 0.28431374 0.3156863
0.3421569 0.36960787 0.40098038
0.43921572 0.47450978 0.50980395
0.59362745 0.6259804 0.6686275
0.7490196 0.7882353 0.83137256
0.40392157 0.43333334 0.46960783
0.48578432 0.52181375 0.55710787
0.5794118 0.6132353 0.652451
0.6813726 0.72058827 0.75980395
0.8215686 0.8686275 0.91568625
0.5529412 0.5882353 0.62352943
0.63725495 0.6686275 0.71176475
0.72352946 0.76274514 0.80588233
0.81470585 0.8598039 0.90686274
0.9137255 0.9529412 1.0
0.04019608 0.051960785 0.07156863
0.15490197 0.17450981 0.19803922
0.30539218 0.33284315 0.3642157
0.47083336 0.5061275 0.5414216
0.6303922 0.6696079 0.70882356
0.15269609 0.17230393 0.19583334
0.21164215 0.23909314 0.27156866
0.36519608 0.39338237 0.42438725
0.52493876 0.5602329 0.595527
0.6894608 0.7227942 0.764951
0.28725493 0.3147059 0.34607846
0.35355395 0.3839461 0.41409314
0.45147055 0.4867647 0.52009803
0.6039216 0.63750005 0.6795343
0.7588235 0.7980392 0.84411764
0.4343137 0.46960783 0.504902
0.49975497 0.535049 0.5703432
0.58982843 0.6267157 0.66470593
0.69099265 0.73020834 0.769424
0.8357843 0.8806373 0.9318628
0.5833334 0.6147059 0.6578432
0.64142156 0.6791667 0.7191177
0.7348039 0.7740196 0.82009804
0.82328427 0.87034315 0.9174019
0.9284314 0.9627451 1.0
0.08039216 0.09607843 0.11764707
0.19509804 0.21519607 0.24901962
0.32254905 0.35000002 0.38137257
0.47843134 0.5137255 0.54901963
0.6431373 0.68235296 0.72156864
0.18872549 0.21470588 0.24656862
0.25539216 0.28504902 0.31531864
0.37720588 0.40661764 0.4389706
0.53700984 0.5723039 0.60759807
0.6990196 0.7352941 0.7759804
0.32352942 0.3509804 0.38235295
0.39019608 0.41813725 0.45122552
0.46470588 0.49901962 0.5338236
0.61838233 0.65294117 0.6933824
0.7745098 0.81372553 0.85882354
0.46862745 0.5039216 0.5392157
0.53333336 0.5686275 0.6039216
0.6039216 0.6392157 0.67965686
0.70477945 0.74399513 0.7834559
0.84460783 0.89166665 0.94460785
0.61372554 0.6529412 0.6921569
0.677451 0.7166667 0.7588236
0.74509805 0.79019606 0.8313725
0.8382353 0.8808824 0.9343137
0.9372549 0.972549 1.0
0.12352942 0.14313726 0.16666667
0.23872548 0.2661765 0.29754904
0.36715686 0.39852944 0.42794117
0.49754906 0.5328432 0.5681373
0.654902 0.69411767 0.73333335
0.23333335 0.26078433 0.29215688
0.30269608 0.33014706 0.3615196
0.41862747 0.45294118 0.48578432
0.5495099 0.58455884 0.6203432
0.71274513 0.7504902 0.79044116
0.37009805 0.39852944 0.42941177
0.43247548 0.46776962 0.49938726
0.5107843 0.54607844 0.58137256
0.6290441 0.6672794 0.7072304
0.784804 0.8240196 0.8710785
0.5007353 0.53602946 0.5713235
0.5709559 0.603554 0.6447304
0.6389706 0.6752451 0.71666664
0.716728 0.75759804 0.79626226
0.85906863 0.9110294 0.964951
0.6519608 0.6911765 0.7303921
0.71225494 0.7509804 0.79044116
0.78137255 0.82058823 0.86764705
0.8477941 0.8948529 0.95171565
0.9568627 0.9735294 1.0
0.16078432 0.18039216 0.20392157
0.28431374 0.31176472 0.34313726
0.40980393 0.44117647 0.4705882
0.5401961 0.57450986 0.6117647
0.6666667 0.7058824 0.74509805
0.28235295 0.30980393 0.34117648
0.35073534 0.37818626 0.40955883
0.46617648 0.5014706 0.53676474
0.597304 0.6289216 0.67156863
0.72352946 0.76274514 0.80196077
0.4137255 0.445098 0.4745098
0.47500002 0.51176476 0.54607844
0.5529412 0.58921576 0.6245098
0.67352945 0.70882356 0.75
0.7980392 0.8372549 0.8843137
0.54803926 0.582353 0.61960787
0.6127451 0.64681375 0.6875
0.68235296 0.72058827 0.76029414
0.7656863 0.80490196 0.8519608
0.8686274 0.9205882 0.97156864
0.6862745 0.7176471 0.7607843
0.74803925 0.7872549 0.8264706
0.8117647 0.85882354 0.90588236
0.87941176 0.927451 0.9901961
0.9686275 0.972549 0.99215686
