assets/luts/LUTs/LEICA/LEICA CLS.cube
#Generated by PennL1 - 闲鱼号：LOOK胶片感 公众号：胶片感
TITLE LEICA CLS
LUT_3D_SIZE 9
0.007843138 0.0 0.011764706
0.07156863 0.0 0.011764706
0.1764706 0.004901961 0.014705883
0.3509804 0.0073529417 0.019117648
0.5176471 0.007843138 0.015686275
0.6637255 0.003921569 0.015686275
0.7705883 0.0009803922 0.015686275
0.8553921 0.003921569 0.016666668
0.9254902 0.007843138 0.019607844
0.013235294 0.06911765 0.02401961
0.08002451 0.0721201 0.023590688
0.18137255 0.071078435 0.012132353
0.35680148 0.053615198 0.010110294
0.52205884 0.047303922 0.017892158
0.6697917 0.0435049 0.013848039
0.77610296 0.041911766 0.020343138
0.86041665 0.038235296 0.018688727
0.9318628 0.036764707 0.011764706
0.05 0.24117649 0.04901961
0.10759804 0.24558824 0.04509804
0.21887255 0.23970589 0.03897059
0.3730392 0.22843137 0.028431375
0.5416667 0.20882353 0.017647058
0.68125004 0.17843138 0.011642157
0.7840687 0.14656863 0.012990196
0.8627451 0.11617648 0.01004902
0.922549 0.09411765 0.0068627456
0.1004902 0.43284315 0.097058825
0.16213235 0.43541664 0.10379902
0.26188725 0.43700978 0.0939951
0.40802693 0.42941177 0.08082108
0.5566176 0.4125 0.059803925
0.6819853 0.39699757 0.023590688
0.77107847 0.37928924 0.0052696085
0.8580269 0.3471201 0.0038602944
0.9196078 0.31078434 0.0014705883
0.18235295 0.6156863 0.18431373
0.2389706 0.61960787 0.18333334
0.33284312 0.6186275 0.17450981
0.45931375 0.61372554 0.16715688
0.5862745 0.6107843 0.15
0.6973039 0.60269606 0.115686275
0.7872549 0.59313726 0.07941177
0.86348045 0.5779412 0.028186277
0.92941177 0.5588236 0.01372549
0.27205884 0.7612745 0.26813728
0.3254902 0.75851715 0.2647059
0.41446078 0.7547794 0.25784317
0.51568633 0.75686276 0.2488358
0.62598044 0.7517157 0.23725492
0.71250004 0.74914217 0.21942402
0.7969363 0.739951 0.18345588
0.8726103 0.7393383 0.14699756
0.9372549 0.73039216 0.09509804
0.3539216 0.8519608 0.34411764
0.40968138 0.84901965 0.3432598
0.4762255 0.8448529 0.33995098
0.56433827 0.85085785 0.33382353
0.64607847 0.8534314 0.31960785
0.7334559 0.84632355 0.2981618
0.8156862 0.8448529 0.28651962
0.88051474 0.839951 0.2584559
0.94509804 0.8372549 0.2254902
0.42696077 0.9289216 0.39558825
0.47340685 0.9304534 0.39840686
0.5334559 0.9279412 0.3985294
0.6050245 0.92855394 0.39325982
0.6781863 0.9318628 0.3911765
0.7558823 0.9289216 0.38137254
0.82659316 0.9259804 0.3677696
0.8897059 0.9259804 0.34797797
0.9529412 0.92745095 0.32990196
0.46666667 0.9882353 0.43529412
0.5151961 0.98970586 0.44166666
0.57058823 0.99215686 0.44215685
0.6338236 0.9887255 0.4401961
0.7019608 0.99215686 0.43529412
0.7745098 0.99215686 0.425
0.83725494 0.9892157 0.42647058
0.89901966 0.9882353 0.41323528
0.9568627 0.99215686 0.4
0.017156864 0.003921569 0.09509804
0.081801474 0.0053921575 0.09093137
0.1920343 0.0075980397 0.08541667
0.35441178 0.007536765 0.07512255
0.5257353 0.004656863 0.069362745
0.6699755 0.00569853 0.061948534
0.7708333 0.0025735297 0.058455884
0.8571691 0.004534314 0.055392157
0.9294118 0.0024509805 0.06029412
0.025 0.07677697 0.09901961
0.08354014 0.07531404 0.10085785
0.20032169 0.06720282 0.093244486
0.35543045 0.06017157 0.07806373
0.5297795 0.045802698 0.061642163
0.6696308 0.04182751 0.06266085
0.7750306 0.042463236 0.057199758
0.86243105 0.041750923 0.06247703
0.9300858 0.042708334 0.059252452
0.049754903 0.24080884 0.1264706
0.113939956 0.24287686 0.115946695
0.22506127 0.23939951 0.112683825
0.38178617 0.22438724 0.100612745
0.5409927 0.2086397 0.07058824
0.675674 0.17916667 0.054212622
0.7807598 0.15640318 0.056127455
0.8603707 0.120465696 0.0477788
0.92781866 0.09558824 0.052328434
0.10772059 0.43590686 0.17199756
0.16604626 0.43788296 0.17287071
0.2676011 0.43547794 0.17083333
0.40733764 0.43462774 0.15627298
0.55606616 0.41960785 0.13621324
0.6835325 0.39770222 0.09718903
0.7759651 0.3800092 0.065441184
0.85616577 0.3523591 0.050536156
0.92518383 0.3140319 0.047120098
0.18946078 0.61960787 0.24656865
0.24013482 0.61976105 0.24528188
0.33719367 0.62034315 0.24564953
0.46400124 0.6170037 0.22769608
0.58774513 0.6113971 0.2112745
0.7009804 0.60119486 0.18229167
0.789277 0.59356624 0.14791667
0.86415446 0.58281255 0.10634191
0.9340687 0.56053925 0.053921573
0.275 0.7560662 0.32132354
0.33234528 0.75961244 0.32113206
0.41655946 0.75491726 0.31835175
0.5185203 0.7514859 0.30799633
0.62147677 0.75045955 0.29280025
0.7159773 0.7470588 0.27397367
0.8027727 0.7455729 0.2487592
0.8728324 0.739277 0.21408549
0.9356005 0.7334559 0.164951
0.35110295 0.85159314 0.38713235
0.40257353 0.85176164 0.39367342
0.47570464 0.8508885 0.39831495
0.5618567 0.8509651 0.38952205
0.6485907 0.85024506 0.37555146
0.73964465 0.84420955 0.3535386
0.8165441 0.8450061 0.34525123
0.8803156 0.84122247 0.3176624
0.94301474 0.8371324 0.28308827
0.42604163 0.9304534 0.44368872
0.4724035 0.9282322 0.4464078
0.53601414 0.92855394 0.44667587
0.6039446 0.92696846 0.44075522
0.67791057 0.9289522 0.43590686
0.75538456 0.9279259 0.4250383
0.8247549 0.9262408 0.41882658
0.8914829 0.92712927 0.40323225
0.95183825 0.9298407 0.37622547
0.47303924 0.98970586 0.48921567
0.5185662 0.99123776 0.48811275
0.5692402 0.99105394 0.4857843
0.63186276 0.99197304 0.4862745
0.7019608 0.9909314 0.4776961
0.7705883 0.9906863 0.47659317
0.8409314 0.9917892 0.46678922
0.89791673 0.9882353 0.45686275
0.9514706 0.98725486 0.44852942
0.042156864 0.011764706 0.23627451
0.10747549 0.014705883 0.25306374
0.21960784 0.010294118 0.24068627
0.37708333 0.0069852946 0.22414216
0.53627455 0.009803922 0.20637256
0.6702206 0.008578432 0.17267157
0.7703432 0.0071078436 0.1389706
0.8595588 0.004289216 0.10870098
0.927451 0.0019607842 0.1
0.05012255 0.086151965 0.25147063
0.10873161 0.084375 0.24843752
0.22117034 0.08333334 0.2483456
0.37743565 0.06821385 0.23688725
0.5394608 0.053063728 0.21397059
0.6745098 0.044454657 0.18751532
0.7769915 0.04356618 0.14258578
0.86148894 0.042156868 0.11916362
0.93602943 0.038235296 0.10980392
0.075980395 0.2497549 0.264951
0.13474265 0.24411765 0.25287992
0.24344364 0.24313727 0.25557598
0.3904105 0.23336397 0.25107232
0.5508579 0.21458334 0.22193626
0.67748165 0.18581495 0.1922794
0.77977943 0.1564951 0.15392157
0.86522675 0.12552084 0.11859682
0.93063724 0.09436275 0.10392157
0.12634805 0.4444853 0.29791668
0.1865962 0.4432598 0.3124234
0.28241423 0.4435049 0.30143994
0.42061886 0.43901652 0.29702818
0.5669731 0.4235294 0.28094363
0.6857537 0.40206802 0.24517465
0.7832721 0.38235295 0.21424633
0.8568321 0.3625 0.17218137
0.92892164 0.3199755 0.120220594
0.2 0.6191176 0.35931376
0.25422797 0.6201593 0.3536152
0.35036767 0.6189951 0.3585784
0.4740809 0.6194853 0.35024512
0.59558827 0.6129902 0.329902
0.6970588 0.60428923 0.30625
0.7932598 0.59828436 0.28308827
0.8644608 0.5858456 0.25765932
0.93480396 0.5676471 0.20147058
0.28786767 0.75710785 0.41654414
0.34008884 0.7574142 0.41369486
0.42512253 0.7570466 0.41354167
0.5195466 0.7543045 0.40928307
0.6296569 0.751777 0.38841915
0.7225337 0.74852943 0.38324144
0.8008578 0.74209565 0.3543505
0.8729473 0.7418505 0.34440872
0.9393383 0.73897064 0.3012255
0.36862746 0.8507353 0.46348038
0.42156863 0.8508272 0.4751838
0.48915443 0.84969366 0.47371322
0.56565565 0.85168505 0.46776962
0.65539217 0.8520833 0.46250004
0.74041057 0.8471814 0.44424018
0.81917894 0.8457721 0.4365809
0.88731617 0.8447611 0.41920954
0.95073533 0.83946085 0.39387256
0.43088236 0.9291667 0.51482844
0.47768074 0.9288603 0.5146446
0.5374694 0.9291054 0.51240814
0.6108456 0.93235296 0.50798106
0.6813726 0.9298407 0.5043505
0.7563572 0.92576593 0.4953891
0.8253676 0.9283701 0.48860294
0.8910539 0.92545956 0.47970283
0.94889706 0.9286765 0.46053922
0.4745098 0.9911765 0.55
0.5208334 0.98995095 0.55232847
0.5720588 0.9892157 0.54656863
0.6349265 0.99497557 0.5446079
0.7068628 0.9901961 0.5392157
0.7740196 0.9890931 0.53627455
0.8392157 0.9911765 0.53455883
0.90404415 0.98860294 0.52585787
0.9529412 0.9882353 0.52156866
0.09166667 0.031862747 0.43333334
0.15306373 0.034865197 0.44191176
0.25404412 0.02622549 0.43149513
0.39313725 0.019485295 0.43566176
0.55735296 0.0063725496 0.40686274
0.683701 0.007843138 0.37732846
0.77463233 0.005269608 0.3710784
0.86917895 0.0042279414 0.3339461
0.9367647 0.003921569 0.31666666
0.08602941 0.10526961 0.42757353
0.15013021 0.1030867 0.43645832
0.25863972 0.09848346 0.43584558
0.40831035 0.0870098 0.4296875
0.55787385 0.06519608 0.40474877
0.68551624 0.047303922 0.39171264
0.7886183 0.044623163 0.37141547
0.8688496 0.043673407 0.3418275
0.9318015 0.042034313 0.29656863
0.116666675 0.2620098 0.42953432
0.1723652 0.25978863 0.43180147
0.27392772 0.25018385 0.42438725
0.42003676 0.24212623 0.42830884
0.56709564 0.22990197 0.4139706
0.68820465 0.20405944 0.3921875
0.78311896 0.16963848 0.36642158
0.8621936 0.1333027 0.345144
0.9290442 0.097058825 0.27990198
0.16421568 0.44607842 0.46121323
0.22415747 0.45651042 0.46906403
0.3140472 0.45168504 0.46078432
0.44950214 0.44167435 0.4605622
0.5761949 0.43428308 0.45223653
0.6995405 0.41600797 0.42961857
0.7846661 0.3893995 0.4108303
0.8580269 0.3707261 0.38199297
0.91973037 0.3375 0.34479168
0.23602942 0.6237745 0.49607843
0.28743875 0.6255208 0.49684435
0.37567404 0.6254902 0.49466914
0.4939645 0.62071085 0.4886642
0.6063726 0.6167892 0.47818628
0.70882356 0.6104779 0.46994486
0.7925246 0.59699756 0.4432598
0.8688113 0.5900123 0.42276347
0.93578434 0.57426476 0.39264706
0.3156863 0.76121324 0.53474265
0.36014095 0.758724 0.52300096
0.44425553 0.7596048 0.5270527
0.5374081 0.7572917 0.5278416
0.6367341 0.7551164 0.51645225
0.71686584 0.7487669 0.5016315
0.80553 0.7483456 0.48959866
0.8698683 0.739254 0.48105854
0.9346201 0.7343137 0.468076
0.38909313 0.85061276 0.5633579
0.43342525 0.85093445 0.56767774
0.49650738 0.855576 0.56608456
0.57798713 0.8523284 0.5673867
0.6603554 0.85183823 0.55986524
0.7411765 0.85035235 0.5502451
0.81537986 0.8471814 0.54662997
0.8864736 0.8449449 0.52305454
0.9552696 0.8393383 0.51875
0.44313726 0.9313725 0.58750004
0.48655024 0.92771906 0.58650434
0.54877454 0.92786455 0.5873775
0.61707264 0.92915136 0.5891851
0.6872549 0.92745095 0.58817405
0.75971204 0.9290058 0.5800475
0.82901347 0.9265472 0.5731924
0.89371175 0.924349 0.56379443
0.9529412 0.92512256 0.5527574
0.47892153 0.99264705 0.61764705
0.5235294 0.9906863 0.61482847
0.578799 0.9920343 0.626348
0.6421569 0.98878676 0.6202206
0.7080883 0.9904412 0.6068628
0.7742034 0.9891544 0.61323535
0.84338236 0.9917892 0.60281867
0.90471816 0.990625 0.60183823
0.9602941 0.9911765 0.5906863
0.14509805 0.054901965 0.5921569
0.20710784 0.05784314 0.59436274
0.30441177 0.05784314 0.59901965
0.43823528 0.03872549 0.58431375
0.57941175 0.018627452 0.58431375
0.697549 0.0053921575 0.57500005
0.78578436 0.0068627456 0.5529412
0.86789215 0.0046568634 0.544853
0.9392157 0.0058823535 0.5176471
0.15514706 0.12916666 0.597304
0.2111826 0.12843138 0.59699756
0.30569854 0.12561275 0.5936887
0.44056374 0.11115196 0.59322923
0.5779412 0.08737746 0.58198535
0.6919731 0.06176471 0.5741422
0.7893995 0.047855396 0.56390935
0.871538 0.041360296 0.5480699
0.9379902 0.04019608 0.5301471
0.17058824 0.27794117 0.5862745
0.2276348 0.27683824 0.58719367
0.3241422 0.2752451 0.58480394
0.45006126 0.2634804 0.5762868
0.5855392 0.24705884 0.5737746
0.69761026 0.22334558 0.56464463
0.79093134 0.19681372 0.56004906
0.86905634 0.15551472 0.5420344
0.9289216 0.11568628 0.525
0.2129902 0.4610294 0.6012255
0.27239585 0.46439952 0.6046876
0.36243874 0.46544117 0.6036152
0.48137257 0.45505518 0.5990809
0.59901965 0.44534314 0.5979167
0.7028799 0.4322304 0.5861826
0.79607844 0.40876225 0.5795343
0.8653799 0.38394606 0.5596508
0.93504906 0.3507353 0.53676474
0.2784314 0.6303922 0.61372554
0.33075982 0.6332108 0.6107843
0.4144608 0.6311275 0.61960787
0.5203432 0.6290442 0.61531866
0.62205887 0.6245098 0.60833335
0.71213233 0.6151961 0.59828436
0.79926467 0.6093137 0.59289217
0.8729167 0.594853 0.5833334
0.94117653 0.582353 0.5666667
0.34730393 0.7651961 0.63186276
0.3969669 0.7626532 0.6345895
0.46605393 0.7609068 0.62886035
0.55517775 0.7609681 0.6302084
0.6501226 0.7583333 0.6258579
0.73155636 0.7556373 0.6173407
0.81029415 0.7481005 0.6156863
0.8755208 0.7445772 0.6028799
0.9436275 0.73799026 0.59289217
0.40980393 0.8514706 0.6622549
0.45686275 0.8566789 0.6591299
0.5115197 0.85674024 0.6582108
0.59178925 0.8570466 0.6539829
0.6683824 0.8541667 0.652451
0.75177693 0.85275733 0.6503064
0.8251226 0.84828436 0.6432598
0.888603 0.84840685 0.6342525
0.95441175 0.8416667 0.629902
0.4514706 0.9313725 0.67107844
0.4984069 0.9311887 0.67233455
0.56121325 0.9282476 0.67328435
0.62138486 0.9303615 0.66583943
0.6931373 0.92941177 0.6637255
0.7651042 0.9290135 0.662163
0.83357847 0.9288603 0.658027
0.8970282 0.9267157 0.65196085
0.9558823 0.925 0.64681375
0.4882353 0.9862745 0.69215685
0.5343138 0.9882353 0.68921566
0.5897059 0.9931373 0.6926471
0.64754903 0.989951 0.6931373
0.71470594 0.98921573 0.68529415
0.7833333 0.9914216 0.6872549
0.845098 0.99215686 0.6789216
0.9004902 0.9906863 0.6808824
0.9588235 0.9901961 0.67647064
0.21519607 0.09019608 0.71176475
0.28149512 0.09264706 0.7215073
0.36544117 0.089338236 0.71250004
0.4835784 0.07457108 0.71109074
0.6041667 0.05539216 0.71617645
0.7121324 0.023100492 0.69901955
0.8020833 0.00036764704 0.69803923
0.8740196 0.004779412 0.6879289
0.9367647 0.004411765 0.6779412
0.21789216 0.159375 0.70661765
0.2751379 0.16065411 0.70781255
0.36674327 0.15603554 0.7121936
0.48914677 0.1393459 0.70981926
0.6016544 0.12178309 0.6992954
0.7064492 0.09262408 0.7001302
0.79806983 0.06415442 0.69502145
0.8722503 0.04417892 0.6885187
0.94050246 0.042156864 0.6724265
0.22818628 0.29803923 0.6938726
0.2931526 0.29851413 0.7026348
0.37993258 0.2990809 0.6975184
0.5000919 0.29041055 0.70182294
0.60784316 0.27316177 0.69234073
0.70955884 0.24621631 0.68730086
0.79708946 0.22303922 0.6885111
0.8749081 0.19037992 0.6794577
0.9428922 0.15012255 0.6790441
0.27536768 0.47683826 0.7006127
0.33318016 0.47821692 0.71377146
0.41484374 0.47849268 0.7167586
0.5179075 0.47177544 0.7077436
0.62068015 0.46302083 0.7097733
0.71535695 0.4449372 0.69677544
0.799663 0.4288909 0.69928
0.8757047 0.40624237 0.69334406
0.93143386 0.3747549 0.67610294
0.32818627 0.63529414 0.71470594
0.38072917 0.63759196 0.7169424
0.45649508 0.64074755 0.71703434
0.54696697 0.6367341 0.7169424
0.6410539 0.6322304 0.7126226
0.72570467 0.6228554 0.7077819
0.80710787 0.6159314 0.70637256
0.8749387 0.60575986 0.7086091
0.939951 0.58897066 0.6892157
0.38443628 0.76556367 0.7294731
0.42984068 0.768367 0.7302543
0.49828434 0.7683058 0.71789217
0.5751073 0.7635263 0.7234682
0.6583027 0.7627451 0.7227941
0.74247855 0.75590533 0.7190181
0.81599265 0.75937504 0.71557903
0.878799 0.7515242 0.7099265
0.94252455 0.7488971 0.7102329
0.4321078 0.8544118 0.7404412
0.4785999 0.85447305 0.74627763
0.54071695 0.8566177 0.7556679
0.60591304 0.85513175 0.746492
0.6811887 0.85355395 0.7428922
0.75300246 0.8544271 0.7352022
0.8273591 0.84705883 0.73449755
0.89378065 0.84903497 0.7316636
0.9573529 0.84828436 0.7251226
0.47248778 0.92922795 0.7532476
0.51371783 0.9288756 0.7508655
0.5707415 0.92971814 0.75441176
0.63145685 0.92845434 0.74905795
0.7016238 0.93063724 0.749234
0.774303 0.92787987 0.74702054
0.8350184 0.9288603 0.74402577
0.89931065 0.92842376 0.73980546
0.9602941 0.92990196 0.73694855
0.5019608 0.99264705 0.7705883
0.5464461 0.9916054 0.7703432
0.59877455 0.98946077 0.76323533
0.6577206 0.9895833 0.763603
0.7225491 0.9904412 0.76053923
0.78909314 0.99172795 0.7651961
0.84632355 0.99264705 0.75808823
0.905576 0.99197304 0.7563726
0.95343137 0.98529404 0.74852943
0.29705882 0.124509804 0.7970588
0.34987748 0.12965688 0.8052696
0.43063724 0.12009805 0.810049
0.5387255 0.10919118 0.8068628
0.6397059 0.09313726 0.8093138
0.72794116 0.06348039 0.798897
0.81102943 0.027941177 0.80269605
0.8883579 0.0028186275 0.79424024
0.9382353 0.003921569 0.78431374
0.29693627 0.1980392 0.80220586
0.34371936 0.1957261 0.80228245
0.4319853 0.19460785 0.8090074
0.53036153 0.1853554 0.8052849
0.6318015 0.15894608 0.80128676
0.7251378 0.13235295 0.8001072
0.8024203 0.10055147 0.79626226
0.87948835 0.06286765 0.7913603
0.94693625 0.04509804 0.794853
0.30906865 0.3264706 0.7946079
0.3563419 0.3249081 0.7882966
0.438174 0.32806373 0.7955882
0.53299636 0.31780025 0.7943015
0.6334559 0.30379903 0.7884804
0.7227022 0.28367037 0.78811276
0.80582106 0.25851718 0.78768384
0.8785233 0.2265625 0.78835785
0.9421569 0.1889706 0.78063726
0.3411765 0.4971814 0.80355394
0.3914369 0.49479166 0.80559134
0.46351105 0.49617034 0.8080576
0.54715073 0.49462315 0.8029259
0.64166665 0.48449758 0.80447304
0.7296109 0.46553308 0.798606
0.8060968 0.44748774 0.7933517
0.8774663 0.42916667 0.79572606
0.9435049 0.39693627 0.78296566
0.37843138 0.64705884 0.80490196
0.42322305 0.6469363 0.80471814
0.4949755 0.64632356 0.8117647
0.5748162 0.6457108 0.8079044
0.65906864 0.6416667 0.80710787
0.7468138 0.6333946 0.8023897
0.8134804 0.6262255 0.80085784
0.8822304 0.6164216 0.79650736
0.94411767 0.604902 0.79215693
0.4167892 0.7677696 0.80539215
0.4645527 0.76729476 0.808318
0.5245711 0.7699142 0.8107231
0.60226715 0.769133 0.8158854
0.676103 0.7663603 0.8079657
0.7511489 0.76354164 0.804856
0.8258272 0.7599877 0.80235904
0.8940871 0.7585478 0.80237436
0.94411767 0.7519608 0.80024505
0.4590686 0.85882354 0.8252451
0.5022672 0.85603553 0.82941175
0.56072307 0.8567402 0.82549024
0.6259804 0.85790443 0.8256434
0.69509804 0.85784316 0.82990193
0.7670343 0.8546875 0.82208943
0.8335172 0.8535539 0.8220588
0.8966299 0.8522365 0.82356
0.95465684 0.84950984 0.8125
0.4882353 0.93296576 0.8292892
0.5314492 0.9314338 0.8276501
0.5868873 0.9344057 0.8307598
0.6470282 0.93135726 0.82345283
0.7110294 0.9310049 0.82542896
0.7799786 0.92771137 0.8231005
0.8436887 0.92846197 0.8214767
0.9030944 0.93057597 0.8185509
0.96004903 0.93198526 0.81715685
0.5156863 0.99215686 0.8362745
0.5593137 0.9906863 0.83235294
0.6102941 0.9914216 0.83431375
0.67218137 0.9916667 0.83700985
0.7269608 0.9906863 0.82941175
0.7936274 0.9947305 0.837255
0.8504902 0.99264705 0.8328431
0.91090685 0.9903186 0.826348
0.9647059 0.9911765 0.8303922
0.36813727 0.17107844 0.88284314
0.42144608 0.17414217 0.8893995
0.4925245 0.16740197 0.88468134
0.57751226 0.15716912 0.8790441
0.66078436 0.13995099 0.8843137
0.744424 0.11017157 0.8894608
0.82034314 0.07745098 0.8813725
0.89393383 0.038357846 0.8831495
0.95441175 0.0024509807 0.8720588
0.3721814 0.23431373 0.8790441
0.4167739 0.23429075 0.887523
0.48622856 0.23549326 0.88895524
0.57422644 0.22051929 0.884015
0.655576 0.20560661 0.8784621
0.74300706 0.18375461 0.8790901
0.8174786 0.1458027 0.8726103
0.8855928 0.109053314 0.87739736
0.9505515 0.06513481 0.875674
0.3719363 0.36409312 0.8734069
0.4183517 0.36302084 0.8681985
0.4913603 0.35713848 0.8708027
0.573606 0.35441178 0.8773897
0.6555147 0.33639705 0.86746323
0.73939955 0.32087928 0.87107843
0.8177696 0.29659927 0.8687194
0.88284314 0.2657782 0.86942405
0.946201 0.22781862 0.8647059
0.39626226 0.5212623 0.8813113
0.4428462 0.5192479 0.88599116
0.5057445 0.5177237 0.87991726
0.58338696 0.50996476 0.8744868
0.66277575 0.50450367 0.8811581
0.74116117 0.48867956 0.87401193
0.81599265 0.47673103 0.8787224
0.8796798 0.45735297 0.87419575
0.94577205 0.42922795 0.86850494
0.4259804 0.657353 0.8828431
0.468413 0.65787375 0.87742037
0.52892154 0.656679 0.884375
0.59935665 0.65471816 0.8833027
0.6779412 0.65085787 0.8811274
0.75750613 0.64411765 0.8813726
0.8230392 0.63909316 0.8764093
0.8906863 0.6311275 0.8779412
0.9522059 0.614951 0.87107843
0.4488358 0.77616423 0.88253677
0.49394915 0.77787995 0.8820083
0.5532016 0.7746171 0.8863051
0.62225795 0.77500767 0.88752306
0.693076 0.77248776 0.88167894
0.765648 0.7680453 0.88190866
0.83219975 0.7645067 0.8779412
0.8971355 0.76353395 0.8698759
0.953799 0.7586397 0.8777574
0.4807598 0.8616422 0.8947304
0.52821696 0.8591452 0.89486825
0.5822304 0.8605392 0.8933517
0.6393842 0.8622549 0.89563423
0.7084559 0.8618873 0.89117646
0.7793352 0.8576134 0.89410233
0.84865195 0.8525735 0.89757967
0.9018842 0.8543505 0.89741117
0.9647059 0.84656864 0.8936275
0.5053309 0.9332108 0.89368874
0.5484069 0.93284315 0.89342064
0.6036612 0.93325675 0.8963695
0.6604703 0.93285084 0.8921262
0.72343755 0.93106616 0.8940258
0.7887255 0.93139553 0.8915671
0.8485141 0.93180144 0.8879136
0.90722275 0.92940414 0.8925781
0.9656863 0.9298407 0.89031863
0.5279412 0.9906863 0.9014706
0.5700981 0.99123776 0.8964461
0.6245098 0.9914216 0.901348
0.6806986 0.9900122 0.9012255
0.73553926 0.9926471 0.8958334
0.79987746 0.9908701 0.9006128
0.85588235 0.9917892 0.89399505
0.9129902 0.98878676 0.895527
0.9637255 0.99215686 0.8946079
0.42352942 0.21176471 0.94117653
0.47107843 0.21029413 0.9490196
0.53333336 0.20392157 0.9460784
0.6029412 0.19558823 0.94558823
0.6862745 0.18039216 0.9509804
0.7656862 0.16127452 0.94558823
0.8303922 0.12843138 0.9372549
0.8946079 0.09068628 0.93333334
0.9568627 0.043137256 0.94117653
0.41470587 0.26862746 0.9397059
0.46574754 0.27058825 0.94644606
0.5226716 0.26678923 0.9454657
0.59497553 0.25588235 0.9506128
0.6808824 0.23970589 0.9428922
0.75091916 0.22371323 0.94644606
0.8235294 0.19558823 0.93835783
0.8891544 0.16164216 0.9420343
0.9529412 0.10931373 0.93578434
0.41764706 0.4 0.9382353
0.46887255 0.3944853 0.93872553
0.5375 0.39215687 0.9343137
0.60171574 0.38921568 0.9356618
0.6779412 0.37156862 0.9397059
0.7546569 0.35919118 0.93762255
0.83259803 0.3394608 0.9379902
0.89656866 0.30955884 0.9409314
0.9529412 0.27549022 0.9372549
0.43627453 0.53088236 0.9362745
0.4805147 0.5319853 0.941299
0.5397059 0.53247553 0.9497549
0.614277 0.5289216 0.9485907
0.6813725 0.5203431 0.94436276
0.76053923 0.5086397 0.94375
0.82622546 0.50012255 0.9339461
0.8902574 0.48143384 0.93302697
0.9519608 0.45343137 0.94117653
0.45686275 0.6686275 0.9490196
0.5044118 0.6693628 0.9433824
0.5588236 0.6681373 0.9465686
0.62573534 0.6644608 0.9485294
0.6931373 0.6627451 0.94411767
0.7683824 0.65906864 0.94117653
0.8313726 0.65000004 0.9377451
0.89485294 0.6443628 0.9389706
0.9529412 0.63529414 0.9431373
0.47745097 0.7779412 0.94411767
0.5233456 0.7811887 0.9444853
0.5833334 0.7784314 0.9476716
0.64031863 0.78431374 0.9412991
0.7110294 0.7791667 0.95073533
0.76899505 0.7744485 0.9391544
0.839951 0.7702206 0.9447304
0.904902 0.766299 0.9462623
0.9529412 0.765196 0.93333334
0.50098044 0.85588235 0.9470588
0.54901963 0.86102945 0.95624995
0.5997549 0.8627451 0.9470588
0.657353 0.8622549 0.9468137
0.72156864 0.8627451 0.952451
0.7854167 0.86262256 0.951103
0.85392153 0.8566176 0.95343137
0.90808827 0.8572304 0.9514706
0.9656863 0.85 0.94509804
0.52500004 0.9367648 0.9529412
0.5697917 0.9377451 0.9583946
0.6207108 0.9345588 0.95367646
0.67193633 0.93725497 0.9572304
0.7318628 0.9340687 0.9490196
0.7991421 0.9331495 0.94987744
0.8564951 0.93210787 0.9492647
0.91139704 0.9337623 0.9485294
0.9607843 0.93284315 0.95
0.5411765 0.9960785 0.9607843
0.5857843 0.9936275 0.9553921
0.6313726 0.9960785 0.9568627
0.6818628 0.99215686 0.9490196
0.74509805 0.9960785 0.9509804
0.8063726 0.99215686 0.952451
0.85784316 0.9950981 0.95490193
0.91323525 0.9931373 0.9578431
0.9686275 0.99215686 0.9529412
