assets/luts/LUTs/LEICA/LEICA CHR.cube
#Generated by PennL1 - 闲鱼号：LOOK胶片感 公众号：胶片感
TITLE LEICA CHR
LUT_3D_SIZE 5
0.07058824 0.05490196 0.058823533
0.24215686 0.047058824 0.064705886
0.48431376 0.03137255 0.0627451
0.6598039 0.026470589 0.06568628
0.7647059 0.03137255 0.07450981
0.097058825 0.20980391 0.07254902
0.25514707 0.21715686 0.07303922
0.50196075 0.20637254 0.05245098
0.7107843 0.19779412 0.039705884
0.8215686 0.19411765 0.03627451
0.17843138 0.44509804 0.10392157
0.33774513 0.46274507 0.12205882
0.54509807 0.4666667 0.1254902
0.7455883 0.46029413 0.11176471
0.87647057 0.45490193 0.10392157
0.3147059 0.67156863 0.17156863
0.45808822 0.6865196 0.19485293
0.63480395 0.70049024 0.23186275
0.7850491 0.6867647 0.24142158
0.8990196 0.68333334 0.2529412
0.4588235 0.8156863 0.27058825
0.577451 0.8303922 0.29705882
0.7156863 0.84901965 0.32941177
0.84901965 0.85490197 0.36764705
0.9098039 0.8392157 0.4
0.06176471 0.07745098 0.18921567
0.21348038 0.06911765 0.22254902
0.45980394 0.054901965 0.22352941
0.66789216 0.04142157 0.22058824
0.78431374 0.03529412 0.20686275
0.0882353 0.24068627 0.23235294
0.24932599 0.25183824 0.24148284
0.5040441 0.23370098 0.22941178
0.72132355 0.21121323 0.19522059
0.84926474 0.21029413 0.1882353
0.16666667 0.47941178 0.275
0.32463235 0.5004902 0.29901963
0.544853 0.50367653 0.30539218
0.7564951 0.49607843 0.27928925
0.887745 0.4906863 0.25637257
0.29828432 0.70490193 0.32818627
0.43155637 0.7240809 0.36133575
0.6306373 0.7318628 0.3926471
0.7919117 0.7196079 0.41182598
0.90661764 0.71887255 0.39705884
0.44803923 0.845098 0.41764706
0.5492647 0.8607843 0.4357843
0.70343137 0.87303925 0.46176472
0.84828436 0.88259804 0.50367653
0.9186274 0.87058824 0.52745104
0.07058824 0.10392157 0.35882354
0.18382353 0.09803922 0.40637255
0.39215687 0.08529412 0.4401961
0.61764705 0.07745098 0.45931375
0.7529412 0.07254902 0.4470588
0.09558824 0.28627452 0.43627453
0.2504902 0.29693627 0.45808825
0.45759803 0.28406864 0.4791667
0.6865196 0.2716912 0.47732845
0.8240196 0.26715687 0.46274513
0.17941177 0.5294118 0.52254903
0.32843137 0.5441176 0.5377451
0.54558825 0.54803926 0.5480392
0.7536765 0.5313726 0.52132356
0.88627446 0.52352947 0.48725492
0.32205886 0.732353 0.5686275
0.42965686 0.7551471 0.5830883
0.6127451 0.769853 0.6034314
0.79375 0.7644608 0.61066175
0.9161765 0.7529412 0.5950981
0.46862745 0.8666667 0.6215687
0.5421569 0.8838235 0.6264706
0.6813725 0.90686274 0.6401961
0.8362745 0.91519606 0.6740196
0.92941177 0.9078431 0.6960784
0.09019608 0.14509805 0.5058824
0.2002451 0.13700981 0.55833334
0.37303922 0.1259804 0.6196079
0.5664216 0.12230393 0.65294117
0.72156864 0.12843138 0.67156863
0.10931373 0.33627453 0.59681374
0.2672181 0.34129903 0.6248162
0.44730392 0.33125 0.6602941
0.63412994 0.32855392 0.6911152
0.78137255 0.3345588 0.70416665
0.19705883 0.57500005 0.7132353
0.3457108 0.5867647 0.72377455
0.54632354 0.58897054 0.73063725
0.7171569 0.5783088 0.7422794
0.8593137 0.57549024 0.7465687
0.36029413 0.7732843 0.775
0.4636642 0.7865809 0.7857231
0.62438726 0.79301476 0.7935049
0.78449756 0.7980392 0.7971201
0.9090686 0.79117644 0.78063726
0.5196079 0.8872549 0.79607844
0.5830883 0.8987745 0.8026961
0.6906862 0.9196079 0.8058824
0.82647055 0.9365196 0.8240196
0.9294118 0.94019616 0.83725494
0.101960786 0.21176471 0.5921569
0.22941178 0.2 0.6490196
0.4019608 0.18627451 0.7156863
0.56372553 0.1882353 0.75980395
0.68235296 0.19215685 0.7882353
0.1392157 0.39313728 0.69509804
0.29852942 0.4014706 0.71250004
0.4735294 0.3897059 0.76274514
0.63480395 0.38529414 0.81053925
0.7441177 0.3892157 0.8264706
0.2235294 0.61764705 0.80980396
0.36862746 0.625 0.82009804
0.5588236 0.6333333 0.8352941
0.7112745 0.62205887 0.85245097
0.8333334 0.62352943 0.88235295
0.38529414 0.8039216 0.87254906
0.4877451 0.80808824 0.8865196
0.6333333 0.8181372 0.8995098
0.7914216 0.82279414 0.90906864
0.89411765 0.8088235 0.91568625
0.56078434 0.92156863 0.917647
0.6156863 0.9254902 0.9137255
0.71960783 0.9313726 0.92156863
0.83137256 0.9431373 0.92647064
0.9294118 0.9529412 0.9372549
