assets/luts/LUTs/LEICA/LEICA BLU.cube
#Generated by PennL1 - 闲鱼号：LOOK胶片感 公众号：胶片感
TITLE LEICA BLU
LUT_3D_SIZE 33
0.023529412 0.015686275 0.02745098
0.034926474 0.029289216 0.04031863
0.033578433 0.049264707 0.054656863
0.04754902 0.06213236 0.07610294
0.066176474 0.080882356 0.09901961
0.08026961 0.099877454 0.1192402
0.097794116 0.117401965 0.14093138
0.12009805 0.1397059 0.1632353
0.13725491 0.15686275 0.18039216
0.16102941 0.18063726 0.20416667
0.18308824 0.20269608 0.2262255
0.19669119 0.22414216 0.2555147
0.21764705 0.24509804 0.2764706
0.23480392 0.26225492 0.29362747
0.25441176 0.28186277 0.3132353
0.27536765 0.30281863 0.33419117
0.29411766 0.32156864 0.35294116
0.3151961 0.34730396 0.37634802
0.33504903 0.36495098 0.39509803
0.3564951 0.3839461 0.41531864
0.38137254 0.40882352 0.4401961
0.39191177 0.41936275 0.45073533
0.41715688 0.45245102 0.4877451
0.44105393 0.47634804 0.51164216
0.45588237 0.4911765 0.5264706
0.4786765 0.5139706 0.5492647
0.5009804 0.53627455 0.57156867
0.52230394 0.55759805 0.59289217
0.5406863 0.5759804 0.61127454
0.56482846 0.6001226 0.6354167
0.5884804 0.6237745 0.65906864
0.59926474 0.6310049 0.6734069
0.62352943 0.654902 0.69803923
0.031004904 0.024264706 0.04276961
0.031774666 0.03035769 0.047495402
0.034313727 0.05 0.055392157
0.05148974 0.06607307 0.08004366
0.07536765 0.08713236 0.1067402
0.08857997 0.10402115 0.12546723
0.10824908 0.12785693 0.15138634
0.12843521 0.14804305 0.17157246
0.14601716 0.16295956 0.19448529
0.16304764 0.18179 0.2079159
0.1831342 0.2034084 0.22769609
0.20074677 0.22819775 0.25957033
0.21593137 0.24338235 0.2747549
0.24174708 0.2691981 0.30057064
0.2555147 0.28296572 0.31433827
0.27935815 0.30680913 0.33818167
0.30036765 0.32781863 0.35919118
0.3194853 0.3469363 0.3783088
0.3420343 0.3694853 0.40085784
0.3625038 0.3955078 0.42410386
0.3795803 0.4141391 0.4419577
0.40013406 0.42780715 0.46666667
0.41480544 0.45009956 0.47755057
0.44687885 0.48217294 0.5108494
0.4660539 0.5013481 0.5366422
0.48296568 0.5182598 0.55355394
0.5054305 0.54072464 0.57601875
0.52676547 0.5620596 0.5973537
0.54742646 0.58272064 0.6180147
0.5679305 0.60296035 0.638783
0.58868724 0.62421113 0.6599418
0.6105929 0.64236754 0.6848039
0.62034315 0.65955883 0.6987745
0.029656863 0.033578433 0.043627452
0.037867647 0.042823225 0.052573532
0.043627452 0.05857843 0.06663603
0.05939032 0.07344516 0.08888634
0.07965687 0.091973044 0.112224266
0.09620099 0.11242341 0.13347887
0.11806066 0.1376685 0.16119792
0.13516392 0.15477176 0.17830117
0.15545344 0.17506129 0.1985907
0.1713312 0.18949142 0.2223269
0.18500306 0.21185663 0.24342832
0.20585938 0.23331036 0.26468292
0.22377451 0.2512255 0.28259805
0.25036764 0.27781862 0.30919117
0.266682 0.29413298 0.32550552
0.28743106 0.31488204 0.3462546
0.30502453 0.3324755 0.36458334
0.32450983 0.3519608 0.38480395
0.34756434 0.37501535 0.40684742
0.37429535 0.4028952 0.43369332
0.39059436 0.41951594 0.4501532
0.40806526 0.43698683 0.4737975
0.4266238 0.46191788 0.49083948
0.45366117 0.48895526 0.51887256
0.4708946 0.50618875 0.54148287
0.48750767 0.5228018 0.55809593
0.5120098 0.5473039 0.58259803
0.5334559 0.56875 0.60404414
0.552451 0.5877451 0.62303925
0.5775353 0.61001074 0.65094215
0.592019 0.6297641 0.66971505
0.61917126 0.65127915 0.6940487
0.6281863 0.6659314 0.7058824
0.04142157 0.04754902 0.067156866
0.050838694 0.05749464 0.07710248
0.057184435 0.06936275 0.08917739
0.069362745 0.083333336 0.1050092
0.08628983 0.10237439 0.1241728
0.10335095 0.122958794 0.14349341
0.1252451 0.14485294 0.16838235
0.14510953 0.16471738 0.18824679
0.15894608 0.17855392 0.20208333
0.17605315 0.20227864 0.23242572
0.19441636 0.22186734 0.2532399
0.21227022 0.23972118 0.27109376
0.23109682 0.2585478 0.28992036
0.25600109 0.28345206 0.3148246
0.2721814 0.29963237 0.33100492
0.29158625 0.31903723 0.3504098
0.31256127 0.34001225 0.37420347
0.3341912 0.36164215 0.398652
0.3556449 0.3830959 0.41623008
0.37513787 0.40699294 0.43616346
0.39336705 0.4283854 0.45790443
0.4133923 0.44868645 0.47620636
0.4337699 0.46906406 0.5043582
0.45651808 0.4918122 0.52710634
0.47757354 0.5128677 0.5481618
0.49506357 0.5303577 0.56565183
0.5190028 0.5542969 0.589591
0.54100037 0.5762945 0.6115886
0.5610295 0.59632355 0.6316177
0.5822381 0.61471355 0.65564495
0.5995864 0.63553923 0.67638636
0.62863815 0.6605392 0.70341223
0.6346814 0.66605395 0.7091912
0.052941177 0.064705886 0.08431373
0.06397059 0.07601103 0.09575674
0.071813725 0.08743873 0.10897672
0.07941177 0.09901961 0.12117035
0.098406866 0.11801471 0.1384804
0.11564033 0.13524817 0.15877758
0.13299632 0.15260416 0.17613357
0.15133274 0.17094058 0.19446999
0.16691177 0.18541667 0.21225491
0.18465073 0.21064645 0.24148285
0.2028799 0.23033088 0.26170343
0.21698835 0.24443933 0.27581188
0.24442402 0.27187502 0.30324757
0.2640472 0.29149818 0.32287073
0.28357846 0.31102943 0.34240198
0.30183822 0.3292892 0.36066175
0.32107845 0.34852943 0.37990198
0.34352022 0.3709712 0.40234375
0.35790443 0.38535538 0.41672796
0.38157168 0.40902266 0.44269302
0.40569854 0.43743873 0.47389704
0.42068017 0.45588234 0.4836244
0.43979782 0.47509193 0.51038605
0.46568626 0.5009804 0.53627455
0.48406863 0.51936275 0.5546569
0.505913 0.54120713 0.57650125
0.52435666 0.5596508 0.5949449
0.54693633 0.58223045 0.61752456
0.56685054 0.6030637 0.6383579
0.5876379 0.62052697 0.6614584
0.6088542 0.64261645 0.68455887
0.6322457 0.663894 0.70689344
0.64607847 0.677451 0.72058827
0.07009804 0.08553922 0.10698529
0.07701057 0.09284237 0.114483766
0.08686428 0.106127456 0.13069087
0.09543888 0.1137255 0.1412186
0.10989583 0.13088235 0.15441176
0.12291667 0.14447765 0.16800706
0.13916208 0.15876992 0.18229932
0.15843675 0.17683825 0.20398667
0.17778799 0.1939951 0.22772673
0.19525889 0.21621859 0.2497549
0.20870097 0.2358073 0.26729473
0.22432216 0.25177312 0.28314567
0.25108764 0.2785386 0.30991116
0.26990655 0.29735753 0.32873008
0.2884804 0.31593138 0.34730393
0.30748698 0.33493796 0.3663105
0.32628676 0.35373774 0.3851103
0.34756052 0.3771944 0.40747547
0.36556372 0.39669117 0.42622548
0.39028415 0.41853938 0.45563725
0.41320467 0.44387257 0.47826284
0.42328432 0.4584482 0.4896561
0.4465763 0.48187038 0.5171645
0.47275203 0.50804615 0.54334027
0.48881742 0.52411157 0.5594057
0.51004905 0.54534316 0.5806373
0.5314415 0.5667356 0.60202974
0.55172336 0.5860409 0.62328815
0.5699142 0.6046722 0.6436428
0.5955461 0.62809056 0.6700559
0.6196538 0.6544118 0.69585633
0.63439035 0.66948533 0.7107614
0.6528186 0.68786764 0.7291667
0.087254904 0.106862746 0.13039216
0.09028033 0.113679536 0.13782935
0.104411766 0.12190564 0.15094976
0.11471355 0.13308825 0.15714614
0.12769608 0.1485907 0.17212011
0.13811275 0.15954351 0.18307292
0.15194547 0.17155331 0.19508272
0.17071079 0.18774511 0.21899511
0.18259804 0.20324755 0.23688726
0.19899663 0.22130054 0.2543888
0.21894914 0.24607843 0.2775582
0.23514093 0.26259193 0.29396448
0.25563726 0.28308824 0.31446078
0.27633274 0.3037837 0.33515626
0.2944087 0.3218597 0.35323223
0.31364125 0.34109223 0.37246478
0.33713236 0.36458334 0.3959559
0.358004 0.38749233 0.4178462
0.37274817 0.4066636 0.4348039
0.39840686 0.42757353 0.460769
0.42199755 0.452451 0.48275122
0.4299709 0.46512717 0.5002451
0.45294118 0.4882353 0.5235294
0.4775276 0.51282173 0.54811585
0.49607843 0.53137255 0.56666666
0.5181143 0.55340844 0.58870256
0.53800553 0.57329965 0.60859376
0.5583487 0.59273136 0.62984836
0.5777267 0.6099265 0.6514093
0.6010953 0.63246787 0.6756051
0.62565875 0.6570313 0.7001685
0.637209 0.67169124 0.71327364
0.65931374 0.6985294 0.73774517
0.104411766 0.12144608 0.15269609
0.10821462 0.12780714 0.15871248
0.12156863 0.13959867 0.16735601
0.13235295 0.15011108 0.17725185
0.14656863 0.16617647 0.18970588
0.15577896 0.17418046 0.20132889
0.16727942 0.18431373 0.21556371
0.1785386 0.19975491 0.23196997
0.18753064 0.21397059 0.24568015
0.20921032 0.23014706 0.26369104
0.22768842 0.25465688 0.28619027
0.24865197 0.27610296 0.3074755
0.2631434 0.29059437 0.32196692
0.28796723 0.3154182 0.34679076
0.30657935 0.33403036 0.36540288
0.3264553 0.35390627 0.38527882
0.34442404 0.371875 0.40324757
0.36537609 0.39282703 0.42419958
0.3792892 0.41213235 0.4408088
0.4024012 0.435589 0.46409315
0.42617953 0.45877758 0.4875766
0.44257048 0.47778034 0.5128715
0.46151963 0.49681374 0.53210783
0.48664215 0.5219363 0.5572304
0.50744486 0.542739 0.5780331
0.52696085 0.56137025 0.5984337
0.54610145 0.578822 0.6192632
0.56601566 0.60010344 0.63781023
0.5861979 0.6206495 0.6576287
0.6117647 0.64386106 0.68555075
0.6333257 0.66469824 0.7078355
0.64018464 0.67622167 0.7170267
0.6627451 0.7096814 0.7463236
0.11862745 0.13725491 0.1637255
0.12659314 0.1453125 0.17150736
0.13872549 0.15814951 0.18223038
0.1486826 0.16758579 0.19322917
0.15968138 0.1814951 0.20723039
0.16642158 0.1914522 0.22224265
0.17720589 0.2017157 0.23406863
0.18685663 0.21329656 0.24500613
0.2002451 0.22769609 0.25906864
0.21963847 0.24460787 0.2768076
0.23633577 0.26360294 0.29503676
0.25438112 0.2818321 0.31320465
0.27205884 0.29950982 0.33088237
0.29865196 0.32610294 0.35747552
0.31550246 0.34295344 0.374326
0.33633578 0.36378676 0.39515933
0.352451 0.38284314 0.41274512
0.3703125 0.4036458 0.43207723
0.38762254 0.42230392 0.45006126
0.40922183 0.44451594 0.4719669
0.43088236 0.4661765 0.49877453
0.4494792 0.48477328 0.5200062
0.4697304 0.50502455 0.5403186
0.49025735 0.5255515 0.5608456
0.5156863 0.55098045 0.5862745
0.53520226 0.5701593 0.6061275
0.5542892 0.58860296 0.6258579
0.57022065 0.6034927 0.6428309
0.5935049 0.6258579 0.6670343
0.6174633 0.6533395 0.6938113
0.63866425 0.6711397 0.7137255
0.64748776 0.68596816 0.7255515
0.67156863 0.71372557 0.7519608
0.13811275 0.1577206 0.18125
0.14375001 0.16335785 0.18688726
0.15464155 0.1754902 0.20026042
0.1608073 0.18517157 0.2134574
0.17797183 0.19679841 0.2245098
0.18513328 0.20731081 0.24044117
0.19240198 0.21985294 0.2512255
0.2048675 0.23231846 0.26369104
0.21798407 0.24543506 0.27680764
0.22873008 0.25618106 0.2875536
0.251057 0.27850798 0.30988052
0.2589078 0.28635877 0.31773132
0.28353247 0.31098345 0.342356
0.30723038 0.33468136 0.36605394
0.32274053 0.3501915 0.38156405
0.34276578 0.37021676 0.4015893
0.3615196 0.38958335 0.4206495
0.38223806 0.41091454 0.44167432
0.40091145 0.43413755 0.46262258
0.4187385 0.4540326 0.4814836
0.44235602 0.4776501 0.5119639
0.46041667 0.49571082 0.52459407
0.47508428 0.51037836 0.5456725
0.4976984 0.5329925 0.5682866
0.5267464 0.5620405 0.5973346
0.54298025 0.57827437 0.6135685
0.561129 0.5964231 0.6317172
0.5813343 0.61454505 0.6540058
0.6041974 0.63556993 0.6787071
0.6222542 0.65926397 0.6995826
0.64276963 0.6809896 0.7207031
0.6595512 0.69865197 0.7379252
0.6811275 0.7203432 0.75955886
0.15955883 0.17916667 0.20269608
0.16458334 0.18384652 0.20840994
0.17593445 0.19195771 0.22660846
0.18133426 0.20071997 0.23459713
0.19191177 0.21878064 0.24993873
0.2027114 0.22977176 0.26127452
0.21116728 0.23861827 0.2699908
0.22242647 0.24987747 0.28125
0.23253678 0.25998777 0.296875
0.24738054 0.2748315 0.30735293
0.2614737 0.28892466 0.3202972
0.2777114 0.30516237 0.33653492
0.295864 0.32331496 0.3546875
0.31661308 0.34406406 0.3754366
0.33480394 0.36455274 0.39477634
0.35465688 0.38946077 0.41715688
0.37009805 0.40490198 0.43259805
0.38786766 0.42267156 0.45036763
0.40661764 0.44175857 0.46928614
0.429519 0.46481314 0.49800858
0.45514706 0.4904412 0.52567405
0.46972278 0.5085785 0.5433977
0.48722428 0.5225184 0.5578125
0.5139553 0.5492494 0.5845435
0.5275123 0.56280637 0.59810054
0.5513481 0.58537835 0.62320006
0.5725797 0.6041973 0.6468444
0.5940105 0.6254979 0.66840535
0.61093754 0.64690566 0.6877451
0.6320006 0.67107844 0.71036303
0.65739894 0.69661456 0.73583037
0.6726486 0.71186435 0.75108
0.69705886 0.73627454 0.7754902
0.16887255 0.18492648 0.22009805
0.18054917 0.19767156 0.23248698
0.18237592 0.2098269 0.24119945
0.1921224 0.21957338 0.25094593
0.20490196 0.23235294 0.2637255
0.21593139 0.24338235 0.2747549
0.22671568 0.25416666 0.2855392
0.23709023 0.26454124 0.2959138
0.25150123 0.2789522 0.31032476
0.26531863 0.2927696 0.32414216
0.2780714 0.30552238 0.33689493
0.2910501 0.31850109 0.34987363
0.30859375 0.33604473 0.36741725
0.33012027 0.35757124 0.3889438
0.3514706 0.37892157 0.41029415
0.3696308 0.3971814 0.42850414
0.38645834 0.41403186 0.44546568
0.40350416 0.43095514 0.46257278
0.41911763 0.45196077 0.486106
0.44527423 0.48056832 0.51586246
0.46495098 0.5002451 0.53553927
0.48210785 0.517402 0.5526961
0.503799 0.53909314 0.57438725
0.52830887 0.563603 0.5988971
0.5454351 0.58069855 0.61605394
0.5651961 0.60036767 0.6359069
0.58744645 0.6210631 0.6598729
0.6066177 0.63823533 0.68125004
0.62798715 0.6594516 0.7025429
0.6493873 0.6863971 0.7267157
0.6678462 0.7070619 0.7462776
0.68849194 0.72770756 0.76692325
0.6982843 0.7375 0.7767157
0.17892158 0.20637256 0.2377451
0.18831189 0.21576287 0.24713542
0.20064338 0.22809437 0.25946692
0.21214767 0.23959866 0.2709712
0.22254902 0.25 0.28137255
0.23357844 0.26102942 0.29240197
0.24408701 0.271538 0.30291054
0.2567402 0.2841912 0.31556374
0.26960787 0.29705885 0.3284314
0.2820619 0.30951288 0.34088543
0.29255515 0.32000613 0.35137868
0.30474877 0.3322304 0.36358762
0.31807598 0.3463848 0.37732843
0.3416667 0.36911765 0.40049022
0.360049 0.3875 0.41887254
0.37591913 0.4061581 0.43613663
0.39411765 0.42549017 0.45833334
0.4178462 0.4462776 0.48402268
0.4348039 0.46795344 0.5040135
0.45540744 0.49070162 0.52599573
0.47395834 0.5092524 0.5445466
0.4911765 0.5264706 0.5617647
0.5161458 0.55143994 0.58673406
0.5402727 0.57549024 0.61093754
0.5569853 0.59105396 0.628799
0.5740962 0.60579044 0.6482843
0.59479165 0.62916666 0.6708027
0.61185664 0.6506128 0.69005823
0.63069856 0.665625 0.7069853
0.6515626 0.6888481 0.7290288
0.67527574 0.7144914 0.7537071
0.69451594 0.7337316 0.7729473
0.70686275 0.74607843 0.7852941
0.1995098 0.22696078 0.25833336
0.2112324 0.23868337 0.27005592
0.22058824 0.24803923 0.2794118
0.23026961 0.25772062 0.28909317
0.24313727 0.27058825 0.3019608
0.2545688 0.28201976 0.3133923
0.26408547 0.29153645 0.322909
0.27448684 0.30193782 0.33331037
0.28676474 0.31421572 0.34558827
0.29777116 0.32522213 0.35659468
0.3152344 0.34268537 0.3740579
0.32514936 0.35279182 0.38406864
0.33201593 0.36482844 0.39352024
0.35110298 0.37855393 0.4099265
0.3694853 0.39693627 0.42884496
0.39023438 0.41768536 0.4507736
0.408701 0.44007355 0.47120097
0.42454812 0.45984223 0.48900887
0.4408088 0.47610292 0.50948226
0.46342295 0.4987171 0.53401124
0.48553923 0.5208333 0.5561274
0.5031863 0.5384804 0.5737745
0.5237056 0.5589461 0.5943474
0.5458219 0.5799135 0.6176126
0.5657782 0.5987745 0.63866425
0.5849265 0.61916745 0.6565679
0.60562193 0.63822764 0.67964923
0.6237592 0.6591912 0.69989663
0.642065 0.68063724 0.7201746
0.66788834 0.7071041 0.7463197
0.68492645 0.7241422 0.7633578
0.7092333 0.74844897 0.78766465
0.7154412 0.75465685 0.79558825
0.21789216 0.24534313 0.2767157
0.22561274 0.25306374 0.2844363
0.23774509 0.26519608 0.29656863
0.24777114 0.27522212 0.30659467
0.26106006 0.28851104 0.31988358
0.27316177 0.30061275 0.3319853
0.28534007 0.31279105 0.3441636
0.29332876 0.32077974 0.35215226
0.30392158 0.33137256 0.36458334
0.31906405 0.34651503 0.37827054
0.3298254 0.35727638 0.3886489
0.34240198 0.36985293 0.40122548
0.3514706 0.37922794 0.41044733
0.3651961 0.3945619 0.42497703
0.38242954 0.41064644 0.44332105
0.3991575 0.42905945 0.46459863
0.41605395 0.44865194 0.48284313
0.43396905 0.46926317 0.5021063
0.45291054 0.48820466 0.5227329
0.47485447 0.51014864 0.54544276
0.49335173 0.5286459 0.56394
0.51291364 0.54820776 0.5835019
0.53071386 0.56583947 0.6014706
0.5563726 0.5893919 0.6292356
0.57389706 0.6088848 0.64479166
0.59350497 0.62757355 0.66531867
0.61312807 0.6483763 0.68612134
0.6324909 0.66639096 0.7070007
0.65232843 0.688603 0.72928923
0.6754902 0.71294427 0.75304073
0.69266236 0.7294271 0.76986825
0.7166437 0.7556296 0.79496014
0.7252451 0.7644608 0.8090687
0.23615196 0.26360294 0.2949755
0.2442134 0.27166438 0.30303693
0.25490198 0.28235295 0.3137255
0.26568627 0.29313725 0.3245098
0.27990195 0.30735293 0.33872548
0.29031864 0.31776962 0.34914216
0.3009804 0.32843137 0.35980394
0.31060433 0.3380553 0.36942783
0.3226716 0.35012257 0.38498774
0.33419502 0.361646 0.3937462
0.34532017 0.3757583 0.40563726
0.35801548 0.38855317 0.41838235
0.3688266 0.3968597 0.42833945
0.3835976 0.41468674 0.44742647
0.39705884 0.42696077 0.46029413
0.40847504 0.44376916 0.4744064
0.4278799 0.46317402 0.49381128
0.44502908 0.4803232 0.5109605
0.4634957 0.49878985 0.5326287
0.4882353 0.52352947 0.5588236
0.5030331 0.5383272 0.5736214
0.52257586 0.55787 0.5931641
0.54365045 0.577451 0.61573225
0.5703432 0.60538834 0.64118034
0.58651966 0.62043506 0.6596814
0.6020834 0.6366422 0.6781863
0.62524515 0.65840995 0.70065105
0.6431028 0.6770144 0.7159199
0.66135114 0.70041364 0.7341299
0.6867647 0.72308135 0.76217836
0.70483303 0.73939186 0.780936
0.72602254 0.7648016 0.80423564
0.73651963 0.7757353 0.814951
0.25686276 0.28431374 0.3156863
0.26544118 0.29289216 0.3242647
0.27401963 0.3014706 0.33284315
0.28480393 0.3122549 0.34362745
0.2990196 0.32647058 0.35784313
0.30851716 0.33596814 0.36734068
0.3192402 0.3466912 0.37806374
0.32996327 0.35741425 0.38878676
0.3421569 0.36960787 0.40098038
0.35337007 0.38082108 0.41219366
0.36409315 0.3952206 0.42475492
0.37671566 0.41188726 0.43939954
0.38602942 0.41740197 0.44730392
0.40061277 0.43198532 0.46531862
0.4134804 0.44607842 0.48002452
0.42555147 0.4608456 0.4961397
0.43921572 0.47450978 0.50980395
0.45520833 0.49050245 0.5257966
0.47426468 0.50955886 0.544853
0.4972427 0.5325368 0.5678309
0.517402 0.5526961 0.5879902
0.53290445 0.56819856 0.6034927
0.55232847 0.5857843 0.6247549
0.5753064 0.60998774 0.6465074
0.59362745 0.6259804 0.6686275
0.6126839 0.64797795 0.68915445
0.6354167 0.6707108 0.71360296
0.65355396 0.69197303 0.7297794
0.67254907 0.7137255 0.7450981
0.6967524 0.73651963 0.7735294
0.71348035 0.7495098 0.7903186
0.7334559 0.77230394 0.8152573
0.7490196 0.7882353 0.83137256
0.27990198 0.30735296 0.3387255
0.28477713 0.3122281 0.34360066
0.2950291 0.32248008 0.35385263
0.30392158 0.33137256 0.3627451
0.31813726 0.34558824 0.37696078
0.32780716 0.35525814 0.38663068
0.33982843 0.3672794 0.39865196
0.35012257 0.37757355 0.40894607
0.35989586 0.38734683 0.41871935
0.37218136 0.4035616 0.43689877
0.38504905 0.4171569 0.45085785
0.3978171 0.42845434 0.46289065
0.40759805 0.4382353 0.47208947
0.41995636 0.4516123 0.48088238
0.43150276 0.46534163 0.4959712
0.44451976 0.47704884 0.5137255
0.45520836 0.49050245 0.5257966
0.4658969 0.501191 0.5364852
0.48430607 0.5196002 0.5548943
0.50625 0.54154414 0.57683825
0.5276961 0.5629902 0.5982843
0.5430875 0.5783816 0.6136757
0.5566406 0.5896063 0.6295573
0.58063346 0.6133502 0.65379906
0.60248166 0.6338542 0.67699146
0.6224839 0.65385646 0.6969937
0.6442785 0.67908245 0.72189796
0.65905714 0.6982728 0.7389821
0.68025434 0.71655947 0.7572304
0.7050667 0.7429726 0.7861903
0.72358304 0.76020986 0.8053768
0.73899746 0.7779144 0.82482386
0.7615196 0.8007353 0.8477941
0.29705882 0.3245098 0.35588235
0.3018306 0.32928157 0.3606541
0.31179535 0.33924633 0.37061888
0.32301626 0.3504672 0.38183975
0.33529413 0.3627451 0.39411765
0.3457108 0.37316176 0.40453434
0.35857844 0.38602942 0.41740197
0.36710325 0.39809284 0.42769608
0.37879902 0.41164216 0.44031864
0.38975948 0.420121 0.45210633
0.40220588 0.43210787 0.46470588
0.4124617 0.44513634 0.4817402
0.42794117 0.45606616 0.49463847
0.439951 0.47333026 0.5071308
0.44891238 0.48344058 0.51743263
0.4594286 0.49326748 0.52928925
0.47156864 0.50686276 0.5421569
0.48210782 0.517402 0.5526961
0.49321386 0.52850795 0.56380206
0.5142387 0.54953283 0.58482695
0.5386336 0.5739277 0.6092218
0.55281866 0.5881128 0.6234069
0.5665901 0.6006587 0.6384038
0.5944317 0.62807906 0.6666667
0.61427695 0.6469976 0.6894608
0.62866116 0.6654259 0.705867
0.65010726 0.68794423 0.7278493
0.66805303 0.7072687 0.7464844
0.6882353 0.7259191 0.76590073
0.71250004 0.75102633 0.796224
0.7318627 0.7710784 0.8181372
0.7490196 0.7882353 0.8352941
0.77009803 0.8093137 0.85637254
0.31727943 0.3447304 0.37610295
0.3222235 0.34967446 0.381047
0.33373928 0.36119026 0.3925628
0.343256 0.37070695 0.40207952
0.35359988 0.38334867 0.41357228
0.36593136 0.39663756 0.4263825
0.37879902 0.40625003 0.43762255
0.3885302 0.4171071 0.4519378
0.39810053 0.42726713 0.46390936
0.40710783 0.43999696 0.46960786
0.42223498 0.4558134 0.48412225
0.43139935 0.4664484 0.4959291
0.44471508 0.47314644 0.51187193
0.4547143 0.49000844 0.5253026
0.46568626 0.50098044 0.53627455
0.47585782 0.51115197 0.5464461
0.48872548 0.52401966 0.5593137
0.50108385 0.53637797 0.5716721
0.5130132 0.5483073 0.5836014
0.52762336 0.5629175 0.5982116
0.5486673 0.5839614 0.61925554
0.5626226 0.5979167 0.63321084
0.5820236 0.61444545 0.6554841
0.60220593 0.6378447 0.6738856
0.62147677 0.65940565 0.69926476
0.6363971 0.6756128 0.71482843
0.6578432 0.69705886 0.73627454
0.6804611 0.7196768 0.7588925
0.6952819 0.740242 0.7775429
0.7171531 0.75895375 0.802945
0.74484533 0.784061 0.83111984
0.7581725 0.7973882 0.844447
0.7817402 0.8209559 0.8680147
0.33529413 0.36274508 0.39411765
0.34031865 0.36776963 0.39914215
0.352451 0.37990198 0.4112745
0.3619945 0.39137563 0.4217831
0.37322304 0.40790442 0.43566176
0.3839461 0.41556373 0.44806984
0.39681375 0.4242647 0.46249998
0.40710783 0.4345588 0.4734375
0.41568628 0.44313726 0.48235294
0.4242647 0.45833334 0.49341303
0.44019607 0.47549018 0.50980395
0.44938728 0.48465073 0.51879597
0.46176472 0.49620098 0.5259192
0.47195163 0.5072457 0.54253983
0.4862745 0.52156866 0.5568628
0.4964461 0.5317402 0.5670343
0.50759804 0.5428922 0.5781863
0.5187501 0.5540441 0.5893383
0.53161764 0.5669118 0.6022059
0.5498468 0.58514094 0.62043506
0.5560662 0.59136033 0.62665445
0.5777421 0.61303616 0.64833033
0.59237134 0.6306373 0.6702819
0.6133579 0.65108764 0.6904259
0.6328432 0.6669118 0.7104167
0.6484069 0.68762255 0.7313419
0.6713542 0.71056986 0.74978554
0.6931679 0.7287378 0.7697764
0.7120098 0.7495711 0.7897672
0.7358915 0.7755208 0.8153033
0.756587 0.7958027 0.8415748
0.7700215 0.8092372 0.856296
0.7911765 0.8303922 0.877451
0.34865198 0.37610295 0.4074755
0.3605622 0.38872552 0.41974187
0.3658088 0.40085787 0.4284314
0.37655866 0.41167662 0.43921572
0.39068627 0.4259804 0.4534314
0.40110296 0.43272057 0.46212468
0.41183364 0.44355854 0.4730392
0.4229588 0.45302162 0.48333332
0.43284315 0.4659927 0.49476105
0.44783247 0.4766774 0.5140089
0.45426625 0.4890855 0.5246171
0.4664254 0.50171953 0.537006
0.4760723 0.5113665 0.5464461
0.49135265 0.52664673 0.56194085
0.50249696 0.5377911 0.5730852
0.51634884 0.55164295 0.58693707
0.5268996 0.56219363 0.5974878
0.53745025 0.5704887 0.61029416
0.54877454 0.58288145 0.6205499
0.5618336 0.59712774 0.63242185
0.57443327 0.61305153 0.6483456
0.5876111 0.6230239 0.65831804
0.5971814 0.63639706 0.6720512
0.61981463 0.65899205 0.69822687
0.6438113 0.6856924 0.72411156
0.65890014 0.70559514 0.74247855
0.68538606 0.7246017 0.76381737
0.70244336 0.7415288 0.78484607
0.71848965 0.75761336 0.8044731
0.74121094 0.7804266 0.8272404
0.76164216 0.80085784 0.8478707
0.7786881 0.8179037 0.8649625
0.7997549 0.8389706 0.8860294
0.36225492 0.3970588 0.4252451
0.37485448 0.40896904 0.43818936
0.3867647 0.41421568 0.45343137
0.3964461 0.42610294 0.4620098
0.40784314 0.44313723 0.4705882
0.41642156 0.4517157 0.48284316
0.42720586 0.4625 0.49779415
0.4375 0.47279412 0.50808823
0.4490196 0.48431373 0.51960784
0.46168044 0.4969746 0.53226876
0.47473958 0.5100337 0.54532784
0.4835861 0.51888025 0.55417436
0.49335173 0.5286459 0.5639399
0.5093827 0.54467684 0.57997096
0.52090997 0.5562041 0.5914982
0.53125 0.5665441 0.60183823
0.5422794 0.577451 0.6129902
0.55316335 0.58632046 0.6261795
0.56087625 0.5949295 0.63285846
0.5771906 0.61262256 0.6480239
0.59188116 0.6237745 0.66593134
0.604542 0.639951 0.67572767
0.6183364 0.6501991 0.6930913
0.6458334 0.6776961 0.72058827
0.6620711 0.69393384 0.736826
0.67781866 0.70968133 0.75257355
