assets/luts/LUTs/LEICA/LEICA ETN.cube
#Generated by PennL1 - 闲鱼号：LOOK胶片感 公众号：胶片感
TITLE LEICA ETN
LUT_3D_SIZE 5
0.003921569 0.0 0.007843138
0.1137255 0.0 0.00882353
0.5666667 0.0019607844 0.009803922
0.89117646 0.003921569 0.010784314
1.0 0.0 0.015686275
0.0 0.13529412 0.0019607842
0.11102942 0.13946079 0.0022058827
0.5666667 0.14852941 0.0009803921
0.9017157 0.13725491 0.0036764708
0.9990196 0.13137256 0.0029411768
0.011764706 0.5294118 0.009803922
0.1 0.53627455 0.0063725496
0.5480392 0.532353 0.004901961
0.88529414 0.532353 0.005882353
0.99803925 0.54901963 0.0
0.003921569 0.83137256 0.00882353
0.087500006 0.8272059 0.0029411768
0.53627455 0.83382356 0.0073529417
0.8686274 0.8254902 0.008088236
0.9941176 0.79901963 0.0
0.0 1.0 0.011764706
0.11176471 0.9990196 0.0
0.53137255 0.99803925 0.0
0.84705883 0.9990196 0.0009803922
0.9960785 0.9960785 0.0
0.0068627456 0.0 0.20392157
0.12107844 0.0068627456 0.2002451
0.57549024 0.0019607844 0.21911764
0.89240193 0.0029411768 0.23284313
1.0 0.0029411768 0.22843136
0.0 0.1389706 0.18406864
0.107414216 0.1392157 0.18039216
0.57389706 0.13566177 0.1810049
0.90600497 0.10330883 0.1709559
0.9953432 0.09583333 0.17107844
0.0049019605 0.53431374 0.1769608
0.07022059 0.5427697 0.16911766
0.5426471 0.5394608 0.15906863
0.89411765 0.53933823 0.13517156
0.9995098 0.53627455 0.13872549
0.00024509802 0.830147 0.16004902
0.060600493 0.8402574 0.14044118
0.532598 0.8416667 0.14068627
0.8773284 0.8328431 0.13615197
1.0 0.80441177 0.1367647
0.0 1.0 0.18431371
0.064705886 1.0 0.13431373
0.48235294 0.9941177 0.12303922
0.84705883 0.9997549 0.13137256
0.9960785 0.99705887 0.13627452
0.007843138 0.0 0.5921569
0.14705883 0.0014705884 0.59950984
0.5686275 0.0019607844 0.58725494
0.892647 0.003921569 0.57205886
1.0 0.0 0.5803922
0.0 0.15490197 0.58431375
0.1197304 0.14215687 0.58566177
0.56960785 0.13455883 0.564951
0.9052696 0.10085784 0.5617647
0.99558824 0.09754902 0.5666667
0.0049019614 0.53333336 0.5588236
0.0627451 0.5441177 0.5644608
0.54656863 0.5401961 0.5539216
0.8933823 0.53088236 0.5428922
1.0 0.5029412 0.5294118
0.0024509805 0.83431375 0.5495098
0.05821079 0.8421569 0.55049026
0.5056373 0.83946085 0.5397059
0.88161767 0.8317402 0.52401966
1.0 0.8112745 0.5029412
0.0 1.0 0.5764706
0.06176471 0.99754906 0.53676474
0.40392157 0.9960785 0.48627454
0.85588235 0.99803925 0.45686275
0.9941177 0.99215686 0.45294118
0.00882353 0.0 0.872549
0.17818627 0.0022058827 0.87867653
0.5705883 0.0004901961 0.8696078
0.8916667 0.0031862748 0.85857844
1.0 0.0 0.8235294
0.0029411768 0.14852941 0.8622549
0.124019615 0.10998775 0.8653186
0.56960785 0.10490197 0.86213243
0.8965074 0.088174015 0.8425858
1.0 0.09730393 0.8232843
0.006372549 0.5406863 0.854902
0.060171574 0.5490197 0.8637255
0.54852945 0.5321079 0.8514706
0.88455886 0.5156863 0.83566177
0.99852943 0.4887255 0.82205886
0.0017156864 0.8276961 0.8281863
0.062806375 0.83523285 0.8487133
0.48529413 0.8313725 0.8436275
0.8719363 0.82101715 0.8321691
1.0 0.807598 0.81323534
0.0029411768 0.9990196 0.8088235
0.06568628 0.99705887 0.80441177
0.3338235 0.9960785 0.8014706
0.83995104 0.9948529 0.79877454
0.99705887 0.99705887 0.7892157
0.007843138 0.003921569 1.0
0.19607843 0.003921569 1.0
0.6019608 0.0 1.0
0.8666666 0.0 1.0
1.0 0.0 0.9960785
0.0029411768 0.12352942 0.9990196
0.1367647 0.09509804 0.9997549
0.5926471 0.09068628 0.9990196
0.8713235 0.09509804 0.99828434
0.9990196 0.09509804 0.9990196
0.007843138 0.5588236 0.99803925
0.0632353 0.5553922 0.99509805
0.5343138 0.5147059 0.9941176
0.86813724 0.49166667 0.99852943
1.0 0.4764706 0.99803925
0.0009803922 0.80588233 0.9950981
0.0629902 0.81274515 0.9997549
0.4764706 0.81960785 0.99852943
0.8593137 0.81544125 0.9990196
0.99705887 0.7931373 0.99803925
0.003921569 1.0 1.0
0.060784318 0.9960785 0.9950981
0.31764707 0.99215686 0.99215686
0.8215686 0.9960785 0.9892157
0.9960785 1.0 0.99215686
