assets/luts/LUTs/LEICA/LEICA BLE.cube
#Generated by PennL1 - 闲鱼号：LOOK胶片感 公众号：胶片感
TITLE LEICA BLE
LUT_3D_SIZE 9
0.078431375 0.09411765 0.10980392
0.1367647 0.101960786 0.11519608
0.2009804 0.10784314 0.11862746
0.27303922 0.11862746 0.12254902
0.3509804 0.12941177 0.1392157
0.41764706 0.13725491 0.14411765
0.4882353 0.15294118 0.15392157
0.5627451 0.15784314 0.15931374
0.6392157 0.16470589 0.18039216
0.09803922 0.16666667 0.12156863
0.18639706 0.18621324 0.13627452
0.2541667 0.19963235 0.13909315
0.330576 0.20539217 0.15300246
0.40710786 0.21960783 0.16078432
0.48786765 0.23272058 0.17518382
0.5665442 0.24436274 0.18688725
0.6410539 0.25324756 0.20030637
0.7132353 0.26372552 0.21078432
0.10980392 0.25784314 0.13431373
0.20061274 0.28210786 0.14742649
0.3031863 0.3012255 0.1632353
0.38909313 0.31237745 0.1747549
0.47107846 0.3254902 0.18480393
0.5589461 0.34387255 0.20245098
0.64411765 0.35955882 0.21838236
0.72144604 0.37414217 0.23026961
0.8 0.39215687 0.24411765
0.12205882 0.35196078 0.15784314
0.21991421 0.37775737 0.17285539
0.3341912 0.3990196 0.18345588
0.4367034 0.41482842 0.19797795
0.525 0.4272059 0.21642157
0.6146446 0.45036766 0.23780636
0.7035539 0.4685049 0.25379902
0.7916666 0.48713234 0.26764706
0.86813724 0.5058824 0.28382355
0.13529412 0.45294118 0.18235295
0.22647059 0.48063725 0.19166666
0.34264708 0.5039216 0.20441177
0.45661765 0.52254903 0.22034314
0.5686275 0.5372549 0.23627451
0.6642157 0.55980396 0.26029414
0.7544118 0.5867647 0.28382355
0.8450981 0.6107843 0.31078434
0.927451 0.63725495 0.33333334
0.14852941 0.5588236 0.20686275
0.23265933 0.58026963 0.21194853
0.3439951 0.6069853 0.22377451
0.46280634 0.62671566 0.24313726
0.59338236 0.6460784 0.26544118
0.69191176 0.6636642 0.28229168
0.7872549 0.68958336 0.314951
0.8762255 0.7140319 0.3444853
0.9627451 0.75 0.375
0.18039216 0.6519608 0.23235294
0.24007353 0.6702206 0.23848039
0.34632355 0.6877451 0.25931373
0.48002452 0.7147059 0.28125003
0.60833335 0.7357843 0.29705882
0.72683823 0.74987745 0.3262255
0.8129902 0.7710784 0.35343137
0.9029412 0.7987745 0.38897058
0.9852941 0.82549024 0.42058825
0.24754903 0.7598039 0.25735295
0.26758578 0.7646446 0.25980392
0.34460786 0.7772059 0.27279413
0.46930146 0.79558825 0.29105395
0.60808825 0.8176471 0.31936276
0.735478 0.8393995 0.34791666
0.8344363 0.8563725 0.38186273
0.9108456 0.87107843 0.41580883
0.9882353 0.9014706 0.4519608
0.3254902 0.8509804 0.27058825
0.31911767 0.84950984 0.27450982
0.3607843 0.85 0.28921568
0.45980394 0.86323524 0.3151961
0.6039216 0.88235295 0.34509805
0.73872554 0.90637255 0.38039216
0.84411764 0.92352945 0.40980393
0.92647064 0.94215685 0.44950983
0.9960785 0.9607843 0.4862745
0.08382353 0.09558824 0.15588236
0.14460784 0.10526961 0.17150736
0.21286765 0.1127451 0.18235295
0.2829657 0.122242644 0.19283089
0.364951 0.13333334 0.1995098
0.44509804 0.13903187 0.20851716
0.5327206 0.15367648 0.23026961
0.61243874 0.1632353 0.24534315
0.6936275 0.1754902 0.26519608
0.09411765 0.1711397 0.20557599
0.17877604 0.19114584 0.2080959
0.25104168 0.20052083 0.22051165
0.32663146 0.20955883 0.22552848
0.40989584 0.222212 0.23388481
0.49498314 0.2339614 0.24766392
0.5797641 0.25464156 0.26283702
0.6657093 0.2731771 0.2834942
0.7406863 0.28909314 0.2990196
0.10453431 0.26678923 0.21703433
0.19469975 0.28728557 0.22486213
0.29963237 0.30609682 0.23805149
0.38186276 0.31655943 0.24571079
0.47212008 0.32898283 0.25526962
0.5594516 0.34704354 0.27086398
0.6519608 0.36810663 0.28777575
0.7368566 0.39197305 0.30716914
0.8223039 0.4172794 0.33786765
0.11783089 0.35361522 0.23780638
0.21659774 0.38824293 0.26241577
0.32391238 0.4060662 0.27297795
0.43524814 0.4216682 0.28292742
0.52708334 0.43054536 0.29191178
0.6186964 0.44877452 0.30887717
0.7125 0.4752604 0.32898286
0.8040211 0.502834 0.3542586
0.8833946 0.5291054 0.37714463
0.12794119 0.45857844 0.26862746
0.22585784 0.4916054 0.2783701
0.33682597 0.51323533 0.29270834
0.45477945 0.5326593 0.29987746
0.57046574 0.5457108 0.31470588
0.6695466 0.56458336 0.33186275
0.7603554 0.59062505 0.34950978
0.8487439 0.6205883 0.38164827
0.93602943 0.6504902 0.41029412
0.13541667 0.56250006 0.28265932
0.22646293 0.589591 0.29074755
0.3448989 0.6130974 0.30749083
0.47012872 0.63520986 0.32040444
0.5961091 0.6545649 0.3370711
0.6953508 0.66619945 0.3551241
0.78860295 0.69499075 0.3799939
0.877405 0.7218137 0.4074219
0.96213233 0.75643384 0.43578434
0.14914216 0.6512255 0.31262255
0.2425245 0.68106616 0.32314646
0.35591298 0.70398283 0.34301472
0.48566175 0.7278799 0.351057
0.6186275 0.74558824 0.3704044
0.7274816 0.75900733 0.390625
0.8160233 0.78174025 0.41902572
0.9035692 0.80841 0.45156252
0.98541665 0.83357847 0.48088235
0.18786766 0.75349265 0.32665443
0.27310815 0.7722657 0.32465535
0.35188422 0.7857077 0.3382353
0.4751532 0.80411303 0.35651043
0.6162071 0.8265319 0.38339463
0.73939186 0.84411 0.40644914
0.83650434 0.8599724 0.43912375
0.90922177 0.87536764 0.47148436
0.98884803 0.90539217 0.5069853
0.23872548 0.8480392 0.34313726
0.3278799 0.8582721 0.33596814
0.37156862 0.86176467 0.34938726
0.47279412 0.8689338 0.37242645
0.6071079 0.8911765 0.40490198
0.7419731 0.9110907 0.4351103
0.8517157 0.93002456 0.4675245
0.9289216 0.94662994 0.50306374
0.99215686 0.9632353 0.5416667
0.092156865 0.09803922 0.20490196
0.15306373 0.10526961 0.22340687
0.22401962 0.11348039 0.24044117
0.29950982 0.121691175 0.2577206
0.3779412 0.13137256 0.2627451
0.46678925 0.13762257 0.2897059
0.55980396 0.15294118 0.3029412
0.6644608 0.16164216 0.3334559
0.7607843 0.1754902 0.3607843
0.09509804 0.1694853 0.25710785
0.17765012 0.19021139 0.26753983
0.2603554 0.19659927 0.28474265
0.34281558 0.20801166 0.29434744
0.42285538 0.21917892 0.30471814
0.514905 0.23278186 0.32397366
0.60857844 0.25349265 0.3443015
0.70810354 0.27294734 0.3724724
0.79375005 0.28933823 0.39509803
0.106862746 0.26936275 0.30857846
0.18958333 0.290962 0.31133577
0.28553924 0.31164217 0.31960785
0.37757352 0.32080272 0.32935053
0.4704657 0.33210784 0.3389706
0.5603247 0.34503677 0.34856004
0.6534927 0.37003678 0.3680147
0.75030637 0.40379903 0.39531252
0.8426471 0.43137255 0.42794117
0.11691177 0.35857844 0.33308825
0.20519301 0.38697916 0.3455423
0.31467524 0.4124081 0.36158088
0.43259805 0.42610294 0.3679075
0.5281863 0.4346201 0.3791054
0.6213082 0.45166975 0.391682
0.7121936 0.4791054 0.4128064
0.81521136 0.5158242 0.44174325
0.9031863 0.5425245 0.4651961
0.124019615 0.46666664 0.35588235
0.21427695 0.4920956 0.36703432
0.3314951 0.5229167 0.38112745
0.45612746 0.5387255 0.39540443
0.56911767 0.5536765 0.4031863
0.6690564 0.57218146 0.41458333
0.7644608 0.59877455 0.43762258
0.857353 0.6303309 0.4632966
0.9436275 0.66176474 0.49313727
0.12818629 0.56666666 0.37598038
0.21786152 0.5978401 0.3842065
0.34329045 0.62604165 0.3935662
0.46568626 0.64696693 0.4076746
0.59503675 0.6630515 0.42064953
0.69477636 0.6720435 0.4374081
0.7885723 0.69730395 0.45772058
0.8768842 0.72752756 0.4846201
0.9680148 0.7651961 0.51654416
0.13308825 0.65906864 0.3987745
0.23155637 0.69007355 0.40971202
0.3550858 0.7172182 0.42414215
0.48921567 0.7374387 0.43857232
0.6229167 0.7547794 0.4550245
0.72968745 0.77095586 0.46893382
0.8174632 0.78223044 0.49246323
0.9058517 0.812929 0.520864
0.98823535 0.83946085 0.55171573
0.14203432 0.75465685 0.40857843
0.23681067 0.7741269 0.41240808
0.36504292 0.79718137 0.4213848
0.48448223 0.817019 0.438174
0.6240809 0.8360907 0.45661765
0.7472733 0.851394 0.48193935
0.8387562 0.8674939 0.5095895
0.91181064 0.8822917 0.5408242
0.9917892 0.9128676 0.57046574
0.16862746 0.84313726 0.42549017
0.2702206 0.85968137 0.42745095
0.39656866 0.87279415 0.4343137
0.49215686 0.88284314 0.45085785
0.62205887 0.90588236 0.4754902
0.75502455 0.92058825 0.50796574
0.8522059 0.93357843 0.53455883
0.9295343 0.95183825 0.56102943
0.9882353 0.9656863 0.6029412
0.09411765 0.105882354 0.252451
0.15508579 0.10949755 0.27371326
0.22230393 0.11678922 0.29681376
0.30674022 0.12199755 0.3170956
0.39117646 0.12965687 0.33063728
0.48474264 0.14025736 0.34846815
0.5925245 0.14987746 0.39178923
0.70686275 0.15980393 0.4223652
0.8127451 0.16862746 0.4642157
0.0978554 0.17389706 0.30208334
0.18080576 0.19221814 0.32873777
0.25844058 0.19528186 0.33821997
0.3482307 0.20126379 0.36397827
0.43661153 0.20998774 0.37594977
0.53231466 0.2257506 0.39597887
0.6290441 0.2408701 0.4216146
0.7376915 0.2615273 0.45771295
0.8405025 0.28149512 0.4894608
0.10502451 0.2664216 0.3601716
0.18832721 0.29022673 0.37429535
0.28618264 0.3056679 0.38262868
0.38696384 0.3136336 0.40211397
0.48161766 0.32518384 0.4155637
0.5790594 0.34139097 0.4313572
0.675337 0.3673407 0.4522059
0.77812505 0.39738053 0.4829657
0.8773284 0.42965686 0.5166667
0.11678922 0.36035544 0.42175245
0.19569547 0.39011183 0.43643534
0.30001536 0.41410846 0.4467065
0.42621017 0.43046877 0.45559132
0.5174326 0.43936887 0.4635723
0.6163603 0.4547335 0.4739124
0.7167586 0.47947302 0.4949908
0.8188955 0.52064955 0.52188265
0.9112745 0.5590687 0.5493873
0.12132354 0.4671569 0.45563725
0.20848653 0.49871325 0.4639093
0.31746325 0.5251226 0.4783701
0.44662994 0.54969364 0.48480392
0.5650736 0.56004906 0.49375
0.66519606 0.57665443 0.5067402
0.7612745 0.60085785 0.519853
0.85958946 0.6380515 0.5486826
0.955147 0.677451 0.5803921
0.118566185 0.5744485 0.47506127
0.21514247 0.60317093 0.48239124
0.32769608 0.63250613 0.49114585
0.46582416 0.6564185 0.50662535
0.5916667 0.67006737 0.51458335
0.6971737 0.6798024 0.5255592
0.78553927 0.70677084 0.5367494
0.87766546 0.73534006 0.56291366
0.9651348 0.7745098 0.6009804
0.12696078 0.66813725 0.4968137
0.22051165 0.6985294 0.5119179
0.3450061 0.72205883 0.5197304
0.48817402 0.7530178 0.5372243
0.62138486 0.76593137 0.5503063
0.7310815 0.77826285 0.56432295
0.814614 0.78976715 0.5770221
0.9067249 0.8200521 0.5999847
0.9909314 0.84656864 0.62328434
0.12267157 0.75784314 0.5028799
0.22032015 0.78188574 0.5128753
0.3456189 0.8070466 0.51770836
0.49303767 0.8289216 0.5256204
0.6377145 0.8483763 0.55036765
0.7539445 0.86135876 0.5657323
0.83987445 0.8729473 0.58768386
0.91360295 0.8878753 0.6096201
0.99197304 0.91617644 0.6380515
0.12450981 0.8397059 0.5205883
0.22512254 0.8604779 0.51531863
0.35784313 0.87806374 0.52401966
0.5070466 0.8990196 0.5327819
0.6433824 0.9122549 0.5568627
0.76378673 0.928554 0.5808211
0.86127454 0.9490196 0.60600495
0.9344363 0.9573529 0.62984073
0.9950981 0.9730392 0.66078436
0.09411765 0.11176471 0.3019608
0.15269609 0.11446078 0.32941177
0.22303921 0.11960785 0.3485294
0.30833334 0.1252451 0.37352943
0.40490198 0.12843138 0.40490198
0.49754906 0.13700981 0.43039215
0.60539216 0.14460784 0.4622549
0.72303915 0.15220588 0.5041667
0.8509804 0.1627451 0.54901963
0.102696076 0.17107844 0.3507353
0.17723653 0.19053309 0.38014704
0.25692403 0.19295344 0.39368874
0.3417586 0.1989277 0.41746324
0.44436276 0.20122549 0.4466912
0.5410846 0.21323529 0.47077206
0.64889705 0.23088235 0.5002451
0.7623468 0.2484988 0.5418505
0.8745098 0.2625 0.58750004
0.11127451 0.26029414 0.40931374
0.18302697 0.28412992 0.43014705
0.28517157 0.30441177 0.44595587
0.37763482 0.30980393 0.46452203
0.4875 0.31127453 0.4897059
0.58884805 0.3238358 0.5117035
0.69252455 0.34852943 0.5354167
0.79779416 0.37579656 0.5669731
0.9102942 0.4083333 0.61372554
0.11176471 0.3495098 0.47254902
0.19430147 0.38048407 0.49442405
0.29497552 0.40796572 0.51096815
0.41035542 0.42135417 0.51384807
0.52463233 0.42561275 0.54129905
0.62898284 0.4421262 0.5590687
0.7271446 0.46770835 0.5772059
0.8302083 0.5044118 0.6034927
0.9303922 0.5397059 0.64166665
0.116666675 0.46666667 0.54019606
0.20196079 0.49767157 0.5534314
0.30392158 0.5281863 0.5644608
0.42745095 0.5500001 0.5720588
0.5588236 0.5632353 0.5803922
0.66090685 0.57708335 0.5855392
0.76029414 0.6051471 0.604902
0.8574755 0.63982844 0.6287991
0.95686275 0.6843137 0.66078436
0.12132354 0.582353 0.56348044
0.20680147 0.6121017 0.58174026
0.31887257 0.63909316 0.5881128
0.4512868 0.66200984 0.60128677
0.5904412 0.6789216 0.6044118
0.6928003 0.69261646 0.610815
0.78676474 0.7117035 0.62444854
0.88026965 0.7421262 0.64448535
0.97156864 0.7857843 0.677451
0.1254902 0.6686275 0.6019608
0.21832108 0.7049632 0.6083946
0.3344363 0.7308824 0.6193628
0.47224265 0.75943625 0.6290441
0.6193627 0.77843136 0.6387255
0.72947305 0.78817403 0.6471201
0.81519616 0.7973039 0.6567402
0.9011029 0.8251226 0.6776961
0.98774505 0.85882354 0.702451
0.1129902 0.7703432 0.60220593
0.21014093 0.79457724 0.6109375
0.34025738 0.81795347 0.6219976
0.48256743 0.83872545 0.6262561
0.63933825 0.8571078 0.63590693
0.75465685 0.87129295 0.6508885
0.8457721 0.8846201 0.67291665
0.91326594 0.8952513 0.6877451
0.9914216 0.9230392 0.7083334
0.111764714 0.845098 0.61960787
0.20147058 0.86764705 0.6151961
0.3387255 0.8882353 0.62205887
0.4970588 0.9085784 0.6294118
0.65588236 0.9284314 0.6421569
0.77156866 0.9426471 0.66053927
0.86715686 0.9568627 0.68284315
0.93872553 0.9671569 0.70367646
0.99215686 0.97450984 0.72745097
0.10147059 0.11372549 0.35931373
0.15490197 0.12107843 0.37855393
0.22279412 0.12254902 0.40404412
0.2998162 0.12683824 0.4247549
0.40024507 0.13308825 0.46617648
0.5176471 0.12990198 0.49859074
0.627451 0.13958333 0.53909314
0.7495098 0.14381129 0.58382356
0.877451 0.14215687 0.6362745
0.10373775 0.16666667 0.39307597
0.16865043 0.18352482 0.4211167
0.24427083 0.18714768 0.44116116
0.32655483 0.18764554 0.4643306
0.43072918 0.19405636 0.49295348
0.5453814 0.18979013 0.536489
0.6529565 0.20317096 0.57437193
0.7739583 0.2183747 0.61087626
0.89901966 0.23468137 0.66109073
0.111887254 0.24803923 0.4474265
0.17403492 0.26772368 0.46945465
0.26770833 0.2893995 0.49417892
0.36343443 0.28641242 0.51567096
0.4695466 0.28792894 0.5434437
0.59085476 0.28910846 0.57634807
0.6993873 0.30879292 0.60799634
0.81380206 0.33651963 0.6467065
0.92671573 0.36188728 0.69693625
0.11887255 0.32898286 0.5099265
0.18432139 0.35286456 0.53735447
0.27536765 0.37153798 0.55307907
0.38583794 0.39313728 0.5635493
0.50079656 0.39197305 0.59261644
0.624686 0.397595 0.6230852
0.7340686 0.41806063 0.6471048
0.83597577 0.45808825 0.6789216
0.94601715 0.49264708 0.7185049
0.11960785 0.44338235 0.5776961
0.1860907 0.4758885 0.5988971
0.28768384 0.50968134 0.62003684
0.40563726 0.5251225 0.6316483
0.5363971 0.53811276 0.6360294
0.6603554 0.5436275 0.66142774
0.764277 0.5686275 0.6840074
0.86302084 0.605239 0.7118566
0.9659314 0.6480392 0.74289215
0.1158701 0.57659316 0.6433211
0.19507506 0.60966605 0.664683
0.30787376 0.6410999 0.67244184
0.43836552 0.6642233 0.68468904
0.57215077 0.6851103 0.68823534
0.690311 0.69449294 0.69391084
0.78511035 0.71787685 0.70390624
0.87814033 0.7481465 0.72072613
0.97248775 0.7936274 0.76047796
0.112132356 0.6719363 0.67132354
0.20453432 0.7051624 0.69635415
0.32126227 0.7348958 0.7091912
0.45998776 0.7640472 0.7169883
0.60649514 0.783027 0.7216912
0.7251532 0.7948989 0.7240962
0.81424636 0.8045343 0.73587626
0.9023284 0.83143383 0.75309443
0.99215686 0.8617647 0.77132356
0.10625 0.7692402 0.69448525
0.19875918 0.79901963 0.70064336
0.3308977 0.8258885 0.7065717
0.47860754 0.8464844 0.717716
0.630913 0.86685055 0.72352946
0.75591296 0.88182443 0.7333946
0.8456342 0.89345896 0.7457261
0.9123774 0.9018229 0.7572764
0.9923407 0.9291054 0.78137255
0.09852941 0.8544118 0.71127456
0.19620098 0.878125 0.71158093
0.33112746 0.9039216 0.7150735
0.48915443 0.92156863 0.7304535
0.6504902 0.9401961 0.7321078
0.78425246 0.952451 0.74129903
0.8714461 0.9617647 0.7553922
0.9408701 0.9723652 0.76979166
0.9960785 0.9838235 0.795098
0.105882354 0.11862746 0.40980393
0.15183824 0.12585784 0.42622548
0.22107843 0.13259804 0.45563728
0.30759805 0.13210785 0.48333335
0.40931374 0.13627452 0.51911765
0.52340686 0.13345589 0.5568628
0.64191175 0.13333334 0.60171574
0.766299 0.13627452 0.6503677
0.890196 0.13627452 0.7058823
0.105147064 0.16875002 0.43566176
0.15975797 0.17686889 0.45966607
0.23201592 0.17928922 0.4900429
0.31798407 0.18120405 0.5079963
0.41727942 0.1831495 0.53731626
0.5376379 0.1771293 0.5818934
0.66041666 0.17772672 0.626103
0.78590685 0.18534008 0.67999387
0.90772057 0.18848039 0.72610295
0.1122549 0.23455882 0.47843134
0.16724879 0.2439951 0.50364584
0.24454658 0.25943628 0.5280637
0.3362439 0.26299018 0.5497549
0.4449755 0.25796568 0.5813726
0.57058823 0.25346202 0.61807597
0.69712013 0.25251228 0.6651961
0.81642157 0.27411154 0.71072304
0.93578434 0.2987745 0.7583333
0.11397059 0.30882353 0.5354167
0.17031251 0.3211091 0.5599265
0.24617036 0.3422794 0.58406866
0.35436583 0.35764402 0.6013327
0.4644608 0.35422796 0.6257353
0.59469974 0.35151654 0.66447616
0.72291666 0.35067403 0.70579046
0.8370864 0.38334867 0.74231005
0.9522059 0.4197304 0.7875
0.11813726 0.41029412 0.6058824
0.1757353 0.43762255 0.62463236
0.26188728 0.45772058 0.6469363
0.37224266 0.47634804 0.66311276
0.50171566 0.49215686 0.6735294
0.625 0.489277 0.706924
0.7623775 0.4957108 0.7466912
0.86875 0.52861524 0.7757966
0.96911764 0.56911767 0.8117647
0.11691177 0.5430147 0.6791667
0.18515626 0.56936276 0.69276965
0.28137258 0.6004596 0.7156557
0.40193015 0.62386644 0.7257966
0.5359682 0.64307606 0.7360907
0.6608609 0.65280336 0.7380822
0.789951 0.65753675 0.7710784
0.8913144 0.68880206 0.79525125
0.9817402 0.72879905 0.827696
0.105147064 0.66102946 0.74313736
0.19393381 0.69319856 0.76106006
0.30667892 0.7264094 0.7742647
0.44181985 0.75652575 0.78719366
0.579902 0.7735294 0.7882353
0.7052083 0.78893995 0.79194236
0.803125 0.79601717 0.7936887
0.89754903 0.82297796 0.8151041
0.98774505 0.8534314 0.8321079
0.099509805 0.7682598 0.77205884
0.19220282 0.7991422 0.77601105
0.32110906 0.82898283 0.78851104
0.46996018 0.853799 0.7961244
0.6229167 0.87303925 0.8038603
0.7540901 0.88965994 0.8114737
0.8460172 0.8992647 0.8105698
0.9142923 0.9090074 0.8232384
0.99252456 0.93504906 0.8398285
0.08921569 0.8539216 0.78627455
0.18835786 0.8813726 0.7943628
0.31936276 0.90808827 0.7980392
0.47524512 0.92512256 0.8034314
0.64607847 0.9480392 0.8122549
0.7796569 0.9602941 0.81740195
0.87328434 0.9688726 0.8242647
0.94669116 0.9764706 0.8357843
0.9960785 0.9852941 0.85
0.108333334 0.12941177 0.46617648
0.1567402 0.13425246 0.47579658
0.22389707 0.13688727 0.50196075
0.3086397 0.13596815 0.53743875
0.4122549 0.1379902 0.57034314
0.533701 0.13596815 0.61372554
0.6529412 0.13419119 0.66311276
0.77377456 0.1254902 0.7096814
0.8980392 0.123039216 0.76029414
0.10827206 0.16917892 0.4766544
0.16120559 0.1737056 0.5007736
0.22545956 0.17810969 0.5306986
0.30906096 0.17848499 0.5566483
0.40873164 0.17530638 0.5879902
0.5383655 0.17234989 0.6348729
0.6649663 0.16464461 0.6793659
0.78933823 0.1601103 0.7303845
0.9073529 0.16268383 0.78406864
0.11164216 0.22340687 0.51250005
0.15776655 0.23293507 0.5344057
0.22506127 0.24096201 0.56112134
0.31179535 0.239231 0.5839614
0.42205885 0.23609069 0.615625
0.5532629 0.2287071 0.6551777
0.68541664 0.2226103 0.7047488
0.81947 0.22002144 0.7595435
0.9362745 0.23553923 0.81801474
0.11519608 0.28449756 0.5529412
0.1621247 0.29827666 0.58176315
0.22907476 0.30166975 0.6019149
0.31897214 0.30963543 0.6249311
0.4275429 0.3065564 0.6540748
0.55857843 0.3011872 0.6912148
0.696247 0.29676777 0.7362592
0.83411455 0.2958793 0.794424
0.94344366 0.3166667 0.8333334
0.12009805 0.3781863 0.62205887
0.16761643 0.39702818 0.64246327
0.23155637 0.4079657 0.65882355
0.32977945 0.42071077 0.6791973
0.45281863 0.42879903 0.697549
0.58596814 0.422212 0.73238355
0.72322303 0.42230392 0.77591914
0.86335784 0.42536765 0.8246017
0.9698529 0.46078432 0.8602941
0.12089461 0.50116426 0.6992034
0.17628677 0.5280561 0.7140242
0.25405946 0.5446232 0.7278339
0.35689336 0.5577053 0.7456649
0.48627454 0.5689032 0.7560662
0.6054151 0.574617 0.76682746
0.74854475 0.57708335 0.80905336
0.89034164 0.58868724 0.84973955
0.9864583 0.6186275 0.8824755
0.10698529 0.61875004 0.76875
0.18049939 0.64218754 0.77725184
0.27248776 0.66795343 0.79129905
0.38287377 0.6870251 0.8002298
0.514951 0.6999388 0.80667895
0.6439032 0.71040136 0.81222427
0.74929535 0.7151348 0.8189645
0.8839614 0.72642463 0.8586244
0.9810049 0.75955886 0.8742647
0.09803922 0.75189954 0.8254902
0.1879902 0.78902423 0.8345205
0.3068321 0.82421875 0.84774816
0.45838696 0.85301775 0.86009496
0.61151963 0.8748468 0.86323524
0.74207264 0.8892923 0.87061125
0.8369486 0.89964765 0.87245715
0.9115809 0.90418965 0.8757659
0.99669117 0.93125004 0.8987745
0.08627451 0.8509804 0.8593137
0.18198529 0.87898284 0.85876226
0.31752452 0.9078432 0.85906863
0.47689956 0.92806375 0.86875004
0.6482843 0.95416665 0.8745098
0.7835172 0.9643995 0.8814951
0.87500006 0.9770833 0.8845588
0.9460785 0.9837622 0.88915443
0.9960785 0.9906863 0.902451
0.10980392 0.13333334 0.49411765
0.15980393 0.1397059 0.5230392
0.22254902 0.1382353 0.5441177
0.30833334 0.14117648 0.5735294
0.40980393 0.14117648 0.60784316
0.53039217 0.14117648 0.6544118
0.6637255 0.13235295 0.70490193
0.7897059 0.123039216 0.7588235
0.8980392 0.11764707 0.8039216
0.10980392 0.17156863 0.51911765
0.15827207 0.17941177 0.54509807
0.22046569 0.17941177 0.5642157
0.29791668 0.17910539 0.59540445
0.40759805 0.1747549 0.6333333
0.53903186 0.1668505 0.68033093
0.6743873 0.16066177 0.73284316
0.79754907 0.15435049 0.7856618
0.9098039 0.14264706 0.83137256
0.11372549 0.22156863 0.54607844
0.152451 0.22524509 0.56752455
0.21470588 0.22990197 0.58921576
0.29632354 0.2257353 0.61605394
0.40245098 0.21960784 0.64950985
0.53210783 0.21017157 0.692402
0.68063724 0.2009804 0.744853
0.80833334 0.1942402 0.79852945
0.93235296 0.18627451 0.85
0.11813726 0.26960784 0.5789216
0.1598652 0.28449756 0.60637254
0.21911764 0.28333333 0.62781864
0.297549 0.28523284 0.6485907
0.40073526 0.28063726 0.6776961
0.5278186 0.26960784 0.71770835
0.67291665 0.26556373 0.7677696
0.8199755 0.25637257 0.8181372
0.9490196 0.24950981 0.87892157
0.11960785 0.3509804 0.63529414
0.15857843 0.3654412 0.652451
0.21666667 0.37058824 0.6656863
0.297549 0.372549 0.6875
0.40882355 0.37156865 0.70980394
0.5382353 0.3612745 0.7509804
0.68088233 0.3539216 0.79656863
0.8269608 0.35245097 0.84607846
0.9686275 0.3490196 0.90196085
0.11029412 0.45294118 0.7004902
0.16850491 0.4766544 0.7178309
0.22463235 0.48897058 0.7275735
0.3132353 0.49417895 0.7484069
0.41740197 0.49436277 0.7612746
0.54607844 0.49705887 0.7757966
0.6843138 0.48688725 0.8137255
0.83498776 0.48498774 0.86194855
0.9764706 0.49803925 0.9142157
0.10882353 0.56372553 0.7764706
0.17745098 0.5993873 0.7905637
0.25343138 0.61838233 0.80049014
0.34901962 0.6265931 0.80919117
0.45931372 0.6308824 0.8240196
0.5828432 0.6319853 0.8261029
0.6963235 0.6392157 0.8379902
0.8389706 0.6394608 0.8786765
0.982353 0.64117646 0.92352945
0.099509805 0.7083334 0.8411765
0.18180147 0.7426471 0.8577819
0.29509804 0.7705882 0.86740196
0.41580886 0.7889706 0.8721814
0.54852945 0.8071078 0.88161767
0.67561275 0.8140319 0.8870711
0.7764706 0.8197304 0.88884807
0.8631128 0.8208946 0.89730394
0.99852943 0.83382356 0.93578434
0.08235294 0.8352942 0.90196085
0.18137255 0.86960787 0.9112745
0.30490196 0.9009805 0.9137255
0.46519607 0.9264706 0.9181372
0.6294118 0.9529412 0.92156863
0.7622549 0.9647059 0.922549
0.8637255 0.97745097 0.92647064
0.9377451 0.9882353 0.93039215
0.99215686 0.99215686 0.93333334
