assets/luts/LUTs/LEICA/LEICA SEL.cube
#Generated by PennL1 - 闲鱼号：LOOK胶片感 公众号：胶片感
TITLE LEICA SEL
LUT_3D_SIZE 33
0.023529412 0.023529412 0.023529412
0.029289216 0.029656863 0.038235296
0.04779412 0.051715687 0.06813726
0.050980393 0.057107843 0.07671569
0.055392157 0.067156866 0.08676471
0.07009804 0.076348044 0.105147064
0.08946079 0.08946079 0.12867647
0.11090687 0.11090687 0.15012255
0.12352942 0.12352942 0.1627451
0.14203432 0.14203432 0.18786764
0.1634804 0.1634804 0.21053922
0.17720589 0.17696078 0.22414216
0.20245099 0.19460784 0.24558824
0.22132353 0.2134804 0.2644608
0.23357843 0.22573529 0.2767157
0.25183824 0.2439951 0.2949755
0.26862746 0.26078433 0.31176472
0.29007354 0.2822304 0.3332108
0.3034314 0.29558825 0.34656864
0.3242647 0.31642157 0.36740196
0.34656864 0.3387255 0.3897059
0.36041668 0.35257354 0.40355396
0.37843138 0.37058824 0.42156863
0.40784314 0.4 0.45098042
0.41470587 0.40686274 0.45784315
0.4420343 0.43419117 0.48517156
0.46004903 0.45220587 0.504902
0.47916666 0.47132352 0.5241422
0.49754903 0.4897059 0.5406863
0.516054 0.5110294 0.56482846
0.5375 0.53676474 0.5852941
0.5553922 0.54828435 0.602451
0.5647059 0.5568628 0.6117647
0.028921569 0.025735294 0.044975493
0.033578433 0.03169041 0.051734835
0.042225797 0.052887563 0.080706194
0.051999085 0.062971056 0.09068628
0.06286765 0.074632354 0.10208333
0.078799024 0.08504902 0.11801471
0.10012255 0.10012255 0.13933824
0.11679687 0.11679687 0.15601258
0.1307598 0.1307598 0.16997549
0.14693627 0.14693627 0.18677236
0.16776961 0.16776961 0.2077206
0.18860294 0.1814951 0.23210783
0.20249695 0.19529718 0.24595588
0.22254902 0.21470588 0.26568627
0.23786765 0.2300245 0.2810049
0.25453433 0.24669118 0.2976716
0.27077207 0.26292893 0.31390932
0.28933826 0.28149512 0.3324755
0.30810356 0.30514708 0.35368413
0.33533242 0.32904413 0.37924707
0.3480392 0.34019607 0.39117646
0.36077285 0.3529297 0.40391013
0.38161767 0.3745098 0.42512256
0.40306374 0.39584097 0.4465112
0.42352942 0.41568625 0.46666667
0.4420343 0.43419117 0.48529795
0.46192557 0.4540824 0.5068245
0.48137257 0.4735294 0.5282591
0.4996783 0.49229476 0.54451597
0.5202972 0.51776963 0.5663565
0.5354856 0.53475034 0.5822457
0.5586129 0.5578776 0.60530406
0.576103 0.56825984 0.6231618
0.046078432 0.049264707 0.067892164
0.051401656 0.054289214 0.074249394
0.059773285 0.059773285 0.092616424
0.0698606 0.07254902 0.10449602
0.07748162 0.08704045 0.116697304
0.09249388 0.097572 0.13170956
0.11225491 0.11225491 0.1514706
0.12426471 0.12426471 0.1634804
0.13578433 0.13578433 0.17610294
0.15258119 0.15258119 0.1986443
0.17215075 0.17215075 0.21920957
0.18936121 0.18931526 0.23639706
0.20422794 0.20214461 0.2502451
0.22610295 0.21973039 0.26997548
0.24142158 0.23458946 0.28506434
0.25868568 0.2508425 0.30182293
0.27401963 0.2661765 0.31715688
0.29080886 0.28296572 0.3339461
0.31344977 0.30560663 0.356587
0.33631283 0.32961857 0.3800245
0.34859067 0.34093136 0.39181983
0.36423865 0.35782018 0.40808824
0.3823989 0.38092834 0.42872244
0.40464923 0.4021829 0.4504749
0.42536765 0.4175245 0.4685049
0.44251683 0.4346737 0.48674938
0.4631587 0.45531556 0.50841
0.48497242 0.47712928 0.5301471
0.4977635 0.4939032 0.5445466
0.5227635 0.5172411 0.57035077
0.5394302 0.53172493 0.584038
0.5596125 0.5531021 0.60348505
0.57181376 0.5654412 0.6188726
0.06654412 0.06654412 0.100122556
0.07365197 0.07365197 0.10775889
0.07794118 0.07794118 0.11715686
0.08522902 0.08522902 0.1244447
0.099708945 0.099708945 0.13892464
0.110049024 0.110049024 0.14926472
0.12241882 0.12241882 0.1616345
0.13394608 0.13394608 0.17460938
0.14546569 0.14546569 0.19111519
0.16402037 0.16402037 0.2110792
0.18000919 0.17794117 0.22603402
0.19488741 0.19250534 0.2407552
0.21297488 0.20611213 0.25660235
0.22830883 0.22830883 0.27536765
0.24397212 0.24152115 0.28980547
0.2636872 0.25584406 0.30682445
0.28149512 0.273652 0.32463238
0.2989392 0.29109606 0.34207645
0.3168888 0.30904567 0.36002603
0.33578816 0.33234912 0.38112745
0.35318628 0.3460478 0.39667585
0.3665441 0.36416206 0.4124119
0.38792124 0.38007814 0.43105853
0.41227788 0.40443477 0.4555875
0.43305758 0.42521447 0.47702205
0.44681373 0.43897057 0.48995098
0.46348807 0.4556449 0.508341
0.48627454 0.47843137 0.531836
0.5047335 0.49689034 0.55073535
0.5213887 0.5155714 0.5704734
0.53933823 0.53381586 0.58692557
0.5626034 0.5600758 0.60966223
0.5697304 0.5686275 0.6178922
0.09362745 0.09362745 0.13284314
0.09924939 0.09924939 0.13846508
0.10220588 0.10220588 0.14142159
0.10787378 0.10787378 0.14708947
0.11770833 0.11770833 0.15692402
0.1272059 0.1272059 0.16780025
0.137163 0.137163 0.17931986
0.14777881 0.14777881 0.19315258
0.16090687 0.15870099 0.20686275
0.17621017 0.17326899 0.2217984
0.19405636 0.18651961 0.23734683
0.20640318 0.19856004 0.24954045
0.22420342 0.21697305 0.2676471
0.23835784 0.23541668 0.2839461
0.25398284 0.24950981 0.29880518
0.2725184 0.26467526 0.31565565
0.28725493 0.2794118 0.33039218
0.304902 0.29705885 0.3489124
0.32205883 0.3142157 0.36565563
0.34227943 0.3344363 0.3854167
0.3615809 0.35373777 0.40471816
0.37369794 0.36585477 0.4168352
0.39632356 0.3884804 0.4394608
0.4166973 0.4088542 0.46021754
0.4327206 0.42487746 0.4776961
0.4544271 0.44658396 0.49806988
0.47083336 0.46299022 0.5165135
0.49047184 0.48262867 0.5367494
0.50931376 0.5014706 0.5558211
0.527114 0.51927084 0.5741728
0.54509807 0.5412378 0.590962
0.56314343 0.5584253 0.6100644
0.5740196 0.57156867 0.62352943
0.12058824 0.12058824 0.1634804
0.124754906 0.124754906 0.1673024
0.12617953 0.12617953 0.16608457
0.13293889 0.13293889 0.17583103
0.13746937 0.13746937 0.18036152
0.14620098 0.14620098 0.19104627
0.15477942 0.15477942 0.20183824
0.16713773 0.16472504 0.21057752
0.18082108 0.1740196 0.22356007
0.19375 0.18590686 0.23688725
0.20661764 0.1987745 0.2497549
0.21800704 0.21372549 0.2629251
0.23492646 0.22708334 0.27806374
0.25082338 0.24298024 0.29396063
0.26348042 0.25563726 0.30661768
0.27989048 0.27204734 0.32302773
0.29583335 0.2879902 0.3389706
0.31395912 0.30611598 0.35833335
0.33059895 0.3227558 0.37438723
0.34737286 0.33952972 0.39194623
0.36640626 0.35856313 0.40977326
0.3762255 0.36838236 0.41936275
0.40294886 0.3951057 0.4460861
0.4214078 0.41356462 0.46454504
0.43563113 0.427788 0.47876838
0.45588237 0.4480392 0.49973577
0.47389707 0.46605393 0.5199219
0.49190795 0.48406482 0.53786004
0.50931376 0.5014706 0.5555913
0.52931607 0.52147293 0.57505363
0.5511489 0.54330575 0.59168965
0.5621094 0.55970824 0.61012185
0.5783088 0.5764706 0.6272059
0.1504902 0.1504902 0.19754902
0.150697 0.150697 0.19743413
0.15366116 0.15366116 0.19793199
0.15908395 0.15908395 0.20614277
0.1637255 0.1637255 0.21078432
0.17088696 0.16881894 0.21691176
0.18063727 0.1762255 0.22549018
0.19001992 0.18335631 0.23149508
0.19901961 0.19117647 0.24129903
0.21090686 0.20306373 0.25404412
0.22377451 0.21593137 0.2669118
0.23324908 0.2287301 0.27804843
0.24779412 0.23995098 0.29093137
0.26371783 0.2558747 0.30685508
0.27578127 0.26793814 0.31891853
0.29072458 0.28288144 0.33386183
0.30661765 0.3009804 0.35085782
0.32323837 0.319807 0.3685815
0.3405331 0.33406863 0.38435966
0.35477942 0.35038298 0.40098038
0.37300858 0.3657169 0.41856617
0.38498008 0.37713695 0.43032324
0.4112439 0.40340072 0.4543811
0.42495406 0.4171109 0.4680913
0.4454044 0.43756127 0.48854166
0.461106 0.45402116 0.50575984
0.47719055 0.47155333 0.5254902
0.49637714 0.48956802 0.54447
0.51234686 0.5072611 0.5594057
0.53161 0.5265932 0.57902116
0.5532782 0.547641 0.5980392
0.56641394 0.56233156 0.61675096
0.5825981 0.5808824 0.6313726
0.1762255 0.17107844 0.22071078
0.1789254 0.17377834 0.2234107
0.1806296 0.17548254 0.2251149
0.18420266 0.1790556 0.22868797
0.19042586 0.1852788 0.23491114
0.19758733 0.19117647 0.24144071
0.2040671 0.19622396 0.24720436
0.20894608 0.20110294 0.25208333
0.21617648 0.20833333 0.25931373
0.22806373 0.2202206 0.27120098
0.24093136 0.23308823 0.28406864
0.25367647 0.24583334 0.29681373
0.2632353 0.25539216 0.30637255
0.2795343 0.27169117 0.32267156
0.29240197 0.28455883 0.33553922
0.30477178 0.29692864 0.34790903
0.31819853 0.31170344 0.36200982
0.33235297 0.3272059 0.37683824
0.34707415 0.34007353 0.39063266
0.366816 0.3610792 0.41100642
0.38373163 0.3762255 0.4282169
0.3994294 0.39158624 0.44391468
0.4190717 0.41122854 0.46220893
0.43452436 0.42668122 0.4776616
0.45612746 0.44828433 0.49926472
0.47282094 0.46544117 0.51776963
0.4868413 0.4803462 0.5341222
0.5045535 0.49734223 0.55103785
0.5214614 0.51852024 0.56852025
0.5422794 0.5376111 0.5903072
0.5595512 0.55305606 0.607958
0.571561 0.5673982 0.62230015
0.59203434 0.5894608 0.6416667
0.19901961 0.19117647 0.24215686
0.20294118 0.19509804 0.24607845
0.20422794 0.1963848 0.2473652
0.21090685 0.20306373 0.25404415
0.21556371 0.20772058 0.258701
0.219087 0.21124387 0.2622243
0.22346814 0.21562499 0.2666054
0.23097426 0.22313112 0.27411154
0.24142157 0.23357843 0.28455883
0.2490809 0.24123774 0.29221815
0.25827208 0.25042894 0.30140933
0.268076 0.26004905 0.31112134
0.28296572 0.26997548 0.32352942
0.2960478 0.28820467 0.33918506
0.30661768 0.29877454 0.34975493
0.31908703 0.3112439 0.36222428
0.33186275 0.3240196 0.375
0.34522063 0.3373775 0.38835782
0.35808823 0.3542892 0.40324754
0.37555146 0.3689951 0.4193321
0.39485294 0.39215687 0.44056374
0.40940565 0.40174636 0.4526348
0.4264706 0.41862747 0.46960786
0.4442402 0.43639708 0.48783702
0.46397057 0.45612743 0.51004905
0.4789216 0.47107843 0.524326
0.4952206 0.48737746 0.54019606
0.5123162 0.5044731 0.557353
0.5279412 0.52132356 0.5738971
0.5471508 0.54408705 0.5942096
0.56727946 0.56053925 0.61194855
0.58036155 0.57340693 0.6253677
0.59607846 0.5921569 0.64705884
0.22708334 0.2192402 0.2702206
0.22800627 0.22016314 0.27114356
0.2318551 0.22401196 0.27499235
0.23664214 0.22879902 0.27977943
0.23969056 0.23184744 0.28282782
0.24317555 0.23533241 0.28631282
0.24924174 0.24139859 0.292379
0.25637257 0.2485294 0.29950982
0.26541054 0.2575674 0.3085478
0.27083334 0.2629902 0.3139706
0.27879903 0.2709559 0.32193628
0.28741574 0.2795343 0.33053386
0.29808518 0.28916973 0.3406863
0.31299022 0.30514708 0.35612747
0.32176012 0.31391698 0.36489737
0.33369714 0.325854 0.3768344
0.346875 0.33903188 0.39001226
0.36201748 0.35417432 0.40515473
0.3775735 0.37057292 0.42113206
0.39091986 0.38334483 0.4341912
0.40788907 0.40111828 0.4515625
0.42452896 0.41672412 0.4676854
0.43525583 0.4274127 0.47839308
0.45561045 0.44776732 0.4988435
0.47313115 0.46528798 0.51770836
0.48869103 0.48198527 0.53667665
0.50222886 0.49914214 0.55080426
0.522798 0.51805687 0.56777346
0.5421569 0.53431374 0.58567715
0.55590534 0.55132127 0.60441184
0.57011336 0.5738741 0.6226716
0.5862095 0.58560437 0.6332759
0.6093137 0.6020834 0.6536765
0.25710785 0.24926472 0.3002451
0.26046264 0.2526195 0.3035999
0.2573989 0.24955577 0.30053616
0.259735 0.25189185 0.30287224
0.26657477 0.25873163 0.30971202
0.27082568 0.26298255 0.31396294
0.2752451 0.26740196 0.31838235
0.28210786 0.27426472 0.3252451
0.2879289 0.27457112 0.32830882
0.29227942 0.28328738 0.3348422
0.3002451 0.29240197 0.34338236
0.3125 0.30465686 0.35563728
0.32113972 0.3132966 0.36427695
0.3301471 0.32230395 0.37328434
0.3410233 0.33318016 0.38416055
0.35634956 0.34850645 0.3994868
0.36740193 0.35955882 0.41237745
0.38078278 0.37293962 0.42541358
0.3928156 0.38497245 0.4359528
0.4102788 0.40243566 0.45341605
0.42496935 0.41712624 0.47132352
0.44522825 0.4373851 0.49204198
0.4546722 0.44682905 0.49780944
0.47090995 0.46364123 0.51519614
0.48278186 0.47861522 0.53333336
0.5013481 0.4985294 0.55090386
0.5158242 0.51568633 0.5630209
0.53323376 0.53297335 0.5801624
0.5505822 0.54549634 0.5973959
0.5674709 0.56508887 0.61463696
0.58734685 0.5876992 0.6348499
0.59515166 0.59186584 0.6455883
0.6154412 0.61127454 0.6659314
0.27132353 0.2634804 0.31446078
0.27523363 0.2673905 0.31837088
0.27585784 0.2680147 0.3189951
0.27911305 0.27126992 0.3222503
0.28223038 0.27438724 0.32536763
0.2888557 0.28101256 0.33199295
0.29087776 0.28303462 0.334015
0.28859913 0.280756 0.3317364
0.30465686 0.29681373 0.34779412
0.3137255 0.30588236 0.35686278
0.3180147 0.31017157 0.36115196
0.32646677 0.31862363 0.3732843
0.33590686 0.32806373 0.379519
0.35215226 0.34430912 0.39828432
0.36367953 0.3558364 0.40690106
0.3723767 0.36453357 0.41551393
0.3809436 0.37512255 0.42794117
0.39191175 0.38796723 0.44269687
0.40747547 0.40081957 0.45298713
0.42453662 0.41669348 0.47064185
0.44155943 0.4337163 0.4884957
0.45490196 0.44705883 0.501957
0.4719363 0.46410844 0.5187577
0.489074 0.48143762 0.53233385
0.5041667 0.4963848 0.54837626
0.51678926 0.5091491 0.5638902
0.53475034 0.52702975 0.5819317
0.5496324 0.5419118 0.5947955
0.56433827 0.55669427 0.6100184
0.58566177 0.5780637 0.6327206
0.59885114 0.59732693 0.64600956
0.6143613 0.61423874 0.66154265
0.6238971 0.6238971 0.6709559
0.29754904 0.2897059 0.3406863
0.30070466 0.29286152 0.3438419
0.2987745 0.29093137 0.34191176
0.30389094 0.2960478 0.3470282
0.31176472 0.30392158 0.35490197
0.315288 0.30744487 0.35842526
0.31565565 0.3078125 0.35879293
0.32198226 0.31413913 0.3651195
0.32965687 0.32254905 0.37316176
0.335095 0.32740504 0.37830883
0.33992034 0.33299634 0.38351718
0.35162377 0.34378064 0.39476103
0.35827208 0.35042894 0.40140933
0.37242645 0.3645833 0.4163143
0.3799326 0.3723958 0.4255821
0.39189646 0.3846354 0.43532473
0.4009804 0.39656863 0.44607845
0.413557 0.40850186 0.45828736
0.42858455 0.4207414 0.4717218
0.44290745 0.43506435 0.48642772
0.45588234 0.4480392 0.49950984
0.46875 0.46090683 0.5152267
0.4852635 0.47784927 0.53186274
0.50150126 0.49944854 0.54856
0.51409316 0.5079657 0.56102943
0.5263481 0.5241881 0.5742647
0.54307604 0.5386642 0.5935662
0.55585176 0.5517004 0.6066024
0.5704044 0.56893384 0.61893386
0.59155947 0.59155947 0.6386183
0.60998774 0.60680145 0.66023284
0.6211857 0.6177084 0.6717218
0.6367647 0.6362745 0.6843138
0.32757354 0.3197304 0.37071076
0.32778034 0.3199372 0.37169498
0.33067554 0.3228324 0.3738128
0.33455884 0.3267157 0.3776961
0.33717832 0.32933518 0.38031557
0.34338236 0.33553922 0.38651958
0.34594822 0.3381051 0.38908547
0.34889707 0.34105393 0.39203432
0.35153186 0.34828433 0.3969669
0.35785463 0.35096893 0.4014706
0.36629903 0.36420035 0.4123085
0.37411535 0.3662722 0.41725257
0.3859375 0.37809438 0.42907476
0.39615119 0.38830805 0.43928844
0.40271908 0.39679074 0.44681373
0.41168046 0.4074755 0.4566368
0.42542893 0.4175858 0.47009802
0.43604857 0.42820543 0.48043045
0.4470818 0.43923867 0.4908088
0.4634153 0.45557216 0.50913376
0.47732842 0.46948528 0.52352947
0.48853403 0.48069087 0.531767
0.5022059 0.49436274 0.5455346
0.516165 0.5083219 0.562366
0.53339463 0.5255515 0.5788297
0.5440679 0.5362248 0.5885532
0.5621094 0.5550169 0.60916823
0.5750192 0.5700636 0.62416136
0.58916974 0.58716303 0.63823533
0.608207 0.60734916 0.65612364
0.62055 0.61789984 0.6702589
0.6391736 0.6381089 0.68729705
0.6487745 0.64485294 0.6997549
0.35637257 0.3485294 0.4007353
0.3563496 0.34850642 0.40304077
0.35667893 0.3488358 0.3998162
0.35975796 0.35191482 0.4028952
0.36253065 0.3546875 0.40612745
0.3660539 0.3582108 0.40984222
0.37034315 0.3625 0.4134804
0.37463236 0.36678922 0.4177696
0.38094363 0.3731005 0.42408088
0.3869409 0.37909773 0.43007812
0.39509803 0.38725492 0.43823528
0.39971662 0.39187345 0.44285384
0.40677083 0.3989277 0.45006126
0.41416976 0.4063266 0.4582644
0.42696077 0.41911763 0.47009805
0.43603706 0.42819393 0.47917435
0.44534314 0.4375 0.48909312
0.45625 0.44840688 0.4998851
0.46642157 0.45857844 0.51225495
0.48323378 0.4753906 0.5281863
0.4964767 0.48863357 0.5408395
0.5039676 0.4961244 0.5483303
0.51829046 0.51282173 0.5627298
0.5338772 0.5270681 0.5790824
0.54871327 0.54087013 0.5921569
0.5615885 0.5541667 0.6072993
0.5744026 0.57068014 0.6221507
0.586489 0.58440566 0.63563114
0.6022672 0.59834564 0.6532476
0.6197534 0.61583185 0.6707338
0.6330729 0.63134193 0.6818628
0.64926475 0.6455959 0.69999236
0.65857846 0.6546569 0.70955884
0.3805147 0.37267154 0.4259804
0.3839882 0.37614506 0.43067938
0.38589156 0.37804842 0.4290288
0.38386565 0.37602252 0.4270029
0.38895527 0.38111213 0.4329657
0.39253598 0.38469288 0.43691024
0.39677542 0.38893232 0.43991268
0.40036765 0.3925245 0.4435049
0.40465686 0.39920342 0.44898897
0.41091073 0.4035654 0.45429686
0.41774663 0.40990353 0.46088392
0.4238243 0.41598117 0.46850488
0.43034622 0.42250305 0.47377452
0.43927315 0.43143 0.48457798
0.44411767 0.43727022 0.48884806
0.45493641 0.44898513 0.49901962
0.46678922 0.45894608 0.51109076
0.4776961 0.46985295 0.5227252
0.48786765 0.4811198 0.5352941
0.5000843 0.4950789 0.5474916
0.51107544 0.5036305 0.55813426
0.523652 0.5158089 0.57071084
0.53458184 0.5328432 0.58337927
0.55355775 0.54902345 0.6033127
0.56678927 0.55894613 0.6109069
0.57616806 0.56967294 0.6245749
0.5890089 0.586106 0.6389706
0.6015587 0.5987286 0.65144765
0.61490506 0.6119792 0.66488975
0.63455886 0.63108534 0.6850912
0.64774054 0.643819 0.69872093
0.66228175 0.659804 0.71181834
0.6714461 0.6691177 0.72083336
0.4137255 0.40588236 0.45686275
0.4190564 0.41121322 0.46415442
0.41409314 0.40625 0.45919117
0.41678923 0.4089461 0.46188727
0.42107844 0.4132353 0.46544117
0.42536765 0.41752452 0.4685049
0.42745095 0.41960788 0.47058824
0.4300245 0.42218137 0.47316176
0.4343137 0.42941177 0.47892156
0.44025737 0.43302697 0.483701
0.4466912 0.43884802 0.48982847
0.4512255 0.44338232 0.4981618
0.46004903 0.4522059 0.5034314
0.46862745 0.46078432 0.5137255
0.47107846 0.4644608 0.51678926
0.48045343 0.47653186 0.5267157
0.4911765 0.4852941 0.5352942
0.50306374 0.4952206 0.5473652
0.51323533 0.5067402 0.56102943
0.5233456 0.5189951 0.5693015
0.5340687 0.52671576 0.5791667
0.5466912 0.53884804 0.59178925
0.5557598 0.5519608 0.6066177
0.57077205 0.5685049 0.6191789
0.58480394 0.5803922 0.6308824
0.596201 0.5916667 0.64522064
0.6082108 0.60625005 0.6572304
0.62205887 0.62009805 0.67107844
0.6343137 0.63235295 0.6833334
0.6513481 0.64797795 0.701777
0.6616422 0.6625 0.7142157
0.6751839 0.6753677 0.7227941
0.6882353 0.6882353 0.7352941
0.4492647 0.44607842 0.4947304
0.4507774 0.44715455 0.4961742
0.45029873 0.4424556 0.49502912
0.45269608 0.44485292 0.49742648
0.45523897 0.44739583 0.5002451
0.45587087 0.4480277 0.5002451
0.4584176 0.45057446 0.50155485
0.4604818 0.45263863 0.5051471
0.4622243 0.45438114 0.50768995
0.4692402 0.46139708 0.5127413
0.48000154 0.4721584 0.5231388
0.48313802 0.47529486 0.5301471
0.4894608 0.48161766 0.53483456
0.4976907 0.4898476 0.542582
0.5042969 0.49645373 0.5502604
0.5106273 0.5040786 0.55768615
0.51905644 0.5128064 0.56415445
0.52937734 0.5215342 0.5738971
0.53700215 0.5323606 0.58356315
0.54791665 0.5447304 0.59373087
0.55735296 0.5500919 0.60281867
0.5697304 0.55963165 0.61970747
0.57912076 0.5732613 0.6276731
0.5879864 0.5876225 0.635409
0.6022365 0.59950984 0.6520221
0.6155063 0.611332 0.66433823
0.62974113 0.6271216 0.6754902
0.6387025 0.6374656 0.68699837
0.65168506 0.64836097 0.70206803
0.6687922 0.66654414 0.718099
0.6793275 0.6816176 0.7292739
0.6885226 0.68882126 0.7358801
0.707353 0.707353 0.7497549
0.47769606 0.4723039 0.52205884
0.47267154 0.46704966 0.5171722
0.47571996 0.46787685 0.52155334
0.4761489 0.46830577 0.52198225
0.48339462 0.4755515 0.5296875
0.4836244 0.47578123 0.528845
0.48504904 0.47720587 0.52970284
0.48853403 0.48069087 0.5351716
0.48946083 0.4836397 0.5385417
0.49607846 0.48865658 0.5402497
0.50075066 0.49796265 0.54641545
0.50519305 0.4973499 0.5522519
0.5151961 0.50735295 0.5617647
0.5231848 0.51534164 0.5665901
0.5292739 0.5214308 0.57447916
0.53481925 0.5280714 0.58297336
0.5401961 0.533701 0.5879902
0.54877454 0.5409314 0.59373474
0.5546569 0.55035233 0.60272676
0.56717986 0.5665901 0.6148284
0.579565 0.5750613 0.6289829
0.5870558 0.5833334 0.63657326
0.59960175 0.5971354 0.64682907
0.6099418 0.60747546 0.6594669
0.62126225 0.6200368 0.6681985
0.63312656 0.630553 0.6779565
0.644761 0.6406863 0.6938266
0.655599 0.6522519 0.7060049
0.66697305 0.66473657 0.7162684
0.68210787 0.68176323 0.7295114
0.698269 0.698269 0.74532783
0.709421 0.709421 0.7564798
0.7191177 0.7164216 0.76642156
0.5046569 0.49681374 0.55085784
0.5057981 0.497955 0.54930305
0.5047871 0.49694395 0.55127144
0.5089308 0.50108767 0.5537876
0.5111979 0.5033548 0.55825675
0.51659775 0.5087546 0.5632545
0.5165288 0.50868565 0.56321234
0.5181373 0.51029414 0.5631855
0.5217831 0.51458335 0.5664216
0.52141166 0.51887256 0.567402
0.5269455 0.52683824 0.5739507
0.53458565 0.5267425 0.57858074
0.54322916 0.535386 0.5871171
0.54625845 0.5384153 0.5893957
0.55320925 0.5463236 0.59852946
0.55773973 0.55330884 0.6082108
0.56348044 0.5606618 0.6125
0.57387793 0.57034314 0.6222465
0.5831112 0.57892156 0.6335555
0.592762 0.5919041 0.64067864
0.60246634 0.60171574 0.65027577
0.6103209 0.61029416 0.65740657
0.6199755 0.61992186 0.6670879
0.6322304 0.6310279 0.68049175
0.64102334 0.63795954 0.6907169
0.65235144 0.6489928 0.70164293
0.6626455 0.6627451 0.7149663
0.6735984 0.6756128 0.7243873
0.6888021 0.68848044 0.73618263
0.6997626 0.6997626 0.7468214
0.7151961 0.7151961 0.75727636
0.72324604 0.72324604 0.76973045
0.739951 0.7390931 0.78786767
0.53382355 0.5259804 0.5808824
0.5339461 0.52674633 0.5805607
0.53121936 0.530239 0.5781863
0.5356311 0.5327206 0.58137256
0.5406863 0.5328432 0.5856005
0.5426011 0.53636646 0.5912684
0.54087013 0.5345282 0.58943015
0.54247856 0.5391391 0.5892157
0.54301476 0.5420343 0.58958334
0.5456189 0.5454657 0.5926011
0.5566483 0.5566483 0.60370713
0.5584712 0.5573836 0.60514706
0.563174 0.55833334 0.6127451
0.56789213 0.56155026 0.61446077
0.5773897 0.5744179 0.6242647
0.58639705 0.5790441 0.63394606
0.59093136 0.58725494 0.6382353
0.5960478 0.59371936 0.64543504
0.60579044 0.60422796 0.6544118
0.6154412 0.6126532 0.665288
0.6210172 0.6205883 0.66850495
0.6324908 0.6324908 0.67954963
0.6412071 0.63799024 0.69148284
0.6502451 0.65016854 0.69738054
0.65968144 0.6591912 0.70723045
0.6723499 0.67068017 0.7210784
0.6833946 0.6816176 0.73308825
0.69402575 0.6944853 0.7415441
0.707353 0.707353 0.7544118
0.71986824 0.71986824 0.76692706
0.73299634 0.73299634 0.77925855
0.7450674 0.7450674 0.79203427
0.7588235 0.7588235 0.8058824
0.56004906 0.5522059 0.60330886
0.5631243 0.55566025 0.61053926
0.55615044 0.5523514 0.6070083
0.55735296 0.553485 0.60817635
0.5616881 0.557644 0.6124694
0.5676624 0.5618949 0.61679685
0.5695006 0.5617111 0.61661303
0.5678922 0.562703 0.61744416
0.5707415 0.5640932 0.61875004
0.57500005 0.5706074 0.6252643
0.57951903 0.57572 0.6303769
0.58381975 0.5836972 0.6310011
0.5913144 0.5873775 0.64227945
0.59313726 0.58997786 0.6431641
0.6005668 0.599303 0.64881283
0.6081112 0.6025238 0.65742576
0.6150123 0.6110907 0.6620711
0.6219133 0.61958486 0.67130053
0.6268459 0.6256204 0.6751302
0.63605624 0.63596046 0.6772748
0.64203435 0.6386949 0.6914829
0.6539216 0.6501226 0.70477945
0.6626226 0.66250765 0.70979625
0.6717946 0.6717946 0.7188534
0.6836091 0.6836091 0.7306679
0.6936275 0.69358534 0.74072844
0.7047794 0.7047104 0.75190717
0.71342295 0.71140474 0.7625
0.7221354 0.71833646 0.77299327
0.73903954 0.73797107 0.78716683
0.7509574 0.7509574 0.79801625
0.7596699 0.7596699 0.8067288
0.7721814 0.7721814 0.8192402
0.58186275 0.5740196 0.62892157
0.5811734 0.57406557 0.62823224
0.57524514 0.57455575 0.62299323
0.5794654 0.57572 0.6302696
0.5835784 0.58103555 0.63318014
0.5841912 0.5806143 0.63138026
0.58238363 0.5750307 0.62944245
0.5872626 0.5821615 0.63689494
0.5983456 0.594424 0.64932597
0.59481466 0.59109986 0.6455882
0.5975337 0.5938573 0.648269
0.6019608 0.59828436 0.6526961
0.6104779 0.6067709 0.66124386
0.617716 0.61379445 0.6686964
0.620818 0.61804533 0.6706495
0.6244103 0.6241652 0.6717142
0.6308824 0.6306373 0.6781863
0.6375 0.63507205 0.68698686
0.6435509 0.6397978 0.69436276
0.65366113 0.64998466 0.7043964
0.66277575 0.6590993 0.7135111
0.671561 0.6678845 0.7222963
0.6805913 0.6805913 0.7276501
0.69223344 0.69223344 0.73929226
0.70116425 0.70116425 0.74822307
0.71099114 0.71099114 0.75804996
0.7223039 0.7223039 0.76936275
0.7310126 0.7290594 0.7800245
0.74215686 0.74077815 0.79059434
