assets/luts/LUTs/LEICA/LEICA VIV.cube
#Generated by Pennl1
#闲鱼号：LOOK胶片感
#公众号：胶片感
TITLE LEICA VIV
LUT_3D_SIZE 9
0.0 0.0 0.015686275
0.10980392 0.0 0.009313726
0.26568627 0.0 0.00882353
0.41617647 0.0 0.014705883
0.5411765 0.0 0.013725491
0.6671569 0.0 0.011764706
0.787255 0.0 0.015686275
0.89705884 0.0 0.010294118
0.99215686 0.0 0.007843138
0.0024509805 0.09803922 0.0024509805
0.10484068 0.102879904 0.0044730394
0.26335785 0.10416668 0.003921569
0.40447307 0.09981618 0.0014705883
0.53088236 0.10294117 0.004411765
0.65520835 0.10379902 0.0017769609
0.7785539 0.10441177 0.0023284315
0.892647 0.10104167 0.0033700983
0.99215686 0.101960786 0.0014705883
0.0 0.2627451 0.0
0.106862746 0.2689951 0.0013480393
0.2644608 0.2647059 0.003921569
0.4084559 0.267402 0.0
0.53186274 0.26862746 0.0
0.661152 0.26887256 0.0
0.78602946 0.27034315 0.0
0.8910539 0.26789215 0.0
0.9960785 0.27254903 0.0
0.0 0.39656863 0.0004901961
0.10863971 0.40422794 0.00814951
0.2702206 0.40355393 0.008578432
0.40833336 0.40398282 0.008272059
0.5328432 0.4019608 0.0073529417
0.6623162 0.40471813 0.007781863
0.7810049 0.40355393 0.0013480394
0.8892157 0.4014706 0.005208334
0.9926471 0.40294117 0.003921569
0.0 0.5254902 0.0019607844
0.10735294 0.53406864 0.003921569
0.26715687 0.532353 0.0034313728
0.4056373 0.53357846 0.003921569
0.53431374 0.532353 0.0029411765
0.6578431 0.53161764 0.0017156864
0.77794117 0.5343138 0.0004901961
0.89117646 0.5325981 0.0012254902
0.99411774 0.53137255 0.003921569
0.0 0.65588236 0.0
0.11348039 0.6602941 0.0
0.26740196 0.6596814 0.0
0.40441176 0.66017157 0.0
0.53676474 0.6598039 0.0
0.6557598 0.6598039 0.0
0.7783088 0.6602941 0.0
0.89368874 0.6590074 0.0
0.99558836 0.6627451 0.0
0.0009803922 0.77254903 0.0009803922
0.11041667 0.7765931 0.0033088236
0.2639706 0.775 0.0036764708
0.41237745 0.775 0.004289216
0.53333336 0.7774509 0.0024509805
0.66041666 0.7735294 0.0
0.782353 0.77622545 0.0029411765
0.89607847 0.7745098 0.0018382354
0.9950981 0.77549016 0.0
0.0 0.89411765 0.0
0.11648285 0.8922182 0.0
0.27107844 0.8905638 0.0
0.41194853 0.89705884 0.0
0.5348039 0.8950981 0.0
0.65655637 0.89577204 0.0
0.7829657 0.89705884 0.0
0.8969975 0.89166665 0.0
0.9936275 0.89558816 0.0
0.0 0.9960785 0.003921569
0.1122549 0.9975491 0.0
0.2647059 0.9960785 0.0
0.40833336 0.9960785 0.0
0.53333336 0.99803925 0.0
0.6666667 0.9960785 0.0
0.7803922 0.9990196 0.0
0.89460796 0.9960785 0.0
0.9960785 1.0 0.0
0.004901961 0.0 0.10980392
0.1129902 0.0 0.118750006
0.27267158 0.0 0.122671574
0.4151348 0.0012867649 0.12561275
0.5419118 0.0 0.12426472
0.6680147 0.0 0.12218138
0.7889706 0.0 0.12855393
0.89705884 0.0 0.1221201
1.0 0.0 0.12892157
0.0014705883 0.10220589 0.107230395
0.102320775 0.10574447 0.11342678
0.26426166 0.09946386 0.10916055
0.4056526 0.09209559 0.09974723
0.53057605 0.08887868 0.09120711
0.65789676 0.08759192 0.096783094
0.77712935 0.087607235 0.09192709
0.8914217 0.088342525 0.09946386
0.9951593 0.08210784 0.09748775
0.0011029411 0.26531863 0.09938726
0.09376531 0.26763177 0.08227635
0.2663603 0.26884192 0.08541667
0.40635723 0.26582414 0.08782169
0.5363358 0.2644608 0.084068626
0.65781254 0.26196384 0.08293505
0.7804534 0.26311275 0.0825674
0.89410233 0.2681679 0.086259186
0.9990196 0.26519608 0.09534314
0.0 0.40018383 0.0966299
0.091053925 0.4072381 0.1043122
0.25980392 0.41087624 0.0992494
0.40753677 0.40772063 0.09664522
0.53256744 0.40382966 0.09454658
0.66102946 0.39842984 0.09553462
0.7804074 0.39958644 0.09610907
0.89081645 0.40142462 0.094447
0.99393386 0.39901957 0.09834559
0.0 0.5311275 0.10808824
0.09083947 0.53602946 0.08777574
0.25992647 0.53443635 0.095159315
0.40759805 0.5349571 0.08673407
0.5375 0.5329657 0.089338236
0.6635723 0.5320772 0.08336397
0.78376234 0.52947307 0.0817402
0.89332116 0.5311275 0.08976716
0.99730396 0.53210783 0.09264707
0.0 0.6534927 0.10238971
0.09142923 0.6570313 0.08046875
0.25818014 0.65850186 0.079335175
0.40749082 0.658004 0.08301164
0.53290445 0.6602635 0.07821692
0.65579045 0.6597656 0.076991424
0.78056073 0.6618873 0.081341915
0.894784 0.66086096 0.08092831
0.99424016 0.6642157 0.07873775
0.0077205887 0.7727941 0.10465687
0.08918505 0.78088236 0.09854473
0.2604167 0.7800858 0.09929535
0.40753677 0.7784467 0.09394915
0.5339461 0.7797181 0.09454658
0.6634651 0.7771753 0.09132966
0.7835478 0.7807904 0.09120711
0.89347434 0.77810967 0.09802389
0.9960785 0.77438724 0.09044118
0.0 0.89111525 0.10888481
0.09140624 0.8907093 0.083256744
0.2604167 0.89322925 0.08412991
0.4066866 0.89338243 0.08191636
0.5338542 0.89411765 0.08391544
0.65974265 0.89411765 0.076784626
0.7822917 0.8943934 0.08295037
0.88926935 0.89308375 0.08294271
0.9976103 0.8955883 0.08566177
0.0 0.9960785 0.11862745
0.09313726 0.99460787 0.07677697
0.25379902 0.9954658 0.0752451
0.40085784 0.99375004 0.08094363
0.5303922 0.9965687 0.07990196
0.6598039 0.9960785 0.08302696
0.7774509 0.9952206 0.08161765
0.8931373 0.9951593 0.07720588
0.99215686 0.99852943 0.08627451
0.0029411765 0.0 0.2784314
0.11580882 0.0011029413 0.28235295
0.2762255 0.0 0.28480393
0.41960785 0.00012254901 0.28762254
0.54019606 0.0 0.28578433
0.66875005 0.0 0.28406864
0.78676474 0.0 0.28088236
0.9004902 0.0 0.2764706
1.0 0.0 0.2794118
0.0024509805 0.09669118 0.27340686
0.091130525 0.09011949 0.273269
0.2700674 0.08697917 0.27812502
0.4139859 0.086871944 0.26960787
0.5398285 0.083517164 0.27150735
0.66269916 0.082337625 0.2736826
0.785386 0.08483456 0.265625
0.89663 0.08426777 0.27045038
0.99828434 0.07904412 0.2731618
0.0036764708 0.27107844 0.27083334
0.09273897 0.2676471 0.25499386
0.2579044 0.26844364 0.2541054
0.4095282 0.26525736 0.25821078
0.53786767 0.2567402 0.24852943
0.6585478 0.24690565 0.23575367
0.78155637 0.24136028 0.23210785
0.8928002 0.24350491 0.23226103
0.99583334 0.24215688 0.24338235
0.0025735297 0.3974265 0.26176473
0.08357844 0.4058364 0.27127758
0.24577206 0.41182598 0.26194853
0.41824448 0.41122857 0.25557598
0.5424633 0.3983456 0.2651348
0.66107535 0.3939951 0.25093445
0.7799939 0.3893076 0.24828431
0.89166665 0.39149818 0.24258578
0.9988971 0.38541666 0.24705884
0.00049019605 0.5279412 0.2637255
0.08584559 0.5328432 0.25716913
0.23713236 0.53578436 0.24068628
0.40067405 0.53676474 0.23927696
0.539951 0.53676474 0.23848039
0.66433823 0.53020835 0.23976716
0.7827206 0.5291667 0.2411765
0.8964461 0.5251838 0.24050246
0.9975491 0.52254903 0.24509804
0.0 0.65379906 0.2604167
0.07912071 0.6563266 0.24791668
0.2354473 0.65925246 0.22723651
0.39280024 0.66093755 0.2269608
0.53253675 0.6608456 0.22034316
0.6621477 0.6623162 0.22858456
0.7825368 0.65637255 0.22711398
0.891636 0.654228 0.23422182
0.99644613 0.6584559 0.23223038
0.00073529413 0.77156866 0.26715687
0.08875613 0.77576596 0.26737133
0.23713236 0.779902 0.2389706
0.3916973 0.778125 0.2329657
0.5316177 0.778799 0.23909312
0.6615196 0.775919 0.23753062
0.7851717 0.77763486 0.2394608
0.89773285 0.7761642 0.23887868
0.9968138 0.7745098 0.24632354
0.0 0.89338243 0.26862743
0.0899663 0.88841915 0.25522366
0.23532474 0.89077824 0.2299326
0.39224878 0.89451593 0.22746632
0.5284926 0.892402 0.22273284
0.65782785 0.8895067 0.2252451
0.7782475 0.8930147 0.22889093
0.8990043 0.8951134 0.23131128
0.99644613 0.89620095 0.22745098
0.0029411765 0.9990196 0.2754902
0.08566177 0.9960785 0.25686276
0.23186272 0.99828434 0.22671568
0.39129898 0.99460787 0.22438726
0.5235294 0.9960785 0.2259804
0.65453434 0.9960785 0.23088235
0.7784315 0.9960785 0.22647059
0.89203435 0.99460787 0.22377452
0.99313724 0.99705887 0.23529413
0.0 0.0 0.42009804
0.11721814 0.002144608 0.42058825
0.2694853 0.0 0.42218137
0.41911766 0.0004289216 0.42212006
0.5414216 0.0 0.41715688
0.66764706 0.0 0.4167892
0.792402 0.0 0.42401963
0.9033088 0.0 0.42303917
1.0 0.0 0.43039215
0.0 0.10245098 0.40404415
0.092333026 0.08642004 0.41991425
0.26381743 0.07913604 0.42167586
0.40938267 0.083976716 0.41940102
0.539614 0.083884805 0.4146446
0.66242343 0.08412224 0.41404718
0.78111213 0.08117341 0.41067713
0.8947304 0.08302697 0.4126379
0.9966299 0.08216912 0.41176468
0.00036764707 0.2699755 0.41041666
0.09157475 0.2627298 0.40356922
0.24825369 0.24757965 0.4086091
0.41697305 0.24670653 0.41090688
0.5382353 0.24950983 0.40006128
0.6657322 0.24227943 0.3919577
0.783793 0.23860295 0.38762254
0.8966453 0.23697916 0.38707104
0.99375 0.23786767 0.38688728
0.0 0.40006128 0.4108456
0.08399969 0.40755212 0.41803768
0.24214156 0.40772063 0.42144608
0.40757507 0.3996783 0.41246936
0.53492653 0.40042892 0.41246936
0.6624694 0.39221814 0.4048407
0.7843444 0.38048404 0.39469972
0.8953049 0.37783396 0.38736212
0.9960785 0.37518382 0.3856005
0.00024509805 0.52769613 0.40980393
0.08431373 0.53269 0.40934438
0.23388481 0.53584564 0.40386033
0.39114586 0.5392463 0.3930453
0.5379902 0.54044116 0.3921569
0.66375613 0.52797186 0.40303308
0.7832108 0.52346814 0.39068627
0.89623165 0.5181373 0.3871017
0.9977941 0.5142157 0.38039216
0.0 0.65931374 0.40986523
0.08484988 0.65716916 0.39693627
0.22587316 0.6623775 0.39093137
0.3804075 0.6610371 0.37628677
0.52769613 0.6632353 0.3703738
0.6658548 0.6624924 0.37344515
0.7797181 0.65758276 0.37282473
0.89414066 0.6530254 0.37554386
0.9956495 0.64846814 0.3824755
0.0009803922 0.7745098 0.4107843
0.08838849 0.7770833 0.4104167
0.23275122 0.7778799 0.39730394
0.3747396 0.7826286 0.38765317
0.519179 0.78088236 0.37977943
0.6622396 0.7794424 0.3767463
0.78523284 0.77818626 0.37527573
0.89773285 0.77515316 0.3791667
0.99644613 0.7714461 0.38272062
0.0 0.89252454 0.40729165
0.08954504 0.8908242 0.40238208
0.23267463 0.8900583 0.38730085
0.37226567 0.89562654 0.36418504
0.5189645 0.89479166 0.37236518
0.64878213 0.89558816 0.36164984
0.77778786 0.89393383 0.36580884
0.8986902 0.8943015 0.3700444
0.9960785 0.89166665 0.3615196
0.0 0.9960785 0.40784317
0.09001226 0.99375004 0.39264706
0.22977942 0.99522066 0.38210785
0.36666667 0.9957108 0.3646446
0.5144608 0.99583334 0.3625
0.64865196 0.9960785 0.3628064
0.7764706 0.9960785 0.36286768
0.89148283 0.9960785 0.3610907
0.99215686 0.9960785 0.36176473
0.0019607844 0.0 0.5372549
0.11519608 0.0 0.547549
0.27009803 0.0 0.54607844
0.4159314 0.0017156864 0.5470588
0.5441177 0.0 0.55
0.6637255 0.0 0.5468137
0.78578436 0.0 0.54558825
0.89705884 0.0 0.5443628
1.0 0.0 0.54901963
0.0012254902 0.1 0.53455883
0.08771447 0.08743873 0.5411152
0.2615196 0.08339461 0.5458946
0.4089155 0.081893384 0.5472427
0.5350491 0.08112746 0.5449755
0.6602941 0.08385417 0.5430454
0.7813113 0.08216912 0.5411152
0.8950674 0.08183211 0.5408088
0.9965687 0.07720588 0.54607844
0.00049019605 0.26862746 0.53088236
0.08841911 0.25998777 0.53137255
0.23848039 0.24227941 0.5400736
0.40018383 0.24068627 0.5325368
0.53700984 0.23848039 0.53406864
0.6612745 0.23915443 0.52928925
0.78602946 0.2382353 0.5253677
0.89185053 0.23498775 0.5196692
0.9931373 0.23921567 0.52401966
0.0 0.39656863 0.534804
0.08624387 0.40386033 0.5405944
0.23327206 0.3987745 0.5449755
0.39080882 0.3843137 0.545527
0.54105395 0.3824755 0.5473039
0.6638174 0.38630515 0.535815
0.7874388 0.3791054 0.52996325
0.89748776 0.37423408 0.5206802
0.9977941 0.36887252 0.5196079
0.0 0.53039217 0.53627455
0.08933824 0.53112745 0.5406863
0.23431373 0.5345589 0.5433824
0.38566178 0.5375 0.5427697
0.5333333 0.53137255 0.534804
0.6629902 0.5296569 0.5359069
0.78186274 0.5230392 0.5296569
0.89350486 0.51409316 0.51948535
0.99705887 0.5088235 0.5137255
0.0017156864 0.66102946 0.52745104
0.086427696 0.6581495 0.5321998
0.23039214 0.6596201 0.52481616
0.3768995 0.66495097 0.5259192
0.5191177 0.66360295 0.51053923
0.66302085 0.6651654 0.50300246
0.7821691 0.6584559 0.51905644
0.8959559 0.6530944 0.51400125
0.99583334 0.6477941 0.50955886
0.0019607847 0.7696078 0.5382353
0.09037991 0.77947307 0.5419118
0.23014708 0.77953434 0.53382355
0.3713848 0.78241426 0.52254903
0.5098039 0.7838236 0.51323533
0.6548407 0.7832721 0.51574755
0.78602946 0.7834559 0.5109069
0.896201 0.77254903 0.51250005
0.9960785 0.76617646 0.5191177
0.0019607844 0.89485294 0.5340687
0.08900122 0.893168 0.53161764
0.2351716 0.8931986 0.5226103
0.3653799 0.89503676 0.5069853
0.5015932 0.8958333 0.4966912
0.6406863 0.8964155 0.49215683
0.7773285 0.89607847 0.4947304
0.8979473 0.8960478 0.4929228
0.99803925 0.8879903 0.492402
0.003921569 0.99803925 0.5411765
0.083333336 0.9928921 0.52156866
0.22745097 0.99460787 0.51225495
0.36421567 0.9943627 0.49926472
0.4921569 0.9960785 0.4892157
0.6333333 0.99803925 0.49019608
0.767647 0.9960785 0.48284316
0.8879903 0.99730396 0.48284316
0.99411774 1.0 0.4882353
0.00049019605 0.0 0.65637255
0.11636029 0.0 0.6745098
0.2689951 0.0 0.67757356
0.41268378 0.0 0.673223
0.5431373 0.0 0.68308824
0.6671569 0.0 0.6765932
0.7887255 0.0 0.6709559
0.902451 0.0 0.6800245
1.0 0.0 0.6745098
0.00018382352 0.0995098 0.6591299
0.08222274 0.08627451 0.6602022
0.26007965 0.086335786 0.6669271
0.4033701 0.08422947 0.6663373
0.5358762 0.08296569 0.66614586
0.6603554 0.08102023 0.66956186
0.779902 0.082797185 0.66697305
0.8922182 0.08628217 0.6662684
0.99424016 0.08345588 0.66372555
0.0 0.26286766 0.6469363
0.08941483 0.25965077 0.65790445
0.23621322 0.2425245 0.6570772
0.39643073 0.23267463 0.6580576
0.530576 0.23486519 0.65612745
0.6602175 0.23160233 0.6537837
0.7850797 0.23563112 0.6537378
0.89693624 0.23684129 0.65150124
0.9957108 0.23786767 0.65686274
0.0 0.40042892 0.65539217
0.088978246 0.40030637 0.6705499
0.23144914 0.38976717 0.6714614
0.3778263 0.3699831 0.6688266
0.52763486 0.37071076 0.6791054
0.66597736 0.36955422 0.6689338
0.78946084 0.3700214 0.66487443
0.8987438 0.3708563 0.6607384
0.9965687 0.36654413 0.65496325
0.0 0.5289216 0.6544118
0.08535539 0.5310662 0.66014093
0.23210783 0.53155637 0.66311276
0.37405023 0.5239583 0.66311276
0.517647 0.51507354 0.66433823
0.66351104 0.5165135 0.6661765
0.7873774 0.51507354 0.6579657
0.89715075 0.5137255 0.64865196
0.99460787 0.50808823 0.6482843
0.0030024513 0.65931374 0.6571079
0.08694853 0.6583487 0.65655637
0.23779106 0.66124386 0.65658706
0.3791667 0.66286767 0.6638328
0.51559436 0.6634804 0.6610601
0.6586168 0.66268384 0.6571615
0.7757353 0.6591912 0.653508
0.8939951 0.66053927 0.65195316
0.9956495 0.6539829 0.6496324
0.0008578432 0.7714461 0.65882355
0.086611524 0.7783701 0.66697305
0.2303309 0.7797488 0.67101717
0.37058827 0.7816636 0.6647519
0.5079657 0.78394616 0.6575981
0.6409773 0.7811734 0.64941794
0.7852636 0.7852941 0.6512868
0.89771754 0.7724418 0.6612898
0.99644613 0.7705883 0.652451
0.0 0.89393383 0.66556376
0.08507966 0.89479166 0.65487134
0.23154104 0.8936427 0.6489583
0.36814493 0.8958562 0.64297646
0.494087 0.89558816 0.6338848
0.63196236 0.89935666 0.629519
0.77322304 0.8984222 0.62944245
0.89662224 0.8972886 0.627811
0.9960785 0.8939951 0.63841915
0.0 0.9995099 0.6642157
0.08412991 0.99932605 0.6525735
0.22879903 0.99522066 0.64142156
0.36176473 0.9960785 0.63933825
0.489951 0.9975491 0.62916666
0.6273897 0.99558836 0.6227329
0.7618872 0.99522066 0.6194853
0.88547796 0.9960785 0.6140931
0.99558836 0.9960785 0.62892157
0.0009803922 0.0 0.78529423
0.115931384 0.0 0.7931373
0.27279413 0.0 0.79289216
0.41924024 0.0 0.79178923
0.5431373 0.0 0.7921569
0.6680147 0.0 0.7900736
0.78651965 0.0 0.79387265
0.90343136 0.0 0.7968137
1.0 0.0 0.79901963
0.0006127451 0.097303934 0.7829657
0.085615814 0.08457415 0.7856158
0.26219362 0.08143383 0.7931067
0.40909925 0.07991728 0.78780645
0.53382355 0.08106618 0.79123765
0.66141236 0.080790445 0.79397976
0.7816789 0.08069853 0.78740805
0.89659935 0.08172488 0.79059446
0.9960785 0.08272059 0.7949755
0.0009803922 0.26666665 0.7759804
0.08587623 0.2577819 0.77738965
0.2351103 0.23174019 0.7803922
0.39056376 0.23379289 0.77705264
0.52524513 0.23039216 0.77818626
0.6589461 0.23112746 0.77812505
0.7786151 0.23167889 0.7720588
0.8932599 0.23235293 0.77356005
0.99313724 0.23627451 0.77132356
0.0 0.40012255 0.7724265
0.08238359 0.3985294 0.7854473
0.22273284 0.3878064 0.7882047
0.36956188 0.36896443 0.79231006
0.51776963 0.36636028 0.79448533
0.6581955 0.36631432 0.7908088
0.7828432 0.36568624 0.7876532
0.8980392 0.36691177 0.78616726
0.99620104 0.36495098 0.778554
0.0004901961 0.5284314 0.7838236
0.084987745 0.53094363 0.78290445
0.23296568 0.52830887 0.78602946
0.37126225 0.5151348 0.7857231
0.50416666 0.50686276 0.7855392
0.6509804 0.50330883 0.78970593
0.78419113 0.5019608 0.78419113
0.8982843 0.50625 0.782353
0.9965687 0.5029412 0.7759804
0.00012254901 0.65882355 0.7785539
0.08794425 0.6557598 0.7792432
0.23201591 0.6591299 0.7791054
0.3706648 0.6548101 0.78759193
0.50410545 0.65477943 0.7803922
0.6436581 0.6506281 0.7805301
0.7845895 0.6473346 0.77882963
0.8988817 0.6467678 0.7750306
0.9935049 0.64460784 0.7707108
0.0046568634 0.77377456 0.7806372
0.082352936 0.77723646 0.78851104
0.23314953 0.779228 0.792402
0.37426472 0.7799326 0.7944547
0.5060049 0.78321093 0.7926471
0.6430147 0.7793199 0.787837
0.7742034 0.775919 0.7864584
0.8973652 0.7774203 0.79353553
0.9960785 0.7718138 0.7855392
0.0 0.89350486 0.7838236
0.08602942 0.89051783 0.7792738
0.23219976 0.8922182 0.77772677
0.37043503 0.8939185 0.77475494
0.5 0.8964461 0.77463233
0.6359988 0.89440876 0.7696845
0.76911765 0.8975184 0.76384807
0.90044427 0.8980392 0.7679228
0.9975491 0.8944853 0.7773285
0.0 0.9990196 0.7852941
0.08492647 0.9949755 0.7753676
0.2245098 0.9960785 0.77254903
0.35772058 0.99644613 0.76642156
0.4887255 0.9960785 0.7656863
0.62487745 0.99558836 0.76053923
0.7561275 0.9953432 0.759804
0.88321084 0.9957108 0.7515932
0.9960785 0.9990196 0.759804
0.0014705883 0.0 0.9009804
0.11997549 0.0 0.9079044
0.2720588 0.0 0.90821075
0.41783088 0.0 0.90998775
0.5438726 0.0 0.9110294
0.66917896 0.0 0.9103554
0.7889706 0.0 0.91164213
0.9028187 0.0 0.9088235
1.0 0.0 0.90637255
0.0009191177 0.09889706 0.8969975
0.08779872 0.0830193 0.8978478
0.26141238 0.08120405 0.9068168
0.40417436 0.081426166 0.903217
0.5318628 0.08020834 0.90621936
0.6619715 0.08177084 0.90469515
0.7799786 0.07866115 0.90205276
0.8988205 0.079695165 0.9058364
0.9960785 0.07873775 0.9061887
0.0024509805 0.26850492 0.8968137
0.086917885 0.25788912 0.8868259
0.2270221 0.23342524 0.89142156
0.38638175 0.23212315 0.8950981
0.5254902 0.23161766 0.89252454
0.6541667 0.23123467 0.8912991
0.7798407 0.23235296 0.8901349
0.894807 0.23290442 0.8909773
0.9966912 0.23382352 0.8977942
0.0 0.40110293 0.8944853
0.082896754 0.4014706 0.90067405
0.22362132 0.38910845 0.9016238
0.36992183 0.3615809 0.901394
0.51341915 0.3609375 0.9125
0.65034467 0.3611673 0.90333176
0.77460176 0.35912994 0.90378374
0.89153653 0.36194092 0.90795034
0.99393386 0.3636642 0.90232843
0.00073529413 0.53063726 0.8931373
0.08719363 0.5304228 0.8935355
0.22867647 0.5217525 0.89895827
0.36464465 0.5098345 0.8963542
0.49705887 0.4952206 0.8974265
0.643076 0.493076 0.9016238
0.7710172 0.49295345 0.8982843
0.89702815 0.4943015 0.89905024
0.9960785 0.49558824 0.89411765
0.0 0.6591912 0.89460784
0.083501846 0.65948987 0.8876838
0.22925858 0.6537377 0.8901041
0.3724188 0.6476869 0.8979934
0.50156254 0.6378676 0.89460784
0.63161767 0.6333333 0.8940334
0.7718751 0.63377756 0.8944547
0.896515 0.63322616 0.89501387
0.9960785 0.6374387 0.8934436
0.0009803922 0.7735294 0.89938724
0.08999694 0.7745098 0.9043965
0.2311581 0.7741421 0.9026347
0.36490503 0.7742494 0.9032322
0.49387252 0.7697304 0.9066789
0.6351409 0.7647825 0.903462
0.76519614 0.7643689 0.90156245
0.896829 0.7646446 0.9067708
0.9926471 0.7655637 0.8965687
0.0 0.8916054 0.8982843
0.08728555 0.89109236 0.89147514
0.22765014 0.89468443 0.8944853
0.36836705 0.8953584 0.8921952
0.4987745 0.8973652 0.89469975
0.63783705 0.8952972 0.89367336
0.76746327 0.8969209 0.8936121
0.89371175 0.8956112 0.8988051
0.9960785 0.8961397 0.9001225
0.0 0.9960785 0.902451
0.08265932 0.9960785 0.893076
0.23186274 0.9960785 0.88811284
0.36433825 0.9972427 0.88933825
0.49632356 0.99803925 0.8835785
0.63069856 0.9960785 0.89050245
0.75808823 0.9971814 0.88357836
0.88829654 0.99215686 0.8868873
0.9936275 0.9975491 0.89117646
0.0 0.0 0.9960785
0.11764707 0.0 1.0
0.27254903 0.0 0.9990196
0.41176468 0.0 1.0
0.5372549 0.0 0.99803925
0.6637255 0.0 0.9965687
0.78529423 0.0 1.0
0.89705884 0.0 1.0
1.0 0.0 0.9960785
0.0 0.09558824 0.99460787
0.086335786 0.08535539 0.9981618
0.25588235 0.08235294 0.9954658
0.40036765 0.078615196 0.9960785
0.53382355 0.08039216 0.9953432
0.6606005 0.07910539 0.9972426
0.7822304 0.07941177 0.9969363
0.8931986 0.07928922 0.9969976
0.9960785 0.07450981 0.99852943
0.003921569 0.26960784 0.9950981
0.08492647 0.2599265 0.9914216
0.22769609 0.235049 0.99191177
0.38529414 0.23002452 0.98958325
0.52205884 0.23186274 0.99215686
0.65110296 0.23235293 0.99093133
0.7794117 0.22916667 0.99215686
0.8892157 0.22879903 0.9917892
0.9960785 0.23137254 0.9950981
0.0 0.39656863 0.99558836
0.089154415 0.39871323 0.9975491
0.22916666 0.38174018 0.9960785
0.36562502 0.35772058 0.99644613
0.5115196 0.35539216 0.99975485
0.64362746 0.35686278 1.0
0.7730392 0.3582108 0.99644613
0.8928309 0.35772058 0.9995099
0.9995099 0.35686278 0.9960785
0.0 0.5294118 0.99411774
0.08137255 0.5294118 0.9960785
0.225 0.52254903 0.9950981
0.35955885 0.50735295 0.9938726
0.49607843 0.49019608 0.9960785
0.63774514 0.48627454 0.9943627
0.7671569 0.4892157 0.99509805
0.8889706 0.49019608 0.9968138
0.9960785 0.49019608 0.9960785
0.0 0.65637255 0.99215686
0.09393382 0.661152 0.9950981
0.22500002 0.65318626 0.99129903
0.35876226 0.6401348 0.9891544
0.48578432 0.63504905 0.99240196
0.6283701 0.6270221 0.99215686
0.760049 0.623652 0.9914216
0.885723 0.62352943 0.9936275
0.9995099 0.6313726 0.99558836
0.0019607844 0.7705883 1.0
0.0949755 0.7753676 0.9996323
0.22892159 0.77230394 0.9995099
0.35906863 0.7655637 0.99742657
0.48921567 0.76176476 0.9965687
0.62205887 0.7560049 0.99705887
0.76029414 0.7583334 0.99558836
0.8813725 0.75526965 0.9971814
0.99313724 0.7529412 0.99705887
0.0 0.89411765 0.9960785
0.08964462 0.89558816 0.9936275
0.23566176 0.89276963 0.98995095
0.36519608 0.89166665 0.99430144
0.49730393 0.89019614 0.9911765
0.6313726 0.8900123 0.99087006
0.7665442 0.8865197 0.9910539
0.8908088 0.89019614 0.99368876
0.9960785 0.89166665 0.9936275
0.0 0.9960785 0.9960785
0.09411765 0.9960785 0.99215686
0.22647059 0.99313724 0.9882353
0.36519608 0.9926471 0.9887255
0.48823532 0.9960785 0.9882353
0.6240196 0.99558836 0.9916667
0.759804 0.9960785 0.9901961
0.88676476 0.9960785 0.9897058
0.99215686 1.0 0.9882353
