assets/luts/LUTs/LEICA/LEICA TEL.cube
#Generated by PennL1 - 闲鱼号：LOOK胶片感 公众号：胶片感
TITLE LEICA TEL
LUT_3D_SIZE 5
0.019607844 0.015686275 0.02745098
0.1862745 0.026470589 0.034313727
0.4254902 0.037254903 0.03137255
0.7117647 0.026470589 0.026470589
0.9686275 0.007843138 0.023529412
0.023529412 0.1754902 0.039215688
0.18799019 0.21102941 0.035784315
0.4392157 0.2367647 0.025
0.725 0.24877453 0.02622549
0.97745097 0.24215686 0.02745098
0.03529412 0.38627452 0.09019608
0.2004902 0.4147059 0.06421569
0.49215686 0.47843137 0.025490196
0.74705887 0.5 0.009313726
0.9862745 0.49607843 0.011764706
0.10784314 0.6333333 0.16078432
0.27058822 0.6600491 0.121568635
0.51176476 0.72009814 0.050490197
0.75343144 0.74803925 0.013480393
0.9882353 0.7539216 0.0068627456
0.20784314 0.9137255 0.1764706
0.34019607 0.9294118 0.1392157
0.52745104 0.95490193 0.06666667
0.7588235 0.9882353 0.018627452
0.9960785 0.99215686 0.015686275
0.02254902 0.038235296 0.18235295
0.15784314 0.043137256 0.19436274
0.3892157 0.04656863 0.21715686
0.7105392 0.033578433 0.24289216
0.9833333 0.007843138 0.24705884
0.02892157 0.19313726 0.18431373
0.1764706 0.20692402 0.19362745
0.4226716 0.23382352 0.19754902
0.72401965 0.24344364 0.22181374
0.99240196 0.24485296 0.24705882
0.04509804 0.39264706 0.25441176
0.19632353 0.4177696 0.26164216
0.48627454 0.4762255 0.2267157
0.7498775 0.4979167 0.23848039
0.98774505 0.4995098 0.25686276
0.11470588 0.64607847 0.34142157
0.2728554 0.6655025 0.32328433
0.51004905 0.71372557 0.27377453
0.7644608 0.7466912 0.2572304
0.9845588 0.75661767 0.26053923
0.18431373 0.9147059 0.3539216
0.32843137 0.9365196 0.33333337
0.5205883 0.9583333 0.2779412
0.75661767 0.9857843 0.2389706
0.97843134 0.9892157 0.25490198
0.025490196 0.060784318 0.34705883
0.15637255 0.07058824 0.35882354
0.32156864 0.08235294 0.3745098
0.6666667 0.063725494 0.46029413
0.9823529 0.01372549 0.51176476
0.028431375 0.2127451 0.3485294
0.1627451 0.23063725 0.36409312
0.36421567 0.2502451 0.39436275
0.6998775 0.26409316 0.46740195
0.9897059 0.25049022 0.49754903
0.064705886 0.40784314 0.40980393
0.22205883 0.43872547 0.4286765
0.4612745 0.475 0.45392156
0.7431373 0.5 0.4897059
0.9911765 0.49607846 0.5029412
0.1397059 0.6666667 0.52500004
0.29840684 0.68737745 0.5268383
0.51299024 0.7227942 0.51740193
0.7616422 0.74914217 0.5036765
0.99313724 0.74852943 0.5137255
0.17450981 0.91568625 0.55490196
0.31813726 0.9367647 0.5397059
0.52254903 0.9627451 0.5147059
0.75392157 0.9887255 0.49754903
0.9901961 0.9862745 0.50784314
0.030392159 0.10098039 0.51274514
0.15686275 0.11397059 0.5296569
0.29215688 0.12843138 0.5357843
0.54632354 0.12009804 0.6125
0.9647059 0.025490196 0.7558824
0.031862747 0.24754903 0.5159314
0.16176471 0.26427698 0.5325368
0.30379903 0.2856618 0.55551475
0.60906863 0.2918505 0.6450368
0.9745098 0.2531863 0.7463236
0.07401961 0.43921572 0.5671569
0.2127451 0.46593136 0.59129906
0.40857843 0.49509805 0.6269608
0.7165441 0.50870097 0.7122549
0.98823535 0.49705884 0.7612745
0.17303923 0.6870098 0.6757353
0.33498776 0.71378684 0.7099265
0.53627455 0.73811275 0.7324755
0.754902 0.7532476 0.75808823
0.9906863 0.7522059 0.76078427
0.1872549 0.9284314 0.75392157
0.3387255 0.9490196 0.7401961
0.52745104 0.96960783 0.73627454
0.75294125 0.9916667 0.75441176
0.9911765 0.9862745 0.74803925
0.047058824 0.16862746 0.68235296
0.16470589 0.17254902 0.70490193
0.28627452 0.1882353 0.72156864
0.45392156 0.19607843 0.7627451
0.9607843 0.03529412 0.9764706
0.05784314 0.30392158 0.70098037
0.16764706 0.3242647 0.7218138
0.3004902 0.34509805 0.74705887
0.49411765 0.3627451 0.80759805
0.9647059 0.2647059 0.98725486
0.08039216 0.47843137 0.74705887
0.2112745 0.5029412 0.76911765
0.377451 0.5294118 0.80490196
0.6004902 0.5480392 0.8710785
0.96862745 0.50980395 0.9823529
0.16960785 0.70392156 0.84705883
0.32303923 0.72034323 0.8693628
0.50098044 0.74411774 0.90588236
0.72377455 0.7588235 0.9492647
0.9833333 0.74803925 0.9960785
0.23529413 0.94117653 0.90588236
0.38333333 0.95980394 0.9284314
0.5470588 0.98431367 0.9588235
0.7617647 0.9892157 0.98431367
0.98431367 0.9882353 0.9960785
