assets/luts/LUTs/LEICA/LEICA BLE.cube
#Generated by PennL1 - 闲鱼号：LOOK胶片感 公众号：胶片感
TITLE LEICA BLE
LUT_3D_SIZE 33
0.078431375 0.09411765 0.10980392
0.09203432 0.098406866 0.11446078
0.11053921 0.102696076 0.12083334
0.118137255 0.104779415 0.11654412
0.1367647 0.101960786 0.11519608
0.15269609 0.101960786 0.11580883
0.17009804 0.10416667 0.11593138
0.18811274 0.11102942 0.120220594
0.2009804 0.10784314 0.11862746
0.22377451 0.1125 0.120955884
0.24215686 0.117401965 0.12524511
0.25539216 0.11764707 0.12156863
0.27303922 0.11862746 0.12254902
0.29362747 0.1254902 0.13026962
0.30955884 0.12671569 0.13210785
0.3272059 0.12941177 0.13259804
0.3509804 0.12941177 0.1392157
0.36776963 0.13406864 0.14117648
0.38063723 0.13455883 0.1384804
0.39963236 0.13639706 0.13725491
0.41764706 0.13725491 0.14411765
0.43100488 0.14105393 0.14509805
0.4598039 0.14485295 0.14901961
0.4757353 0.14301471 0.14963236
0.4882353 0.15294118 0.15392157
0.5099265 0.15294118 0.15551472
0.52450985 0.15465687 0.15465687
0.54375005 0.15477942 0.15686275
0.5627451 0.15784314 0.15931374
0.58272064 0.15796569 0.16642158
0.6041667 0.16004902 0.17181373
0.6256128 0.16078432 0.17254902
0.6392157 0.16470589 0.18039216
0.08235294 0.1002451 0.11017157
0.10213312 0.10808824 0.117313884
0.11244638 0.11171109 0.11416207
0.1256319 0.11300934 0.11635647
0.14682905 0.117034316 0.12000613
0.15992647 0.1178194 0.118014716
0.17899816 0.11793046 0.119600184
0.19693245 0.12205883 0.12179841
0.2125919 0.12634805 0.12524511
0.22665824 0.12763864 0.12560509
0.24693628 0.12804076 0.12250307
0.26042816 0.13137256 0.13038068
0.27892157 0.13521753 0.13771446
0.30216375 0.13631664 0.13905485
0.31642926 0.13909315 0.14253983
0.3317402 0.14213006 0.14487976
0.34889707 0.14515932 0.1435049
0.3681641 0.14564185 0.14169349
0.3876149 0.14718904 0.14154412
0.4120098 0.15008043 0.14738435
0.42777267 0.15150124 0.149663
0.44412914 0.15467985 0.15319777
0.46188724 0.1590916 0.15392157
0.48272055 0.15999159 0.1582108
0.49978554 0.16289829 0.16320466
0.5180147 0.16397059 0.16594286
0.5377451 0.16686581 0.16151962
0.55718064 0.16727942 0.16360295
0.5761183 0.16973041 0.16789217
0.5962202 0.17375536 0.17473575
0.61488205 0.18082875 0.17683823
0.6317747 0.17900965 0.17717142
0.6449755 0.18186274 0.1807598
0.08382353 0.124509804 0.11372549
0.09882812 0.12960325 0.1184513
0.12552084 0.13442096 0.119852945
0.14137562 0.13700981 0.12193628
0.16029412 0.1384804 0.120312504
0.17595743 0.14162073 0.122303925
0.19224878 0.14198837 0.119132966
0.20860142 0.1442402 0.12503065
0.22316176 0.14852941 0.13290443
0.23970588 0.15281862 0.12869179
0.26122856 0.15641852 0.13068321
0.27342984 0.15284161 0.13813573
0.29607844 0.15775123 0.14344363
0.31977636 0.16070007 0.14832261
0.3350184 0.16127452 0.14437807
0.34919578 0.16316637 0.14276962
0.37034315 0.16875 0.14705883
0.39105394 0.17054994 0.14800093
0.40661764 0.17254902 0.14730392
0.42932752 0.17377451 0.15036765
0.44803923 0.1793505 0.15744486
0.46210936 0.17706037 0.15833333
0.48337927 0.18435968 0.1625
0.5047871 0.1886106 0.16655944
0.520527 0.18737745 0.16783088
0.5361367 0.18688725 0.16678922
0.5552237 0.19257046 0.17000613
0.5769608 0.19695924 0.17252605
0.5958027 0.1997549 0.17693016
0.6168735 0.20122549 0.1814951
0.6386183 0.20381434 0.18319547
0.653485 0.20441177 0.18555453
0.6671569 0.20269608 0.18651961
0.09240197 0.14387256 0.11593138
0.10929458 0.15234758 0.123039216
0.13508733 0.15866269 0.12732844
0.15436198 0.15955883 0.12972197
0.17107844 0.16144301 0.1281097
0.1887523 0.1677428 0.12931603
0.20842524 0.16911766 0.13086703
0.22081035 0.1699755 0.13161765
0.23844975 0.1742647 0.1350184
0.25686276 0.17855392 0.140805
0.28033856 0.17916667 0.14270069
0.28860295 0.1765242 0.14252451
0.3140625 0.18212317 0.14998469
0.33491883 0.18418735 0.14950216
0.34889707 0.18811275 0.14911918
0.36919808 0.19085096 0.14563037
0.39068627 0.1939951 0.14926471
0.4105009 0.19648437 0.15588236
0.42771906 0.20071231 0.1598269
0.449146 0.2024548 0.16237363
0.4664369 0.20462623 0.16642156
0.48345587 0.20383349 0.16691177
0.50392157 0.20814186 0.16997549
0.5281633 0.2141927 0.17355622
0.5441483 0.21372549 0.17303923
0.5611635 0.21725643 0.17438725
0.5777038 0.22058058 0.17990962
0.60002685 0.2254902 0.18487287
0.6196538 0.22840074 0.1887408
0.64000845 0.2306296 0.1932598
0.65857846 0.23214614 0.19844516
0.67673486 0.23335248 0.1978324
0.6917892 0.2379902 0.19938725
0.09803922 0.16666667 0.12156863
0.11371017 0.17487745 0.12613358
0.13992035 0.17916667 0.13253677
0.15932906 0.18276654 0.13374694
0.18639706 0.18621324 0.13627452
0.20654105 0.19203432 0.1398744
0.22224265 0.19273898 0.1397978
0.23468137 0.19424021 0.13872549
0.2541667 0.19963235 0.13909315
0.27378985 0.20428921 0.14955577
0.29347426 0.20352328 0.15376839
0.30848652 0.20347732 0.14676777
0.330576 0.20539217 0.15300246
0.3493413 0.21021754 0.15482537
0.36841303 0.21519607 0.15903799
0.38884804 0.2161918 0.15795037
0.40710786 0.21960783 0.16078432
0.4244945 0.22244179 0.16478248
0.44534314 0.22405024 0.16887257
0.46985295 0.22757353 0.17239584
0.48786765 0.23272058 0.17518382
0.50347733 0.23380822 0.17691484
0.52107847 0.23780638 0.17564338
0.5459713 0.23956802 0.17939645
0.5665442 0.24436274 0.18688725
0.5877451 0.24476103 0.18713236
0.604902 0.24754903 0.19142157
0.62336093 0.2524816 0.19701287
0.6410539 0.25324756 0.20030637
0.66242343 0.25801164 0.20225184
0.6825674 0.26179537 0.20811889
0.7022213 0.26580885 0.21153493
0.7132353 0.26372552 0.21078432
0.099877454 0.18933824 0.123406865
0.11627604 0.19571078 0.1280867
0.14313726 0.20034467 0.13537072
0.16107154 0.20561044 0.13524051
0.19129902 0.20926777 0.13688725
0.21421951 0.21470588 0.14106159
0.23338693 0.21678922 0.14301471
0.25239354 0.22056909 0.14301471
0.27009806 0.22705269 0.14889707
0.29056373 0.23031174 0.15085785
0.3100567 0.22868413 0.1491345
0.3254902 0.23045725 0.1509804
0.34336704 0.23319547 0.15553004
0.36642158 0.23869103 0.16124006
0.38606772 0.24031864 0.1634421
0.40355393 0.24106541 0.16555224
0.42303923 0.24319854 0.16875
0.44128752 0.24656864 0.17056526
0.46315104 0.25085783 0.17442556
0.48536307 0.25514707 0.1794807
0.50686276 0.25761336 0.18039216
0.5242724 0.2636604 0.18419118
0.5400735 0.26763943 0.18234529
0.5648706 0.2669118 0.18561964
0.58507967 0.27300858 0.19393381
0.6073721 0.27279413 0.19509804
0.6249311 0.27719057 0.19777879
0.6410539 0.27842757 0.19902344
0.6595129 0.28235298 0.20375307
0.68291205 0.28811276 0.20864737
0.7053922 0.29070926 0.21286763
0.72328436 0.29294196 0.21360293
0.73468137 0.2949755 0.21936274
0.101960786 0.21715686 0.12990198
0.11887255 0.22123927 0.13398439
0.1495098 0.2242647 0.13586092
0.16630669 0.23125765 0.13739277
0.19280024 0.23578432 0.13921568
0.21635263 0.24149051 0.14327513
0.2402114 0.24364278 0.14509805
0.26519608 0.24830729 0.14654566
0.28339463 0.2531863 0.15153188
0.3033088 0.2560279 0.15666361
0.3268229 0.25637257 0.1557445
0.34271598 0.25602022 0.1532016
0.36271447 0.2609988 0.16148898
0.3846967 0.26641393 0.16347274
0.4023131 0.2688266 0.16642156
0.42202055 0.27283242 0.16911766
0.44240198 0.27536765 0.17107844
0.46147364 0.27659315 0.1740579
0.48382354 0.2823989 0.18014705
0.5051547 0.28737748 0.18259804
0.5281556 0.28973654 0.18452819
0.5456036 0.29161307 0.18860294
0.5615196 0.29572612 0.18897058
0.5866422 0.29867494 0.19352788
0.6075368 0.3034314 0.1992647
0.62808675 0.3055377 0.20355392
0.64754903 0.30955884 0.20634192
0.6636719 0.3107307 0.20778953
0.68462014 0.3166667 0.20989583
0.7071308 0.32084098 0.21300551
0.73071384 0.32630208 0.21894914
0.74702054 0.32945007 0.22209711
0.7583333 0.33137256 0.22794119
0.10710785 0.2377451 0.13590688
0.12034697 0.24448147 0.13958718
0.1491345 0.24828433 0.13821998
0.16922872 0.2557598 0.1420573
0.19816177 0.26055455 0.14457722
0.22265242 0.2650544 0.1502451
0.24830729 0.26717985 0.1487975
0.27460554 0.27034315 0.15024512
0.29626226 0.2765625 0.15453433
0.3148629 0.28149512 0.16213237
0.33958334 0.28210786 0.16335785
0.35485986 0.28341758 0.16086857
0.37879902 0.28684133 0.1679228
0.39965534 0.2928194 0.17272136
0.41861215 0.29429382 0.17419578
0.43762258 0.29736137 0.17512256
0.45741424 0.30110297 0.1783701
0.4764055 0.30404413 0.18008962
0.4984069 0.30926013 0.18443628
0.5250996 0.31397063 0.1909084
0.54434747 0.31933212 0.19546568
0.56021374 0.3199755 0.19476868
0.580553 0.31915596 0.19513634
0.60768616 0.32585785 0.20224035
0.6266238 0.32981008 0.2080576
0.6475223 0.33355165 0.21130133
0.6664216 0.33813572 0.2161535
0.6861903 0.34166667 0.21762791
0.70606625 0.34679842 0.2182598
0.7260034 0.34877455 0.22195925
0.7467984 0.35514706 0.22768842
0.77023596 0.36250386 0.23223041
0.7814951 0.36053923 0.23394608
0.10980392 0.25784314 0.13431373
0.12555148 0.26632965 0.14163604
0.1485907 0.27291667 0.14589462
0.17172182 0.27561277 0.14482231
0.20061274 0.28210786 0.14742649
0.22757353 0.29007354 0.15431985
0.2548407 0.29215688 0.1569853
0.27886033 0.29280025 0.15655637
0.3031863 0.3012255 0.1632353
0.32454044 0.3072304 0.1673407
0.34675246 0.30508578 0.16764706
0.36632967 0.30891544 0.17071079
0.38909313 0.31237745 0.1747549
0.41246936 0.31731004 0.17775735
0.4322304 0.320527 0.18235295
0.45223653 0.32414216 0.18235295
0.47107846 0.3254902 0.18480393
0.49166667 0.3303309 0.19191177
0.5142157 0.3370098 0.19442402
0.54071695 0.34129906 0.19794731
0.5589461 0.34387255 0.20245098
0.5759804 0.34696692 0.20484069
0.59797794 0.34950984 0.20851716
0.628462 0.3570159 0.21847427
0.64411765 0.35955882 0.21838236
0.6645527 0.36403185 0.22126226
0.6832108 0.36703432 0.2238358
0.7045956 0.37306985 0.22705269
0.72144604 0.37414217 0.23026961
0.74451596 0.37662378 0.23278187
0.7647059 0.3814338 0.2341299
0.78452826 0.3894608 0.23786765
0.8 0.39215687 0.24411765
0.10980392 0.28259805 0.13995099
0.13094746 0.2908663 0.1449104
0.15477176 0.29559588 0.14952514
0.1766659 0.30031788 0.1517157
0.20883885 0.30744487 0.15465687
0.23382735 0.310949 0.15829504
0.2582338 0.31313574 0.16092986
0.28501457 0.31675476 0.1615196
0.31302086 0.32423407 0.1689951
0.3334827 0.32965687 0.16914447
0.3606158 0.3327972 0.1748315
0.37585783 0.33370098 0.17267157
0.39820772 0.33840382 0.1772978
0.42512256 0.34486443 0.18335631
0.44369638 0.34553462 0.18534774
0.46372166 0.35023743 0.19031097
0.48278186 0.35453433 0.19289215
0.50417054 0.35562962 0.1965648
0.5257889 0.36041665 0.19957875
0.55049026 0.3672909 0.205036
0.572258 0.3717678 0.2071538
0.5930339 0.3759804 0.21102941
0.61168045 0.37720588 0.21580882
0.64034545 0.3850758 0.22674249
0.6579657 0.38900125 0.22637868
0.6792012 0.39219135 0.22683823
0.6987975 0.39548868 0.22855392
0.72014016 0.40200293 0.23460095
0.7403033 0.40562195 0.23837315
0.7656863 0.4120596 0.24098116
0.78615195 0.41727942 0.24728861
0.8033089 0.41912532 0.25208336
0.8204656 0.42316177 0.25367647
0.12083334 0.3120098 0.15220588
0.13196233 0.313557 0.14914216
0.15955883 0.32382047 0.15274204
0.18009345 0.3251915 0.15397519
0.2116728 0.33103552 0.15818015
0.24020375 0.33750767 0.16066943
0.26179537 0.33959866 0.164951
0.2908548 0.3422794 0.16580883
0.3193015 0.3495098 0.17052697
0.3477865 0.35788143 0.18164828
0.3708027 0.3592984 0.17689952
0.39190412 0.35955116 0.1801394
0.41651347 0.3674326 0.1871017
0.43592218 0.37188265 0.18511796
0.45890015 0.3747549 0.1880668
0.47921264 0.37804073 0.19142157
0.5026961 0.38272056 0.19779412
0.52195925 0.38710937 0.20198376
0.5419118 0.39289215 0.20620406
0.5664216 0.3945006 0.21060815
0.5887255 0.39803922 0.21473652
0.60661 0.40589002 0.21543351
0.6348499 0.4061581 0.22676164
0.65327054 0.4083793 0.22745098
0.675429 0.41887257 0.22928922
0.6996324 0.42181373 0.23606771
0.7193628 0.42524508 0.24019606
0.7406863 0.4317402 0.2446155
0.75922185 0.43832722 0.24886642
0.7808134 0.4415288 0.25306374
0.80920655 0.4508272 0.26053923
0.8284314 0.45294118 0.26556376
0.8419118 0.45686272 0.26225492
0.12156863 0.3262255 0.15686275
0.13995099 0.33786765 0.15747549
0.16703431 0.33931527 0.16174173
0.18541667 0.3478286 0.16482843
0.21531862 0.35502452 0.16776961
0.23860295 0.35931373 0.17267157
0.27081802 0.36153492 0.1727405
0.301754 0.3642961 0.17520681
0.32766545 0.37423405 0.18520221
0.35012254 0.38039216 0.1818053
0.382598 0.3811198 0.18431373
0.40501687 0.3849341 0.18824296
0.4272212 0.38944545 0.18946078
0.45475265 0.39362743 0.19718137
0.4730775 0.39672947 0.2001685
0.4961014 0.39840686 0.20169272
0.5178309 0.4026348 0.20998773
0.5328662 0.40686277 0.22032015
0.5537531 0.4114047 0.2181832
0.5795075 0.41580883 0.22203201
0.60183823 0.42331493 0.22398897
0.6231656 0.42806372 0.2240196
0.6448606 0.42844668 0.22830883
0.66699606 0.4341337 0.23686811
0.6915135 0.44381127 0.24439338
0.7128677 0.44530103 0.24738434
0.7309896 0.4512255 0.25068167
0.75232846 0.45563725 0.25710785
0.7773744 0.46053922 0.26377147
0.8015932 0.46365654 0.26693094
0.82414216 0.46701136 0.27012104
0.8421454 0.47465533 0.27105546
0.8552696 0.47156864 0.2747549
0.12205882 0.35196078 0.15784314
0.1446385 0.3598499 0.16556373
0.17110907 0.36112136 0.16911766
0.1905484 0.36801472 0.16939339
0.21991421 0.37775737 0.17285539
0.24312195 0.38197 0.17722121
0.27132356 0.38817403 0.17889093
0.30295652 0.39632353 0.1787837
0.3341912 0.3990196 0.18345588
0.35813418 0.40274206 0.18818933
0.39068627 0.4071079 0.19240196
0.41954657 0.40473345 0.18993565
0.4367034 0.41482842 0.19797795
0.46651348 0.41643688 0.2052696
0.48351717 0.42034316 0.20649509
0.50559133 0.42463237 0.20663297
0.525 0.4272059 0.21642157
0.5464461 0.42948836 0.22009805
0.5651961 0.44099265 0.22009805
0.59116113 0.44865197 0.22890624
0.6146446 0.45036766 0.23780636
0.6328279 0.45381436 0.23920035
0.66081494 0.45560664 0.24068627
0.68586093 0.46625307 0.24865197
0.7035539 0.4685049 0.25379902
0.7224265 0.47418815 0.2583027
0.7438725 0.4779412 0.25808826
0.7692249 0.48261333 0.2628983
0.7916666 0.48713234 0.26764706
0.81481314 0.49569547 0.27686888
0.8367034 0.50401354 0.27990198
0.8588542 0.50628066 0.28700984
0.86813724 0.5058824 0.28382355
0.12634805 0.3776961 0.16470589
0.15008043 0.38512945 0.16985294
0.17255668 0.39077052 0.17356771
0.19802772 0.39927238 0.17574678
0.22581188 0.4074602 0.1810049
0.24821539 0.412343 0.18201977
0.27732846 0.41653645 0.18087469
0.3038948 0.42205882 0.1858341
0.33376226 0.4253983 0.19181985
0.3617532 0.43223038 0.1937385
0.39336705 0.4355239 0.19594057
0.4190104 0.43963695 0.2009804
0.44581804 0.4421722 0.20537685
0.4750651 0.44828433 0.21041667
0.49649206 0.4497779 0.21512716
0.5160731 0.45465687 0.219447
0.53829664 0.45808825 0.22242647
0.56001073 0.45970052 0.22540595
0.5786535 0.4648514 0.22551318
0.6028761 0.47143844 0.23204273
0.6272978 0.47803307 0.23662685
0.64901966 0.4804611 0.24163985
0.6686964 0.48713234 0.25006893
0.69655716 0.49523208 0.25709635
0.717065 0.50067407 0.26087624
0.7384574 0.50625 0.26580885
0.7602788 0.5118796 0.27084866
0.7842103 0.5174365 0.2784467
0.8057139 0.5199449 0.28480393
0.83038837 0.52904415 0.29094288
0.8488205 0.53553927 0.2927696
0.8746707 0.542605 0.29910004
0.8827206 0.5401961 0.29669118
0.13063726 0.40098038 0.16838236
0.14964002 0.40808824 0.17525277
0.17251839 0.41593137 0.1782016
0.19406402 0.42056525 0.17963389
0.2278799 0.42775735 0.17916666
0.25085783 0.4359911 0.1821921
0.27602637 0.44024202 0.18435968
0.30728403 0.44656864 0.18891698
0.33713236 0.453125 0.19656864
0.36575523 0.4589614 0.20080423
0.39191177 0.45842525 0.19869792
0.4279335 0.46249998 0.2065334
0.44666055 0.47043505 0.21204044
0.47845435 0.4730622 0.21681218
0.5043812 0.4764706 0.2199908
0.5267387 0.48246017 0.22082567
0.5526961 0.48382354 0.22671568
0.5748698 0.48664218 0.23333333
0.59446996 0.49008885 0.23550859
0.6214691 0.49820775 0.24232537
0.6420037 0.50131744 0.24543506
0.66311276 0.50906867 0.2531863
0.68887866 0.51225495 0.2616728
0.71511185 0.52045035 0.2676471
0.7297794 0.5279412 0.26930147
0.75239736 0.5376915 0.27561277
0.7758272 0.54171264 0.28226104
0.7999694 0.54590994 0.28606772
0.82310045 0.5504289 0.28802085
0.8453431 0.56002605 0.30034468
0.86789215 0.5671722 0.30739892
0.88933825 0.5728018 0.30942097
0.9017157 0.57205886 0.30955884
0.13333334 0.4213235 0.17806374
0.15333563 0.43367416 0.18213466
0.1765242 0.44037223 0.18387716
0.20102252 0.44661075 0.1847235
0.22990197 0.45317096 0.18564644
0.25625 0.45954734 0.1894378
0.28169426 0.46376377 0.19072457
0.31139708 0.46856236 0.19656862
0.3431679 0.477788 0.20275736
0.3691215 0.48014706 0.20526578
0.397595 0.48382354 0.20850183
0.42664292 0.4881855 0.2150965
0.45461094 0.49463847 0.21951593
0.48602942 0.4982843 0.21989124
0.5133732 0.5028033 0.22402726
0.53685284 0.505059 0.2267157
0.56317407 0.50876224 0.23100491
0.5853478 0.5161765 0.23667662
0.6080959 0.5188649 0.24191175
0.634578 0.5224265 0.24869026
0.6558364 0.5281097 0.2536765
0.67554003 0.53485376 0.26022136
0.70298713 0.5416897 0.27058825
0.73102015 0.5482958 0.2811198
0.74518996 0.55447304 0.2794118
0.7697304 0.56145453 0.28424865
0.79305303 0.5659314 0.29028034
0.8144493 0.5736635 0.29422873
0.83564645 0.57858455 0.3008732
0.8593137 0.5854167 0.31172258
0.8831572 0.5927007 0.32155332
0.904902 0.6009804 0.3224954
0.9145833 0.5993873 0.32083336
0.13529412 0.45294118 0.18235295
0.14944854 0.46096814 0.18431373
0.17585784 0.46384805 0.18504903
0.19791667 0.4713848 0.18878676
0.22647059 0.48063725 0.19166666
0.25128677 0.4870711 0.19411764
0.28039217 0.492402 0.19522059
0.31341913 0.4966912 0.19865197
0.34264708 0.5039216 0.20441177
0.36887255 0.5091912 0.21084559
0.40012258 0.5134804 0.21544117
0.42634803 0.5158701 0.21580882
0.45661765 0.52254903 0.22034314
0.4875 0.5298407 0.22591913
0.5144608 0.53137255 0.22806373
0.54289216 0.5329657 0.23180148
0.5686275 0.5372549 0.23627451
0.59087014 0.5427084 0.24074754
0.61556375 0.54779416 0.24718139
0.64191175 0.5520834 0.2551471
0.6642157 0.55980396 0.26029414
0.6818628 0.5664829 0.26458335
0.70735294 0.5708333 0.27487746
0.73247546 0.57634807 0.28069854
0.7544118 0.5867647 0.28382355
0.77867645 0.58958334 0.29025736
0.8018383 0.59558827 0.29669118
0.82426476 0.60312504 0.30312502
0.8450981 0.6107843 0.31078434
0.86789215 0.6193627 0.31936276
0.8936275 0.6263481 0.32794118
0.91403186 0.63455886 0.33118874
0.927451 0.63725495 0.33333334
0.13958333 0.48455885 0.18897058
0.14788987 0.48637024 0.18671109
0.17751992 0.49008888 0.18811275
0.19844899 0.49950597 0.19219516
0.22915135 0.5081036 0.19623162
0.25207186 0.51459485 0.19879748
0.2834559 0.52104014 0.19971661
0.3116575 0.5263481 0.2007353
0.3386336 0.5323836 0.2078125
0.37022442 0.54056376 0.2148246
0.40061277 0.5454657 0.21786918
0.4373315 0.5436275 0.21892233
0.45920652 0.5519149 0.2252451
0.4931181 0.55724955 0.23245636
0.5164216 0.5597963 0.23442863
0.5466031 0.56458336 0.23921569
0.5752451 0.5692402 0.24503677
0.59966683 0.5725146 0.24947535
0.6221584 0.5790518 0.25550705
0.64873624 0.58406866 0.26029414
0.6766697 0.5897519 0.26662073
0.69509804 0.5957836 0.27120098
0.7118643 0.6023055 0.2793122
0.73589534 0.6060011 0.28333336
0.7630515 0.6184743 0.2946385
0.78609455 0.6215686 0.30092296
0.81062347 0.62655485 0.30572152
0.83160615 0.6338236 0.3107843
0.85134804 0.642402 0.31836706
0.8758157 0.6509804 0.3246745
0.9003141 0.657667 0.33389246
0.9163947 0.66580886 0.33777192
0.93799025 0.67279416 0.3435049
0.14117648 0.50759804 0.19215685
0.15511642 0.5106618 0.19643842
0.17772673 0.51591605 0.19727328
0.20250459 0.5251456 0.19759497
0.2289522 0.5318321 0.2023897
0.25204504 0.5381511 0.20334712
0.28284314 0.5445619 0.20490196
0.30863208 0.5511566 0.20838696
0.3416054 0.5593138 0.21519607
0.37241116 0.5656174 0.21819086
0.407261 0.57009804 0.22205883
0.43314183 0.5719746 0.22373621
0.46182597 0.577788 0.23079045
0.49603248 0.5832568 0.23588389
0.5214614 0.5841759 0.24090073
0.5502374 0.5908165 0.24829964
0.57977945 0.59387255 0.25036767
0.60859376 0.596201 0.25330883
0.6287837 0.60318625 0.26130515
0.657621 0.61080736 0.26727945
0.68115807 0.6133272 0.27264094
0.70399815 0.6172794 0.27969518
0.7232077 0.6255821 0.28546262
0.7481771 0.6318245 0.29308367
0.7740196 0.6398897 0.3017157
0.7942938 0.64620095 0.30735293
0.81976104 0.65166974 0.3148591
0.83916974 0.65955883 0.31919426
0.85563725 0.6664522 0.321875
0.8831878 0.6740196 0.33142617
0.9054075 0.68160236 0.34117648
0.9265701 0.689951 0.34864432
0.9492647 0.6985294 0.35588235
0.1442402 0.5382353 0.19828431
0.15890779 0.5366843 0.20028722
0.1813649 0.54391086 0.20290288
0.19963235 0.54827666 0.20182675
0.22504595 0.55442715 0.20315564
0.2502451 0.5648629 0.20842142
0.28039217 0.5713312 0.21397826
0.31100646 0.57752377 0.2155867
0.33777574 0.5827513 0.218413
0.37394303 0.58983994 0.22477788
0.40687805 0.5974801 0.22941177
0.4403033 0.5989928 0.22990195
0.46312803 0.6055913 0.23799019
0.4984069 0.6055645 0.24227941
0.5263251 0.6102176 0.24710478
0.5556181 0.61423486 0.25222504
0.58651966 0.61991423 0.25557598
0.61196387 0.6255936 0.26125535
0.6315411 0.6275046 0.26586246
0.6580806 0.63321084 0.27451748
0.69073224 0.640288 0.28014708
0.7114661 0.64782095 0.2882353
0.72734374 0.65024513 0.29270068
0.7583448 0.6586895 0.29888558
0.77953434 0.6657782 0.3083027
0.8014935 0.6707108 0.31269532
0.82722884 0.67671573 0.32194394
0.8480546 0.68529415 0.32788756
0.86528796 0.6933364 0.33075982
0.8870174 0.69939107 0.33983228
0.9118413 0.7095971 0.3522442
0.9317019 0.7159735 0.35862058
0.94987744 0.7242647 0.36384803
0.14852941 0.5588236 0.20686275
0.15874694 0.5625 0.20379901
0.18045343 0.57034314 0.20799632
0.20317096 0.5744945 0.21064645
0.23265933 0.58026963 0.21194853
0.2573223 0.5876225 0.2165441
0.28382355 0.59411764 0.21917893
0.3133119 0.6001226 0.21703431
0.3439951 0.6069853 0.22377451
0.37587318 0.61254597 0.23019302
0.40612745 0.62058824 0.23455884
0.4403033 0.6212163 0.23504902
0.46280634 0.62671566 0.24313726
0.4988358 0.634758 0.24742648
0.53452826 0.63606006 0.2506434
0.5611673 0.64353555 0.25536153
0.59338236 0.6460784 0.26544118
0.61657476 0.6506587 0.27173713
0.6410846 0.65447307 0.27588847
0.6678922 0.65883887 0.28079048
0.69191176 0.6636642 0.28229168
0.7197764 0.6684896 0.289951
0.7407476 0.67576593 0.30143994
0.76678926 0.6811274 0.30909926
0.7872549 0.68958336 0.314951
0.80626535 0.69644606 0.3217831
0.83125 0.70245093 0.32821694
0.85470283 0.7092065 0.3365196
0.8762255 0.7140319 0.3444853
0.90122545 0.7234374 0.3555147
0.9241728 0.7332414 0.36280638
0.9421569 0.74146754 0.3672794
0.9627451 0.75 0.375
0.15281864 0.57977945 0.21164216
0.16594286 0.587523 0.21533011
0.18394609 0.5884804 0.21546414
0.20652957 0.59383816 0.21556371
0.2323989 0.6023285 0.21703431
0.2563151 0.60906863 0.21776195
0.28431374 0.6134268 0.22008272
0.3159735 0.61776966 0.22332644
0.34604782 0.6278493 0.22925858
0.37289754 0.6372741 0.23455884
0.40945157 0.631587 0.23528647
0.4363856 0.6427658 0.24681756
0.47034314 0.6512408 0.25075063
0.5038795 0.659015 0.25254673
0.5353018 0.66318935 0.25976565
0.5678194 0.66605395 0.26561353
0.5960172 0.66801476 0.2723652
0.6216682 0.672304 0.27446002
0.64477634 0.6739813 0.27981773
0.6752987 0.6800514 0.2882621
0.70258886 0.6851716 0.29659927
0.72474724 0.6894608 0.30146676
0.7500076 0.697909 0.3098116
0.7715686 0.70637256 0.3148093
0.79393387 0.71305156 0.32328433
0.81944317 0.7158893 0.33051473
0.8418275 0.7243872 0.3381817
0.86120945 0.73088235 0.34889707
0.8803003 0.737546 0.35747552
0.9059168 0.7488971 0.36341146
0.932621 0.75549173 0.3708563
0.9512255 0.7668007 0.3793007
0.96850497 0.7719363 0.38026962
0.16127452 0.597549 0.21985294
0.17818627 0.60906863 0.22698376
0.1940104 0.6098958 0.2208793
0.21063113 0.6145144 0.22529872
0.2412684 0.62000614 0.23069853
0.26214004 0.62670803 0.23540902
0.29008886 0.6352635 0.23581496
0.31748623 0.6429305 0.24101564
0.35196078 0.6502451 0.24932599
0.38063723 0.6524127 0.24812347
0.4171722 0.66302085 0.25490198
0.4438879 0.66444546 0.26240045
0.47962624 0.67215073 0.26078433
0.518819 0.6769761 0.2726869
0.54558825 0.6809589 0.27850798
0.5741192 0.68541664 0.2803692
0.6039216 0.68602943 0.28480393
0.633724 0.6886796 0.28691024
0.65955883 0.69436276 0.29240197
0.68835783 0.69865197 0.3011719
0.714951 0.7029411 0.30958945
0.7368873 0.7034313 0.3176624
0.76248467 0.71519613 0.32230392
