assets/luts/LUTs/LEICA/LEICA CNT.cube
#Generated by PennL1 - 闲鱼号：LOOK胶片感 公众号：胶片感
TITLE LEICA CNT
LUT_3D_SIZE 9
0.007843138 0.0 0.019607844
0.097058825 0.0024509805 0.016176471
0.25686276 0.007843138 0.03137255
0.44411764 0.007843138 0.043627452
0.582353 0.0058823535 0.07254902
0.7019608 0.015196079 0.103431374
0.80588233 0.019607844 0.14313726
0.9 0.017156864 0.18284315
0.972549 0.03137255 0.22352941
0.010294118 0.08284314 0.009313726
0.092340685 0.09019608 0.018137256
0.25931373 0.09387255 0.027328432
0.4365196 0.08939951 0.043137256
0.57524514 0.09509804 0.06593138
0.703125 0.09852941 0.103125
0.80355394 0.101593144 0.13688727
0.89577204 0.1064951 0.17598039
0.975 0.11519608 0.21078432
0.00882353 0.28333336 0.015686275
0.082598045 0.28811276 0.01997549
0.25637257 0.2901961 0.030637257
0.42708334 0.28639707 0.047303922
0.57549024 0.2916667 0.06960785
0.7033088 0.2897059 0.1064951
0.8068628 0.29485297 0.14558825
0.89240193 0.29730394 0.18235295
0.97450984 0.30392158 0.20980392
0.003921569 0.4519608 0.039215688
0.061887257 0.45686275 0.043995097
0.24191177 0.4617647 0.05147059
0.41599265 0.45674023 0.0754902
0.57009804 0.452451 0.09436275
0.7014706 0.45674023 0.1288603
0.7973039 0.45808825 0.1622549
0.89178926 0.4629902 0.20079657
0.9759804 0.45882353 0.22500001
0.0058823535 0.59803927 0.07254902
0.05441177 0.59950984 0.07647059
0.22892156 0.60245097 0.087254904
0.41617647 0.6034314 0.10073529
0.5686275 0.6039216 0.12450981
0.6960784 0.6002451 0.15343139
0.8009804 0.60245097 0.18333334
0.88700986 0.6019608 0.20955883
0.9725491 0.6039216 0.24313726
0.00049019605 0.7230392 0.11617648
0.04656863 0.7240196 0.116666675
0.20208333 0.71642154 0.12107844
0.40594363 0.72334564 0.13768384
0.5710785 0.71911764 0.16519609
0.69148284 0.7235294 0.18321079
0.7943628 0.7199755 0.2134804
0.8898897 0.7228554 0.23223041
0.9691177 0.73039216 0.25539216
0.003921569 0.81960785 0.16764706
0.04669118 0.82058823 0.1694853
0.16004902 0.8240196 0.18112746
0.39166665 0.82671565 0.18480392
0.55539215 0.82549024 0.20441177
0.6879902 0.82463235 0.21973039
0.7987745 0.8245098 0.24215685
0.88933825 0.82463235 0.2604167
0.9656863 0.8215686 0.28039217
0.0053921575 0.91813725 0.2112745
0.048835784 0.91850495 0.20919117
0.12144609 0.9145833 0.21531864
0.37242645 0.9133578 0.22316177
0.54558825 0.91887254 0.23039217
0.685478 0.91924024 0.2463848
0.79301476 0.92034316 0.26789218
0.88639706 0.91850495 0.2789216
0.9686275 0.9220589 0.30441177
0.0 0.9960785 0.24313726
0.043627452 0.9960785 0.24460784
0.097058825 0.9941176 0.24313726
0.34754902 0.9887255 0.2509804
0.5352942 0.9901961 0.2627451
0.6784314 0.9960785 0.2784314
0.7872549 0.99313724 0.28725493
0.88480395 0.9960785 0.3132353
0.9686275 1.0 0.33333334
0.015686275 0.003921569 0.09803922
0.10220589 0.0054534315 0.105514705
0.2720588 0.008333334 0.118504904
0.4439338 0.011825981 0.13204658
0.58602947 0.010784315 0.15980393
0.7140319 0.009191177 0.18339461
0.81960785 0.014583334 0.22389705
0.9012868 0.023161765 0.252451
0.9764706 0.028921569 0.27990198
0.011764707 0.089522064 0.094791666
0.092968754 0.09147518 0.10315564
0.26842833 0.0944853 0.11568628
0.43546262 0.0931296 0.1273744
0.58155644 0.094515935 0.14975491
0.70258886 0.09835325 0.17844671
0.8004749 0.10258885 0.20853248
0.89611673 0.110033706 0.24841455
0.972549 0.11127451 0.27297795
0.0060049025 0.28357846 0.10134804
0.082138486 0.28484988 0.09522059
0.25977328 0.28685665 0.110968135
0.43428308 0.28573838 0.1282169
0.57432604 0.2882353 0.14987746
0.7005974 0.2886949 0.18160233
0.80355394 0.2949755 0.21216299
0.8940717 0.29996938 0.2460478
0.9688726 0.3072304 0.28026962
0.008946079 0.4540441 0.12193628
0.07155331 0.45706192 0.13180913
0.24845284 0.45893076 0.14318322
0.42423406 0.45853245 0.14922641
0.5734069 0.45836398 0.1786152
0.69980085 0.45893842 0.20132506
0.8034314 0.4564645 0.23319547
0.89293814 0.46189493 0.26304382
0.97175246 0.4584559 0.28265932
0.0007352942 0.6 0.15245098
0.055208337 0.6035233 0.16115196
0.23339461 0.6053309 0.17432597
0.4184436 0.6032782 0.18026961
0.5710785 0.6018383 0.19583333
0.6981311 0.6009191 0.21890318
0.79981613 0.60281867 0.24810049
0.88992035 0.6050552 0.27840075
0.9742647 0.60539216 0.29975492
0.0024509805 0.7231005 0.19528186
0.04718137 0.72280943 0.18959866
0.2055147 0.71763176 0.19693628
0.40791973 0.72071844 0.213534
0.5639093 0.721538 0.22503063
0.6922105 0.72273284 0.24704352
0.8004289 0.7235447 0.26946998
0.89253217 0.72340685 0.29336706
0.9681373 0.7254902 0.31697306
0.0034313726 0.81985295 0.22585784
0.047901347 0.8222886 0.23872548
0.17374387 0.827114 0.25232846
0.39267766 0.82895225 0.25284928
0.5581496 0.8260417 0.26770836
0.69091606 0.8236979 0.27561274
0.79800856 0.8259804 0.29914218
0.89137566 0.8260417 0.32207415
0.9724265 0.8223039 0.3362745
0.0023897062 0.91721815 0.26654413
0.04431679 0.918367 0.26998314
0.126057 0.91741735 0.26861215
0.3699372 0.9162837 0.27501532
0.54810053 0.9157476 0.28771445
0.6824908 0.9170343 0.29982385
0.7922488 0.9196079 0.31833643
0.88504136 0.91969216 0.337209
0.9693628 0.922978 0.35680148
0.0024509805 0.9931373 0.30245098
0.043688726 0.9957108 0.30245098
0.088602945 0.9927696 0.30110294
0.33835784 0.99197304 0.31047797
0.53406864 0.9943628 0.31764707
0.6780025 0.99099267 0.33400735
0.7877451 0.99399513 0.34681374
0.8833946 0.99399513 0.35980394
0.9661765 0.9936275 0.38333333
0.04117647 0.003921569 0.27156863
0.13039216 0.0057598045 0.2856618
0.2882353 0.004901961 0.28651962
0.45870095 0.005269608 0.2935049
0.5916667 0.008333333 0.31029412
0.70931375 0.01115196 0.327451
0.81323534 0.014705883 0.34534314
0.91017157 0.015931373 0.36384803
0.97058827 0.024509804 0.38627452
0.038357846 0.08541667 0.27536768
0.12008272 0.08832721 0.27552086
0.2856618 0.09093138 0.28906253
0.44831493 0.095312506 0.29534313
0.58566177 0.093504906 0.30232847
0.70526963 0.09474571 0.32094058
0.8075061 0.10021447 0.33943015
0.89796257 0.10462622 0.36170343
0.9775736 0.11115196 0.38553923
0.02254902 0.28333336 0.26911765
0.107230395 0.27864584 0.26452205
0.27132353 0.28480393 0.27530637
0.43967524 0.28869486 0.29139096
0.57916665 0.28651962 0.29840687
0.70251226 0.28535542 0.31534928
0.8036152 0.29344365 0.3291054
0.89715075 0.29681373 0.35566792
0.96789217 0.29926473 0.38406864
0.012009805 0.45269608 0.28333336
0.08912378 0.4572304 0.29871324
0.26124388 0.459712 0.3002451
0.43203124 0.45848653 0.3049173
0.5794118 0.45772058 0.318076
0.7022824 0.45583642 0.32878372
0.80664825 0.45618874 0.35171568
0.89352024 0.46367955 0.37212008
0.9748775 0.4599265 0.38884804
0.0034313728 0.59901965 0.29901963
0.069914214 0.6001226 0.30134806
0.25085783 0.6017157 0.3140931
0.4278799 0.60269606 0.31954658
0.5715686 0.6036765 0.3294118
0.6969975 0.5998775 0.33866423
0.8036765 0.6036765 0.358701
0.8922182 0.60398287 0.38351718
0.9725491 0.60833335 0.40245098
0.0017156862 0.7224265 0.32340688
0.047656253 0.72257966 0.31861216
0.22083333 0.71878064 0.32429537
0.40981925 0.7192708 0.3319853
0.5658701 0.71844363 0.34050247
0.6956495 0.71928614 0.36066175
0.802788 0.7215686 0.36954656
0.89168197 0.72556674 0.39439338
0.9631128 0.72818625 0.40735292
0.00882353 0.8208333 0.34485292
0.04932598 0.8234375 0.353462
0.19295344 0.8314951 0.3665441
0.40131742 0.830913 0.36531863
0.56299025 0.82549024 0.37879902
0.6957414 0.82261026 0.38054535
0.7999387 0.8245711 0.3971814
0.89200366 0.82742035 0.4146446
0.97107846 0.82598037 0.43406862
0.0 0.91519606 0.3685049
0.04508272 0.91527265 0.37135416
0.14846815 0.91063106 0.37166053
0.38362437 0.9174479 0.37461704
0.550429 0.9123775 0.38578433
0.68501836 0.915962 0.39364278
0.7924326 0.91859686 0.40992647
0.8891391 0.91706496 0.42740503
0.9686275 0.92144614 0.43786764
0.0029411768 0.99215686 0.4019608
0.047058824 0.9928922 0.40257353
0.097794116 0.99264705 0.39681375
0.3536765 0.98835784 0.40183824
0.5392157 0.99264705 0.40245098
0.6781863 0.99129903 0.4182598
0.7897059 0.99215686 0.42647058
0.8829657 0.99215686 0.44840685
0.9647059 0.99705887 0.45980394
0.08627451 0.003921569 0.4509804
0.16954657 0.00569853 0.45165443
0.30894607 0.004289216 0.4574755
0.46121323 0.004411765 0.46715686
0.59632355 0.003921569 0.46985295
0.7147059 0.00692402 0.4706495
0.8210784 0.004411765 0.48664218
0.9134804 0.011764706 0.49877453
0.9833333 0.019607844 0.5200981
0.07702206 0.08419118 0.43400735
0.16298254 0.08446691 0.44805455
0.3090227 0.0834712 0.454902
0.45667893 0.08481924 0.46138936
0.59341305 0.089062504 0.4572304
0.70746785 0.09133732 0.4647135
0.8089614 0.092325374 0.4801777
0.89875925 0.09890473 0.49187347
0.9734682 0.10569853 0.49626225
0.06691177 0.2839461 0.4346814
0.15363052 0.2791054 0.43509498
0.30085784 0.27677697 0.4348039
0.4514706 0.2773131 0.44831493
0.5865196 0.28480393 0.45484072
0.70399815 0.28524816 0.45680147
0.8050245 0.28278184 0.4654412
0.8977941 0.29211092 0.4859222
0.97316176 0.3034314 0.4995098
0.05759804 0.45202208 0.44626227
0.14561887 0.45614278 0.45482537
0.28549328 0.4553309 0.46852022
0.45577514 0.4542739 0.4571155
0.58455884 0.45609683 0.46997553
0.70713085 0.45534623 0.4730622
0.8063725 0.45130208 0.48769915
0.89731926 0.4620711 0.4912684
0.9731005 0.45937502 0.5031863
0.03259804 0.5997549 0.4629902
0.112775736 0.59935665 0.45563725
0.27395833 0.5988358 0.4637255
0.44243258 0.60168505 0.46727943
0.57953435 0.60306376 0.47058824
0.70284927 0.6040748 0.47999385
0.8017156 0.6034927 0.4871936
0.89108455 0.60438114 0.49901962
0.9703432 0.60269606 0.50931376
0.0062500006 0.7186887 0.47254905
0.079243265 0.7177926 0.4554458
0.24856006 0.7158701 0.46810663
0.4294807 0.719064 0.4770297
0.57953435 0.7188419 0.47441792
0.6962699 0.7190717 0.48779872
0.80078125 0.7214307 0.49456188
0.89100796 0.7218367 0.50905335
0.9716912 0.7269608 0.5295956
0.0074754907 0.81985295 0.4832108
0.052895226 0.82293195 0.48480392
0.22809435 0.8248468 0.48976713
0.41865808 0.8310049 0.50831807
0.57028186 0.82500005 0.49840686
0.69552696 0.82348347 0.50156254
0.8037684 0.8251838 0.5142157
0.89321387 0.8275276 0.5186581
0.9732843 0.8237745 0.53100497
0.0045955884 0.9183211 0.49411765
0.048399203 0.9160845 0.49805456
0.18803616 0.9118413 0.48751533
0.4006434 0.9123008 0.49098498
0.5645221 0.91378677 0.504902
0.6889553 0.9181296 0.50699294
0.7967065 0.9167586 0.51492035
0.8934513 0.9202819 0.5283395
0.9694853 0.9197304 0.5351716
0.003921569 0.99264705 0.51323533
0.04601716 0.9923407 0.5107843
0.14129902 0.9878676 0.5115196
0.37996325 0.9925858 0.5182598
0.54901963 0.99240196 0.51274514
0.68143386 0.9925858 0.52647066
0.79375005 0.99313724 0.5307599
0.8854779 0.9947917 0.5446079
0.9607843 0.9892157 0.5377451
0.15490197 0.0 0.59019613
0.22181372 0.0066176476 0.5914216
0.3411765 0.003921569 0.59852946
0.48039216 0.004166667 0.59583336
0.60784316 0.0058823535 0.6068628
0.72058827 0.0024509805 0.6056373
0.8215686 0.0029411768 0.6161765
0.9051471 0.004411765 0.6186274
0.9843137 0.009803922 0.61960787
0.14926471 0.06985295 0.58455884
0.21813726 0.07610294 0.591728
0.33621323 0.07555147 0.5957721
0.47264093 0.0786152 0.59436274
0.60036767 0.078799024 0.59583336
0.71323526 0.081709564 0.5995405
0.8113971 0.08756128 0.6047794
0.90143996 0.09099265 0.60867035
0.9769608 0.08897059 0.62279415
0.13480392 0.2740196 0.582353
0.20845588 0.27303922 0.5789829
0.3262255 0.2764706 0.58026963
0.46439952 0.27769607 0.579902
0.597549 0.2791667 0.5875
0.71084565 0.28131127 0.59356624
0.81335783 0.2839461 0.60110295
0.9 0.28835785 0.60269606
0.97450984 0.29264706 0.6132353
0.12818629 0.44681373 0.58970594
0.19632354 0.45603555 0.58700985
0.32316178 0.4553309 0.593076
0.4682598 0.45343137 0.58961403
0.59387255 0.4509804 0.6007353
0.71351105 0.45318627 0.60003066
0.8126838 0.45870098 0.6094363
0.89806986 0.4569853 0.60998774
0.9762255 0.45710784 0.61397064
0.09803922 0.5970589 0.59313726
0.17990196 0.59950984 0.5904412
0.3144608 0.5968138 0.59607846
0.45661765 0.5988971 0.59558827
0.5911765 0.6004902 0.5975491
0.7068628 0.60269606 0.6009804
0.8085785 0.60343134 0.6117647
0.8957108 0.60171574 0.61875004
0.9725491 0.6019608 0.6215687
0.062009804 0.71911764 0.58504903
0.15006128 0.7185968 0.59178925
0.28694853 0.7176471 0.58774513
0.4490196 0.71930146 0.5942096
0.5872549 0.72058827 0.60085785
0.7029412 0.72401965 0.6019914
0.80716914 0.7197304 0.60906863
0.896875 0.7208333 0.6185662
0.97058827 0.72377455 0.62009805
0.032352943 0.8235294 0.6122549
0.11672795 0.82959557 0.6163603
0.2709559 0.82843137 0.6145834
0.4406863 0.8286152 0.61599267
0.58406866 0.8264706 0.6183824
0.7058824 0.82236516 0.6227329
0.8071078 0.8220588 0.6283089
0.89730394 0.8273897 0.6317402
0.9754902 0.8220588 0.6333333
0.004411765 0.91740197 0.6071079
0.0671875 0.9166667 0.6072917
0.23805147 0.9121324 0.6072304
0.4208946 0.91577816 0.6074755
0.5716912 0.9155637 0.61127454
0.69586396 0.9171568 0.6179841
0.801348 0.9170956 0.6252451
0.89215684 0.91617644 0.62840074
0.9732843 0.9191177 0.63799024
0.0019607844 0.9901961 0.6254902
0.049264707 0.99215686 0.6159314
0.18921569 0.98725486 0.61421573
0.40245098 0.9884803 0.6161765
0.5617647 0.9911765 0.62352943
0.6921569 0.99264705 0.62818635
0.7985294 0.99264705 0.63284314
0.88823533 0.9941177 0.6428922
0.96862745 0.9960785 0.6529412
0.20980392 0.0034313728 0.7058824
0.28020835 0.0063725496 0.7237745
0.3814951 0.0036764708 0.71678925
0.5027574 0.0064950986 0.7185049
0.6164216 0.004411765 0.72107846
0.7268382 0.0030024513 0.7155637
0.82500005 0.003921569 0.7246323
0.9113357 0.005575981 0.72420347
0.97990197 0.004411765 0.737255
0.209375 0.063909315 0.7036152
0.265962 0.06573989 0.70981926
0.37464768 0.06459865 0.70813423
0.49481466 0.06591606 0.7163986
0.608364 0.07098652 0.70980394
0.71881133 0.06892617 0.7106848
0.8177084 0.07876839 0.71343446
0.9002451 0.082329966 0.7181603
0.97745097 0.08890931 0.71697307
0.19840686 0.26384807 0.6968137
0.26481313 0.2660386 0.70215994
0.36461398 0.27374387 0.6970588
0.48852637 0.2702972 0.70268077
0.6108456 0.27683824 0.7034314
0.7194393 0.2711857 0.70298713
0.8136029 0.2792586 0.71351105
0.9046569 0.28543198 0.71341914
0.97745097 0.2916667 0.72316176
0.18272059 0.4454044 0.7021446
0.25409007 0.4470205 0.706656
0.36495098 0.45145527 0.7081802
0.48755363 0.45140165 0.7078891
0.6043505 0.4463235 0.7128064
0.7182522 0.44878983 0.7130132
0.8147518 0.45219055 0.7224724
0.9084942 0.45602024 0.7262638
0.97610295 0.4546569 0.7311888
0.17598039 0.59411764 0.7083333
0.24215686 0.59623164 0.7104473
0.3585784 0.60042894 0.72046566
0.48152578 0.5995405 0.71250004
0.60649514 0.59926474 0.71066177
0.71360296 0.59803927 0.7132047
0.8129289 0.5988971 0.71611524
0.89947915 0.5966299 0.72499996
0.96911764 0.6002451 0.72377455
0.14705884 0.7147059 0.702451
0.21969208 0.718076 0.70950526
0.33291972 0.72072613 0.7076747
0.4692632 0.7185662 0.7085938
0.59761035 0.7173713 0.7078431
0.71266854 0.7169194 0.71385574
0.8110754 0.7225184 0.7195772
0.89898133 0.72316176 0.7197457
0.9695466 0.7247549 0.7325368
0.118137255 0.8237745 0.71568626
0.198269 0.826777 0.7284161
0.3242647 0.8246017 0.72794116
0.46553308 0.82446384 0.72964156
0.59736526 0.821875 0.7281863
0.7187347 0.82804847 0.7268995
0.81204045 0.8252758 0.73437506
0.8995404 0.82634807 0.73046875
0.97990197 0.8253677 0.73174024
0.06703432 0.9177696 0.7128677
0.14190412 0.9159161 0.71047795
0.29721203 0.9166054 0.71441483
0.45087317 0.9148055 0.7162454
0.5823223 0.91519606 0.7197917
0.7069394 0.91570926 0.72168356
0.8046875 0.9163143 0.7219363
0.8967065 0.9169654 0.7304305
0.9678309 0.9207721 0.7348039
0.011764706 0.9887255 0.7200981
0.09613971 0.98376226 0.71911764
0.25551474 0.9868872 0.71727943
0.43498772 0.9942403 0.722978
0.577451 0.9901961 0.7230392
0.69577205 0.99123776 0.73290443
0.8009803 0.9895833 0.7322304
0.88700974 0.99264705 0.7336397
0.9691177 0.99215686 0.7397059
0.27156866 0.0058823535 0.80588233
0.32573533 0.004289216 0.81727946
0.41568628 0.0036764708 0.82009804
0.52855396 0.004289216 0.8142157
0.6348039 0.0034313728 0.8235294
0.7352941 0.0 0.8231618
0.8306372 0.0014705884 0.8247549
0.91825986 0.004044118 0.8296569
0.98137254 0.0009803922 0.83137256
0.2647059 0.050490197 0.8143382
0.31482846 0.052527577 0.81196386
0.41084558 0.05321691 0.81936276
0.516973 0.055238973 0.8183364
0.6275123 0.056617647 0.8202819
0.7324755 0.058118872 0.81790745
0.82230395 0.06400123 0.8145834
0.91092217 0.07054228 0.8251838
0.98002446 0.07267157 0.82683825
0.25710785 0.2588235 0.80269605
0.30867034 0.25796568 0.8009804
0.40735295 0.2620098 0.8072304
0.5133885 0.2674326 0.8096814
0.6240196 0.2644608 0.8034314
0.7272059 0.264614 0.80753684
0.8208333 0.26813725 0.80955887
0.9080882 0.27558213 0.8135111
0.97892153 0.27867648 0.81666666
0.24485293 0.44117647 0.8068627
0.3070619 0.4411152 0.8136336
0.39402574 0.44834557 0.80588233
0.5084099 0.4527114 0.80966604
0.6226716 0.44644606 0.82193625
0.72895217 0.4440104 0.8112898
0.8220282 0.44607842 0.8120098
0.90850186 0.44946384 0.8208793
0.9800245 0.44534314 0.81985295
0.23921567 0.5921569 0.8117647
0.29417893 0.59540445 0.8054534
0.39350492 0.5965687 0.81164217
0.5071691 0.5961397 0.8105392
0.6161765 0.5977942 0.81053925
0.72414213 0.59650743 0.8125
0.8170343 0.5991422 0.81311274
0.9107231 0.5981618 0.82359076
0.97745097 0.59803927 0.8245098
0.2172794 0.7164216 0.8055147
0.28224573 0.71482843 0.80513173
0.3803615 0.71770835 0.8059436
0.499663 0.7179841 0.8077819
0.61721814 0.71844363 0.8083946
0.7169883 0.71904105 0.810095
0.8196385 0.719761 0.81415445
0.90746015 0.7211397 0.8155178
0.975 0.7256127 0.8253677
0.20147058 0.8210784 0.8156862
0.26838237 0.8219363 0.8212929
0.37457108 0.8258579 0.81985295
0.49592525 0.8259497 0.8217524
0.6126226 0.82120097 0.8267157
0.7182292 0.8234375 0.82150733
0.82120097 0.8239584 0.8303309
0.9074755 0.8223039 0.8309743
0.97745097 0.8245098 0.8264706
0.16875002 0.91544116 0.81299025
0.2310968 0.91331184 0.8109835
0.34911156 0.9136029 0.81014097
0.47881436 0.92068017 0.8141851
0.60428923 0.9141544 0.8150123
0.71148896 0.9171569 0.8161765
0.8137255 0.91602325 0.81436884
0.9015625 0.91781557 0.8272059
0.9742647 0.9191177 0.8276961
0.12352942 0.9852941 0.8176471
0.20085785 0.9882353 0.8154412
0.3267157 0.98676467 0.8166667
0.4633578 0.9904412 0.8156863
0.59460783 0.9911765 0.81764704
0.70747554 0.98946077 0.82058823
0.81053925 0.98995095 0.8247549
0.9006127 0.9904412 0.8306373
0.972549 0.9911765 0.83431375
0.31715688 0.0 0.91029406
0.37156862 0.0009191177 0.9110294
0.4459559 0.008946079 0.9036765
0.55049026 0.0049019614 0.91004896
0.6517157 0.0024509805 0.91029406
0.7459559 0.0023284315 0.9063113
0.828799 0.0067401966 0.9139706
0.91966915 0.0038602944 0.91335785
0.9970588 0.0024509805 0.92352945
0.31507355 0.04356618 0.90471816
0.36797643 0.045189954 0.906564
0.4474418 0.044914216 0.9086703
0.543367 0.044921875 0.90590537
0.64543504 0.04957108 0.9108456
0.7422947 0.04686734 0.911106
0.83135724 0.04932598 0.9102788
0.916322 0.05251226 0.91700363
0.98676467 0.055821083 0.91286767
0.30625 0.2459559 0.8977941
0.35234377 0.24779412 0.8912684
0.44375002 0.24702819 0.90067405
0.5407629 0.2583027 0.9071232
0.6455882 0.2536152 0.8982843
0.7427543 0.25770527 0.90004593
0.8334865 0.2608456 0.8998774
0.91083026 0.26254597 0.9034007
0.98700976 0.2697304 0.9064951
0.29950982 0.43756127 0.8971814
0.35091144 0.43862593 0.9019684
0.43200064 0.44008884 0.9020374
0.53190106 0.44005057 0.89999235
0.63630515 0.4404718 0.9056066
0.73762256 0.43772978 0.9015472
0.8283701 0.44344363 0.90874696
0.9125076 0.4434513 0.90729934
0.98321074 0.44356617 0.9053921
0.29509807 0.5909314 0.9
0.35067403 0.59442407 0.90122545
0.4300245 0.5930147 0.90116423
0.52735907 0.59549636 0.9013787
0.63480395 0.5944853 0.9006128
0.7358456 0.59436274 0.9016238
0.8272671 0.5935049 0.90343136
0.9101103 0.5965687 0.91004896
0.9828431 0.59681374 0.9090686
0.28186277 0.71703434 0.8971814
0.3326976 0.7147442 0.896875
0.41919425 0.71544117 0.894853
0.5278493 0.71535695 0.90113354
0.63085175 0.71675855 0.89932597
0.7331572 0.71695775 0.90266544
0.8256127 0.7196538 0.9014093
0.9099954 0.7201823 0.90443474
0.978125 0.72340685 0.9091299
0.2724265 0.8208333 0.9072304
0.3259038 0.82322305 0.9130055
0.41669732 0.82018995 0.90854776
0.5229473 0.8233456 0.9126226
0.63161767 0.82058823 0.9122549
0.7337163 0.8214767 0.9087776
0.8289522 0.82221204 0.91320467
0.9126685 0.8206495 0.91873467
0.98321074 0.8202206 0.91740197
0.24142158 0.9126838 0.90122545
0.30176166 0.91435355 0.90022975
0.3950674 0.9129595 0.8979167
0.50794274 0.916659 0.90058213
0.62279415 0.9133885 0.90242034
0.72471654 0.91476715 0.9019225
0.8222427 0.9146293 0.90494794
0.9070925 0.9170114 0.91122854
0.9798407 0.91721815 0.906924
0.21764706 0.9906863 0.9078431
0.2760417 0.98970586 0.90563726
0.3792892 0.9876225 0.904902
0.4961397 0.9882353 0.9058211
0.61127454 0.9901961 0.9009804
0.71924025 0.9901348 0.90692395
0.8142157 0.99007356 0.9073529
0.90355396 0.99215686 0.91721815
0.9740196 0.98970586 0.9112745
0.3529412 0.0 0.972549
0.40686277 0.003921569 0.97745097
0.4764706 0.003921569 0.97843134
0.5666667 0.004411765 0.9833333
0.6647059 0.0058823535 0.98039216
0.7583333 0.0 0.9828431
0.85 0.0 0.9833333
0.9284314 0.0 0.9828431
1.0 0.0 0.98039216
0.3529412 0.040686276 0.97794116
0.40539217 0.043259807 0.9737132
0.47671568 0.043014705 0.9800245
0.56213236 0.046384808 0.9809436
0.6627451 0.04264706 0.982353
0.7574755 0.041360296 0.97971815
0.8405637 0.0442402 0.9764706
0.91875005 0.048406865 0.98131126
0.99460787 0.039705884 0.98676467
0.35588238 0.22843137 0.972549
0.4019608 0.23210783 0.97610295
0.475 0.23480392 0.97450984
0.5590687 0.23370098 0.9738971
0.6534314 0.23382354 0.9676471
0.7443627 0.24068628 0.96973044
0.84460783 0.24705884 0.9727941
0.9202206 0.24264705 0.97904414
0.99215686 0.25490198 0.98039216
0.3406863 0.42892158 0.9769608
0.39350492 0.43155637 0.97683823
0.46017158 0.43259802 0.97291666
0.5568628 0.4345588 0.9794118
0.6507353 0.43284315 0.97426474
0.75 0.4332108 0.97726715
0.83676475 0.43982843 0.9702206
0.913848 0.4382966 0.9753064
0.9882353 0.43333334 0.97990197
0.34117648 0.5882353 0.9764706
0.3870098 0.5904412 0.97083336
0.46470588 0.59313726 0.9764706
0.552451 0.5916667 0.97745097
0.6519608 0.5921569 0.97352946
0.75196075 0.59362745 0.97818625
0.8357843 0.5926471 0.9769608
0.91102934 0.59852946 0.9764706
0.9901961 0.59411764 0.97450984
0.32941177 0.7151961 0.972549
0.38694853 0.7163603 0.972549
0.45882353 0.71813726 0.9628676
0.548652 0.7202819 0.9677697
0.64754903 0.71862745 0.9747549
0.7500613 0.7155637 0.97297794
0.8371324 0.717402 0.97120094
0.91452205 0.71550244 0.9743873
0.98431367 0.71911764 0.98480386
0.31666666 0.8176471 0.9696079
0.38014707 0.81825984 0.97818625
0.44803923 0.82034314 0.97769606
0.54325986 0.8231618 0.9772059
0.64754903 0.8210784 0.97794116
0.74803925 0.81715685 0.9789216
0.83823526 0.82303923 0.97843134
0.9164216 0.8194853 0.97769606
0.99215686 0.81666666 0.9911765
0.30588236 0.91568625 0.9789216
0.35637257 0.91476715 0.97549015
0.43982846 0.91605395 0.9769608
0.5351103 0.9159926 0.9794118
0.6392157 0.9129902 0.97769606
0.7388481 0.91519606 0.97365195
0.8351716 0.91519606 0.98321074
0.9108455 0.91721815 0.9852328
0.98676467 0.9171569 0.9857843
0.2784314 0.9960785 0.9764706
0.34166667 0.9911765 0.98039216
0.42156863 0.99215686 0.97156864
0.5264706 0.9950981 0.9754902
0.6313726 0.9941177 0.97843134
0.7313726 0.99264705 0.9838235
0.8294118 0.99215686 0.9882353
0.9147059 0.9960785 0.98676467
0.99215686 0.99215686 0.98431367
