assets/luts/LUTs/LEICA/LEICA CLS.cube
#Generated by PennL1 - 闲鱼号：LOOK胶片感 公众号：胶片感
TITLE LEICA CLS
LUT_3D_SIZE 5
0.007843138 0.0 0.011764706
0.1764706 0.004901961 0.014705883
0.5176471 0.007843138 0.015686275
0.7705883 0.0009803922 0.015686275
0.9254902 0.007843138 0.019607844
0.05 0.24117649 0.04901961
0.21887255 0.23970589 0.03897059
0.5416667 0.20882353 0.017647058
0.7840687 0.14656863 0.012990196
0.922549 0.09411765 0.0068627456
0.18235295 0.6156863 0.18431373
0.33284312 0.6186275 0.17450981
0.5862745 0.6107843 0.15
0.7872549 0.59313726 0.07941177
0.92941177 0.5588236 0.01372549
0.3539216 0.8519608 0.34411764
0.4762255 0.8448529 0.33995098
0.64607847 0.8534314 0.31960785
0.8156862 0.8448529 0.28651962
0.94509804 0.8372549 0.2254902
0.46666667 0.9882353 0.43529412
0.57058823 0.99215686 0.44215685
0.7019608 0.99215686 0.43529412
0.83725494 0.9892157 0.42647058
0.9568627 0.99215686 0.4
0.042156864 0.011764706 0.23627451
0.21960784 0.010294118 0.24068627
0.53627455 0.009803922 0.20637256
0.7703432 0.0071078436 0.1389706
0.927451 0.0019607842 0.1
0.075980395 0.2497549 0.264951
0.24344364 0.24313727 0.25557598
0.5508579 0.21458334 0.22193626
0.77977943 0.1564951 0.15392157
0.93063724 0.09436275 0.10392157
0.2 0.6191176 0.35931376
0.35036767 0.6189951 0.3585784
0.59558827 0.6129902 0.329902
0.7932598 0.59828436 0.28308827
0.93480396 0.5676471 0.20147058
0.36862746 0.8507353 0.46348038
0.48915443 0.84969366 0.47371322
0.65539217 0.8520833 0.46250004
0.81917894 0.8457721 0.4365809
0.95073533 0.83946085 0.39387256
0.4745098 0.9911765 0.55
0.5720588 0.9892157 0.54656863
0.7068628 0.9901961 0.5392157
0.8392157 0.9911765 0.53455883
0.9529412 0.9882353 0.52156866
0.14509805 0.054901965 0.5921569
0.30441177 0.05784314 0.59901965
0.57941175 0.018627452 0.58431375
0.78578436 0.0068627456 0.5529412
0.9392157 0.0058823535 0.5176471
0.17058824 0.27794117 0.5862745
0.3241422 0.2752451 0.58480394
0.5855392 0.24705884 0.5737746
0.79093134 0.19681372 0.56004906
0.9289216 0.11568628 0.525
0.2784314 0.6303922 0.61372554
0.4144608 0.6311275 0.61960787
0.62205887 0.6245098 0.60833335
0.79926467 0.6093137 0.59289217
0.94117653 0.582353 0.5666667
0.40980393 0.8514706 0.6622549
0.5115197 0.85674024 0.6582108
0.6683824 0.8541667 0.652451
0.8251226 0.84828436 0.6432598
0.95441175 0.8416667 0.629902
0.4882353 0.9862745 0.69215685
0.5897059 0.9931373 0.6926471
0.71470594 0.98921573 0.68529415
0.845098 0.99215686 0.6789216
0.9588235 0.9901961 0.67647064
0.29705882 0.124509804 0.7970588
0.43063724 0.12009805 0.810049
0.6397059 0.09313726 0.8093138
0.81102943 0.027941177 0.80269605
0.9382353 0.003921569 0.78431374
0.30906865 0.3264706 0.7946079
0.438174 0.32806373 0.7955882
0.6334559 0.30379903 0.7884804
0.80582106 0.25851718 0.78768384
0.9421569 0.1889706 0.78063726
0.37843138 0.64705884 0.80490196
0.4949755 0.64632356 0.8117647
0.65906864 0.6416667 0.80710787
0.8134804 0.6262255 0.80085784
0.94411767 0.604902 0.79215693
0.4590686 0.85882354 0.8252451
0.56072307 0.8567402 0.82549024
0.69509804 0.85784316 0.82990193
0.8335172 0.8535539 0.8220588
0.95465684 0.84950984 0.8125
0.5156863 0.99215686 0.8362745
0.6102941 0.9914216 0.83431375
0.7269608 0.9906863 0.82941175
0.8504902 0.99264705 0.8328431
0.9647059 0.9911765 0.8303922
0.42352942 0.21176471 0.94117653
0.53333336 0.20392157 0.9460784
0.6862745 0.18039216 0.9509804
0.8303922 0.12843138 0.9372549
0.9568627 0.043137256 0.94117653
0.41764706 0.4 0.9382353
0.5375 0.39215687 0.9343137
0.6779412 0.37156862 0.9397059
0.83259803 0.3394608 0.9379902
0.9529412 0.27549022 0.9372549
0.45686275 0.6686275 0.9490196
0.5588236 0.6681373 0.9465686
0.6931373 0.6627451 0.94411767
0.8313726 0.65000004 0.9377451
0.9529412 0.63529414 0.9431373
0.50098044 0.85588235 0.9470588
0.5997549 0.8627451 0.9470588
0.72156864 0.8627451 0.952451
0.85392153 0.8566176 0.95343137
0.9656863 0.85 0.94509804
0.5411765 0.9960785 0.9607843
0.6313726 0.9960785 0.9568627
0.74509805 0.9960785 0.9509804
0.85784316 0.9950981 0.95490193
0.9686275 0.99215686 0.9529412
