assets/luts/LUTs/LEICA/LEICA BRS.cube
#Generated by PennL1 - 闲鱼号：LOOK胶片感 公众号：胶片感
TITLE LEICA BRS
LUT_3D_SIZE 5
0.03529412 0.0 0.047058824
0.22745098 0.003921569 0.051960785
0.53137255 0.01764706 0.068627454
0.8019608 0.016666668 0.07058824
0.9647059 0.019607844 0.08235294
0.03529412 0.20784312 0.03627451
0.26519608 0.2127451 0.035539217
0.5725491 0.22009805 0.040686276
0.8281863 0.24534316 0.051715687
0.97058827 0.26666668 0.063725494
0.05490196 0.5117647 0.043137256
0.2901961 0.5284314 0.038235296
0.6019608 0.5254902 0.04803922
0.87107843 0.51617646 0.012254903
1.0 0.5411765 0.025490198
0.0754902 0.8009803 0.04117647
0.32058823 0.8142157 0.037009805
0.6161765 0.822549 0.05784314
0.8610294 0.81053925 0.08504902
0.9990196 0.7735294 0.024509804
0.08627451 0.9647059 0.03137255
0.35980392 0.97156864 0.016666668
0.6529412 0.9764706 0.03137255
0.85490197 0.98039216 0.08921569
0.9960785 0.972549 0.10980392
0.04901961 0.007843138 0.25784314
0.2504902 0.0061274515 0.27352944
0.5406863 0.022058824 0.2769608
0.8036765 0.04411765 0.28921568
0.95980394 0.058823533 0.3029412
0.11470588 0.20931372 0.23970589
0.2603554 0.2232843 0.23394608
0.5540441 0.24215688 0.2531863
0.81599265 0.2568015 0.25814953
0.9612745 0.26053923 0.26813725
0.053431373 0.51862746 0.25588238
0.2897059 0.53627455 0.2457108
0.6071079 0.53676474 0.24411766
0.86115193 0.54117656 0.2377451
0.99215686 0.55490196 0.25392157
0.067892164 0.80245095 0.2615196
0.32665443 0.81476724 0.24944854
0.63590693 0.8269608 0.2574755
0.866973 0.8156863 0.26654413
0.9992647 0.78039217 0.21568626
0.0754902 0.9735294 0.2637255
0.3360294 0.9703432 0.23504902
0.6446079 0.97794116 0.22941177
0.85612744 0.97843134 0.25857845
0.9990196 0.9696079 0.28235295
0.11568628 0.047058824 0.5411765
0.25539216 0.009313726 0.5681373
0.5539216 0.012745099 0.5627451
0.8171569 0.023529412 0.5593138
0.96470594 0.04509804 0.5529412
0.18529412 0.24950981 0.49509805
0.28480393 0.24019608 0.51200986
0.5740196 0.24436276 0.514951
0.8207108 0.26801473 0.514951
0.9583334 0.28039217 0.5318628
0.19803922 0.5176471 0.52647066
0.31715685 0.54093134 0.51617646
0.6117647 0.5534314 0.49803922
0.827451 0.57450986 0.5281863
0.9607843 0.57843137 0.5441177
0.075980395 0.80490196 0.5377451
0.3254902 0.8210784 0.52107847
0.63529414 0.82990193 0.5169118
0.8704657 0.8197304 0.5219363
1.0 0.79950976 0.51225495
0.08627451 0.972549 0.5392157
0.33235294 0.97794116 0.5254902
0.63823533 0.97745097 0.51274514
0.8568628 0.98676467 0.51225495
0.9941177 0.9725491 0.52745104
0.18431373 0.1 0.7823529
0.28455883 0.025490196 0.81936276
0.5617647 0.012745098 0.8176471
0.81911767 0.021813726 0.8095588
0.97745097 0.03137255 0.8009804
0.2509804 0.29460785 0.75441176
0.32150733 0.26488972 0.7610907
0.582353 0.25 0.7726716
0.83406866 0.2676471 0.77322304
0.9818627 0.27181375 0.78578436
0.36764705 0.54852945 0.72107846
0.44227943 0.55588233 0.7175246
0.614951 0.56568635 0.7669118
0.8427696 0.5769608 0.76727945
0.9720588 0.577451 0.7799019
0.22132352 0.81102943 0.78700984
0.35716912 0.8204044 0.7836397
0.6410539 0.830147 0.77585787
0.8668505 0.8344363 0.76691175
0.9796569 0.82990193 0.7968137
0.083333336 0.9764706 0.78137255
0.33700982 0.9764706 0.78333336
0.63676476 0.9852941 0.77941173
0.85392153 0.9875 0.7828432
1.0 0.97745097 0.777451
0.22745098 0.13725491 0.9372549
0.32352942 0.05 0.9617647
0.57058823 0.01764706 0.97058827
0.80980396 0.023529412 0.9686275
0.9764706 0.03137255 0.9607843
0.29215688 0.3264706 0.9098039
0.35563725 0.2882353 0.93308824
0.58970594 0.24950981 0.95441175
0.82843137 0.2654412 0.9558823
0.9764706 0.27450982 0.9470588
0.41960782 0.58431375 0.8666667
0.4730392 0.58921576 0.87254906
0.61764705 0.5686275 0.94509804
0.8397059 0.5715686 0.95441175
0.9901961 0.5803922 0.9509804
0.49215686 0.7882353 0.9
0.5615196 0.80220586 0.91151965
0.70637256 0.82156867 0.91617644
0.85539216 0.82867646 0.9529412
0.99215686 0.8245098 0.95882356
0.28235295 0.9686275 0.9490196
0.40882352 0.9764706 0.9421569
0.64117646 0.97843134 0.9509804
0.85 0.9882353 0.95
0.99215686 0.99215686 0.9529412
