assets/luts/LUTs/LEICA/LEICA NAT.cube
#Generated by Pennl1
#闲鱼号：LOOK胶片感
#公众号：胶片感
TITLE LEICA NAT
LUT_3D_SIZE 33
0.007843138 0.0 0.007843138
0.04644608 0.01752451 0.03284314
0.08063726 0.036764707 0.04779412
0.09901961 0.04644608 0.053186275
0.12892157 0.056372553 0.06176471
0.15220588 0.06066177 0.06850491
0.18014705 0.0627451 0.06838235
0.20759805 0.0627451 0.06666667
0.23039216 0.0627451 0.07254902
0.26507354 0.06605393 0.07450981
0.3036765 0.07034314 0.07818627
0.3264706 0.07475491 0.07892157
0.36127454 0.083333336 0.094607845
0.39987746 0.091053925 0.09975489
0.43357843 0.09656863 0.105882354
0.46139702 0.10674021 0.1122549
0.5 0.11764707 0.1254902
0.53627455 0.12389706 0.13406864
0.55980396 0.12818629 0.13725491
0.5984069 0.13860294 0.14644608
0.6284314 0.14803922 0.15931374
0.64656866 0.15661766 0.16458334
0.68823534 0.16519609 0.17303923
0.72132355 0.17377453 0.1822304
0.74705887 0.18235293 0.19411764
0.77549016 0.19093138 0.2
0.8080882 0.20122549 0.2017157
0.8381127 0.20784314 0.21017155
0.8656863 0.2127451 0.2230392
0.89987755 0.22414215 0.22745098
0.9416666 0.23382354 0.23382354
0.9774509 0.23884802 0.24950981
1.0 0.24313726 0.2509804
0.021078432 0.030392157 0.010416668
0.052853093 0.048529413 0.029518997
0.07664676 0.049931068 0.04031863
0.09703968 0.059210327 0.052205887
0.13164829 0.0676777 0.066436894
0.15443474 0.06813726 0.068332575
0.18406864 0.070136346 0.06822151
0.20918734 0.07193245 0.066907935
0.23342523 0.074724264 0.0723652
0.26506588 0.075612746 0.07383196
0.29892004 0.07928921 0.07446385
0.33298868 0.083700985 0.08568475
0.36090693 0.09227941 0.091176465
0.39717752 0.10163527 0.09975489
0.4273361 0.11065411 0.10710785
0.46105623 0.11553691 0.1129902
0.49626225 0.12267157 0.121568635
0.53125006 0.12980622 0.12760034
0.56288296 0.13713236 0.13224572
0.600203 0.14754902 0.14566867
0.625 0.15666361 0.15588236
0.65060127 0.16483992 0.16410464
0.6804381 0.16985296 0.16916361
0.7147136 0.17843139 0.17892924
0.7431373 0.1870098 0.19010417
0.7729167 0.1942402 0.19840688
0.8094822 0.20179994 0.2069853
0.841885 0.21048945 0.21575904
0.8717371 0.21495098 0.22205882
0.9075138 0.22487745 0.23224954
0.93736213 0.23455884 0.24203432
0.9732307 0.24602483 0.24705882
0.9960785 0.25134805 0.25453433
0.038235296 0.061029416 0.0375
0.05296416 0.06501992 0.042524513
0.076394 0.06642157 0.04030331
0.09565716 0.07181373 0.050972737
0.1325674 0.08011642 0.06495099
0.15738358 0.08490349 0.06740196
0.18521753 0.08529412 0.06740196
0.21154259 0.08738511 0.069975495
0.2341299 0.08958334 0.071875006
0.25906864 0.08933058 0.06875
0.2898591 0.0935815 0.0754902
0.32252607 0.09659161 0.07877605
0.35689342 0.105882354 0.09044118
0.39678308 0.11446078 0.0990196
0.43209252 0.12181373 0.106142774
0.4650199 0.12739737 0.11181833
0.49803925 0.13553922 0.121200986
0.5300399 0.14368108 0.12679994
0.5646293 0.14977023 0.13426778
0.6008196 0.15984222 0.14644608
0.6256434 0.16504289 0.15523897
0.65477943 0.16995251 0.1606388
0.6815717 0.17847735 0.17029719
0.72082573 0.1876302 0.18492648
0.7438725 0.19540441 0.18921569
0.773652 0.20233609 0.19510569
0.8064645 0.20882355 0.20384498
0.8400965 0.2177926 0.21409313
0.8686275 0.22380516 0.22251837
0.90551466 0.2334559 0.23395373
0.9425398 0.24313727 0.24471506
0.9738281 0.24816178 0.24987747
0.9960785 0.25490198 0.2509804
0.054289218 0.08051471 0.049264707
0.067608766 0.084597126 0.058559287
0.080185354 0.08688726 0.056533396
0.10090763 0.09165901 0.060719218
0.12444853 0.097181365 0.06744792
0.1544539 0.10198759 0.07110524
0.18785232 0.10465687 0.07231159
0.20978095 0.10465687 0.07319623
0.23223038 0.10888481 0.077175245
0.2588963 0.10977711 0.076983765
0.29376534 0.1149663 0.08200061
0.320324 0.113936126 0.07871094
0.3555913 0.12510724 0.08835784
0.3986443 0.1327206 0.09693627
0.42706034 0.13972886 0.103063725
0.46209025 0.14370789 0.107395075
0.49803925 0.15006128 0.11905638
0.5379902 0.15575981 0.13071768
0.56573224 0.16274509 0.13732384
0.59926087 0.17046186 0.14582567
0.62732846 0.17290136 0.15231311
0.65793127 0.18063724 0.16053922
0.68448997 0.18821998 0.17328434
0.72039294 0.19796646 0.18475415
0.7478861 0.20373775 0.18838848
0.7782514 0.21065028 0.19544269
0.80610454 0.21802236 0.20439646
0.83912 0.22806372 0.21467908
0.87000614 0.23357843 0.22492342
0.9045496 0.24124157 0.22947687
0.9386412 0.25061277 0.2389323
0.9734259 0.25663683 0.24648438
0.9971814 0.25710785 0.24987747
0.06421569 0.114705876 0.059313726
0.06946998 0.11706495 0.06176471
0.08501839 0.11663603 0.06148897
0.10153186 0.11862745 0.061397057
0.12579657 0.12009804 0.0666054
0.15612745 0.12553616 0.072426476
0.18186274 0.12892157 0.075888485
0.20695466 0.12892157 0.07374387
0.23125 0.13002451 0.0757353
0.25868568 0.13576901 0.0790288
0.2898591 0.1367647 0.07941177
0.3163297 0.13941483 0.08022366
0.35606617 0.14626226 0.09136029
0.39456192 0.1523744 0.101225495
0.42849264 0.1578125 0.10781251
0.4657782 0.16141239 0.11320465
0.4995098 0.16715688 0.120588236
0.5329504 0.17231925 0.12709866
0.56194854 0.17889094 0.13593751
0.59641546 0.18509498 0.14359681
0.62579656 0.19099265 0.15196079
0.65361524 0.19641545 0.16053922
0.6856924 0.20229779 0.17181373
0.717785 0.20811887 0.18284315
0.74816173 0.21482845 0.18480395
0.78094363 0.22389704 0.19304533
0.8051777 0.22754289 0.20140931
0.8389706 0.23517156 0.21392463
0.87205887 0.2425245 0.22303922
0.9027267 0.2492647 0.22768074
0.9379596 0.25784314 0.236489
0.9747702 0.26508886 0.2448989
1.0 0.26715687 0.25
0.06666667 0.14595589 0.06482843
0.07186351 0.1478171 0.06666667
0.08674173 0.14803922 0.06593138
0.1039637 0.14803922 0.06333104
0.12924327 0.1495098 0.06629902
0.1544041 0.15293735 0.0688649
0.1802543 0.15301012 0.0689951
0.20896523 0.15461858 0.0689951
0.23385416 0.15744486 0.07175245
0.26061964 0.1597235 0.06956955
0.29227176 0.16177237 0.070718445
0.31857002 0.16195236 0.077140786
0.35231313 0.16495098 0.08753064
0.39509803 0.17226946 0.09672565
0.42883733 0.17512253 0.10494026
0.4634804 0.17941177 0.11199832
0.5010417 0.18370098 0.119056374
0.5328547 0.18813573 0.123786
0.55926776 0.19378832 0.13160999
0.59574527 0.20171568 0.1410884
0.62472427 0.20868567 0.15012255
0.644673 0.21121708 0.1569202
0.6843137 0.21753983 0.16729474
0.71372557 0.22230776 0.17545192
0.7414215 0.22800247 0.18051471
0.7751034 0.23247549 0.18980928
0.8029565 0.23665749 0.19884345
0.83272827 0.24302238 0.20540364
0.86524206 0.25171572 0.2130821
0.9014437 0.26029414 0.22570848
0.94056374 0.26887256 0.23759958
0.972281 0.27223116 0.23779488
0.9981618 0.28002453 0.24938728
0.06666667 0.17794117 0.0627451
0.07247243 0.18128829 0.066873476
0.092800245 0.1761489 0.06855086
0.10823377 0.17794117 0.066536464
0.13207722 0.18023898 0.06642157
0.15451899 0.18303463 0.06703432
0.18036151 0.18089767 0.06495099
0.20615043 0.1823989 0.06350338
0.23278184 0.18192403 0.06531863
0.26051626 0.18509498 0.06514247
0.2922641 0.18739277 0.07069547
0.32498467 0.18536304 0.07295497
0.35297182 0.18820466 0.078982845
0.39757967 0.1936198 0.087882966
0.42653185 0.19725798 0.095695466
0.46312037 0.20306373 0.104128376
0.49779412 0.20624998 0.11397059
0.5294118 0.2084176 0.12148438
0.5593597 0.21318932 0.12882966
0.596201 0.21935509 0.13897824
0.6249387 0.22594976 0.14803922
0.6469363 0.22624081 0.15281864
0.68014705 0.23249078 0.16302083
0.71024823 0.2360524 0.17205884
0.7411153 0.24466914 0.18008581
0.7731847 0.24767159 0.1870098
0.8029412 0.25367647 0.19558825
0.8328431 0.2601716 0.20234375
0.8633272 0.2655331 0.20900735
0.9009804 0.27169883 0.21986826
0.9371017 0.28144914 0.22941178
0.96821386 0.28533244 0.23332568
0.9960785 0.29289216 0.24313726
0.0692402 0.20110296 0.06531863
0.074885115 0.20453048 0.06679305
0.092532165 0.2004902 0.06849724
0.10598193 0.20295267 0.06876149
0.1362592 0.20404412 0.06556373
0.15870099 0.20710786 0.06738281
0.18298866 0.2050245 0.06666667
0.20671338 0.20333561 0.06578202
0.23106617 0.20530024 0.06531863
0.26083794 0.21069624 0.068627454
0.28990504 0.20910692 0.07176777
0.3275314 0.20772058 0.07467066
0.35458028 0.21168812 0.08080576
0.39862517 0.21372549 0.09026884
0.4279795 0.21843597 0.097411156
0.46397826 0.22365196 0.10619256
0.49607843 0.2259804 0.11568629
0.5266506 0.22830883 0.119795494
0.5605929 0.23259804 0.12834713
0.59274286 0.23889783 0.13916591
0.62279415 0.24492955 0.15029107
0.6477137 0.24428232 0.15539217
0.68030787 0.24991573 0.16135877
0.71335787 0.25682828 0.1716031
0.7454045 0.26225492 0.18137255
0.7738013 0.26654413 0.18789446
0.8052466 0.27142313 0.19816175
0.8364353 0.27783778 0.2067402
0.8666514 0.28333333 0.2112592
0.9045458 0.28762254 0.21740195
0.93232995 0.29201135 0.2217984
0.9691252 0.30332032 0.23640855
0.99350494 0.30833334 0.24313726
0.064705886 0.22549021 0.06666667
0.075980395 0.22665441 0.06666667
0.09203432 0.22861521 0.06685049
0.10827205 0.22996324 0.06709559
0.1367647 0.23210783 0.06605393
0.16004902 0.23287375 0.06666667
0.18357845 0.23069851 0.065012254
0.20566788 0.2287684 0.063725494
0.22745098 0.23210785 0.063725494
0.25634193 0.23416054 0.0645527
0.28835785 0.23063727 0.067463234
0.32319242 0.23060662 0.07475491
0.34963235 0.2372549 0.083333336
0.3991728 0.23811275 0.090625
0.42444852 0.24240197 0.094301485
0.45839462 0.24549635 0.10260417
0.49313727 0.24754903 0.112745106
0.52729785 0.25134805 0.12113972
0.5574755 0.25563726 0.13026962
0.5873468 0.26069242 0.13946079
0.62230396 0.26519608 0.1514706
0.6464155 0.26853555 0.1567402
0.67781866 0.27009803 0.16164216
0.716728 0.2780637 0.17542894
0.7438725 0.28235298 0.18137255
0.7729167 0.2866422 0.18835783
0.80337 0.2909314 0.19822304
0.835141 0.29574144 0.20514706
0.8671569 0.30232847 0.21249999
0.90551466 0.30560663 0.22034313
0.9375613 0.31066176 0.22732843
0.9643689 0.31798407 0.23553923
0.99215686 0.3254902 0.24019605
0.06605393 0.25453433 0.06666667
0.07567019 0.2579006 0.06966529
0.09033394 0.2584559 0.06666667
0.11205959 0.25862822 0.06573606
0.13924633 0.25782782 0.06459866
0.16356464 0.25731084 0.06511566
0.18543965 0.25686276 0.06301317
0.20616195 0.2573185 0.0627451
0.23143381 0.26139706 0.0627451
0.25556833 0.25958562 0.0627451
0.2882353 0.25539216 0.06642157
0.31597733 0.2584942 0.0745481
0.35300246 0.2605086 0.07712929
0.39506358 0.26643306 0.08905866
0.42403492 0.26710325 0.098230705
0.45734143 0.27021295 0.10453432
0.49381125 0.27444854 0.11176471
0.52635187 0.27511874 0.12095972
0.5584023 0.2780637 0.12860754
0.5920458 0.28235295 0.13615197
0.6209712 0.28664216 0.14816178
0.6495481 0.29093137 0.1566368
0.679856 0.29464614 0.16135111
0.7140931 0.30002683 0.17098269
0.74065566 0.30710787 0.17806374
0.7717793 0.31025967 0.18504903
0.80252767 0.31382507 0.19448529
0.83447456 0.3199755 0.20261565
0.86591613 0.32464767 0.2127451
0.90313643 0.32872626 0.2213235
0.93664217 0.333341 0.22721353
0.9655561 0.34374234 0.23461628
0.9987745 0.34926468 0.24583334
0.07034314 0.2882353 0.06666667
0.079978555 0.29215688 0.07090993
0.09960172 0.29215688 0.073330276
0.11617648 0.29112285 0.070274204
0.14200369 0.2883885 0.068811275
0.16593903 0.2883502 0.068275124
0.18739277 0.28834254 0.06596202
0.20878525 0.28357077 0.065157786
0.23602942 0.28682598 0.069178924
0.2625383 0.29162073 0.07320006
0.29214156 0.2884804 0.0705576
0.31839004 0.2884804 0.071063116
0.35346204 0.28900123 0.07919731
0.3913679 0.29345128 0.08804381
0.42541358 0.29747245 0.09558824
0.46115196 0.30019915 0.102964155
0.49595588 0.3004902 0.11360295
0.52828586 0.3026731 0.124387264
0.5549173 0.30939034 0.13439032
0.59152883 0.31482846 0.14289215
0.6270221 0.31268382 0.14846814
0.6467908 0.3196155 0.15305607
0.6801624 0.32378983 0.16127452
0.71037835 0.32467064 0.16985294
0.7411153 0.33008578 0.1783701
0.77650887 0.3370481 0.18811275
0.8081954 0.3412837 0.19754903
0.8381128 0.34571078 0.20405178
0.8647672 0.35 0.21044733
0.9016622 0.3542892 0.21764706
0.94499075 0.36156556 0.23200063
0.967088 0.36365652 0.23191635
1.0 0.37499997 0.2507353
0.07475491 0.31078434 0.07867648
0.08785616 0.31812578 0.08247549
0.10416668 0.31450674 0.08176318
0.11927466 0.31467143 0.07757354
0.14214155 0.31458333 0.07622549
0.16414292 0.31636414 0.07873392
0.18376991 0.31410846 0.07659314
0.21033624 0.30829123 0.074877456
0.23452817 0.315625 0.0806679
0.26241577 0.31529948 0.07939262
0.29251686 0.3147059 0.07856924
0.32254136 0.3183862 0.078799024
0.35382968 0.32182905 0.08405331
0.39433596 0.31936273 0.095929064
0.4266774 0.32246476 0.10559896
0.46504673 0.32414216 0.11519609
0.4978554 0.3264093 0.12150736
0.52615273 0.32867646 0.13232997
0.5587393 0.33043814 0.13717832
0.59607846 0.33654642 0.14941408
0.6246017 0.34155944 0.15635723
0.64288837 0.34571466 0.16078049
0.68039215 0.3459635 0.16923255
0.714074 0.34847194 0.17830883
0.7439645 0.36047795 0.19016545
0.7752872 0.35906863 0.1986941
0.807912 0.36330417 0.20569088
0.839951 0.36758962 0.21408547
0.8694393 0.37185967 0.22201289
0.9063188 0.3790097 0.23172106
0.9459559 0.38453585 0.2383119
0.9705652 0.388737 0.24631204
0.9960785 0.39289218 0.2509804
0.083333336 0.34509805 0.08627451
0.091881126 0.347932 0.08681066
0.10563726 0.3432598 0.087254904
0.12181373 0.34762558 0.086151965
0.14313728 0.34638482 0.0846201
0.16289829 0.34584868 0.08837317
0.19019607 0.3453125 0.088541664
0.2149663 0.34541973 0.08693321
0.24093136 0.34816176 0.089705884
0.26318935 0.3494332 0.09027267
0.2960478 0.3495098 0.0833027
0.32611826 0.34286153 0.087346815
0.35134804 0.3495098 0.091176465
0.39681375 0.35026038 0.09878983
0.4251532 0.35416672 0.104074754
0.4568168 0.3584559 0.1115962
0.49191177 0.35906863 0.11960785
0.52729785 0.35939032 0.12732843
0.5557905 0.36583945 0.13498774
0.59178925 0.37120098 0.14655331
0.6269608 0.37248775 0.15588236
0.6508272 0.37207416 0.1644608
0.68039215 0.37668502 0.17285539
0.713557 0.3805913 0.17913604
0.7397059 0.38529408 0.18921569
0.7691483 0.38941482 0.19586396
0.80260426 0.39188117 0.206587
0.8325521 0.3963235 0.21335784
0.86372554 0.4 0.21979167
0.89797795 0.40775123 0.22395833
0.9352329 0.41715688 0.23367035
0.9674326 0.41951594 0.24555759
0.9960785 0.41911766 0.25
0.091053925 0.38026962 0.08713236
0.09759114 0.37977943 0.091341145
0.11662838 0.38218445 0.09427849
0.13234912 0.3804113 0.09363128
0.15461092 0.38841912 0.09083946
0.17169118 0.38667664 0.09110754
0.19486058 0.3823606 0.09191943
0.21362592 0.38228017 0.0918122
0.23921567 0.38333333 0.093351714
0.2608839 0.38736597 0.09225643
0.29588696 0.3873085 0.088235304
0.3262255 0.3873085 0.094048716
0.35402882 0.38864887 0.09278493
0.39405254 0.38658473 0.098521754
0.4227941 0.38874844 0.101394005
0.45786232 0.39327893 0.11280255
0.49105397 0.39509803 0.11917893
0.5260647 0.39509803 0.124754906
0.5542892 0.39779413 0.13595283
0.5892157 0.40208334 0.14644608
0.62363666 0.40637255 0.15577513
0.65155107 0.40389475 0.16362976
0.6795343 0.4099265 0.17414215
0.71336937 0.41115198 0.18551624
0.7431373 0.41896445 0.1885723
0.77110523 0.42284387 0.19379978
0.8047487 0.42474726 0.20133272
0.8344554 0.43018153 0.20998009
0.86147356 0.43345588 0.2156097
0.9034198 0.43750766 0.22744332
0.9389323 0.4447687 0.23704809
0.97778034 0.4516315 0.24346662
0.9960785 0.44828436 0.2439951
0.09656863 0.41642156 0.09264707
0.10676317 0.41420805 0.09656863
0.119577214 0.4186428 0.09730392
0.1353171 0.41723347 0.09862899
0.16004902 0.41875002 0.0949755
0.17846966 0.42303923 0.094860606
0.19857538 0.42000613 0.09264707
0.22028954 0.41845128 0.09441635
0.24197304 0.41887257 0.096262254
0.26563266 0.42445618 0.099877454
0.29623163 0.4218137 0.09566482
0.3273744 0.42051163 0.09665288
0.3530331 0.42487743 0.09944853
0.3950674 0.4197304 0.10009191
0.4240962 0.42447916 0.10200674
0.45688573 0.42818627 0.110677086
0.4947304 0.428799 0.11703431
0.5303922 0.42941177 0.12659314
0.55697 0.43126535 0.13442096
0.59227943 0.43517157 0.14433977
0.62294734 0.43946075 0.15447305
0.6449832 0.43995094 0.16062348
0.67892164 0.44010413 0.17590381
0.71266085 0.44324452 0.18574603
0.7425245 0.4494485 0.18749999
0.77464765 0.45575982 0.19565715
0.8089614 0.45833334 0.20225184
0.83807445 0.46106777 0.21009499
0.86844367 0.46348038 0.22012867
0.9017923 0.4701746 0.22916667
0.9365196 0.47797182 0.23555455
0.9770526 0.47916666 0.24607076
0.99485296 0.4764706 0.24705882
0.105147064 0.4464461 0.10281863
0.11598499 0.44991958 0.10659083
0.124770224 0.45255822 0.10588235
0.14109606 0.45261565 0.10796569
0.16334252 0.45341605 0.10280331
0.18224187 0.4519608 0.09998851
0.20114125 0.4519608 0.101225495
0.22414215 0.45244333 0.101225495
0.25042894 0.45628065 0.10416668
0.27169502 0.4580959 0.10711168
0.2980622 0.45453432 0.10310968
0.33000153 0.4519608 0.10355393
0.35298714 0.45265016 0.10366115
0.39327893 0.45763633 0.105430454
0.42795652 0.45771298 0.107575074
0.46001455 0.45661765 0.10652956
0.49607843 0.459375 0.11488971
0.5279949 0.46213233 0.12324985
0.5555301 0.46213233 0.13467371
0.5919309 0.46519607 0.14554994
0.62337625 0.46809128 0.15364584
0.6502222 0.46992567 0.15904565
0.6812271 0.47046566 0.17154565
0.71544504 0.47781864 0.18136872
0.7407782 0.4784007 0.18860294
0.77499235 0.4814951 0.19638097
0.80860907 0.48476565 0.20343137
0.839794 0.48813573 0.21077283
0.8715227 0.49231005 0.21971507
0.90466064 0.49632356 0.22916667
0.9418045 0.50310206 0.23774509
0.96883047 0.50729936 0.24632353
0.99534315 0.5091912 0.2502451
0.1137255 0.4882353 0.11176471
0.122671574 0.49375004 0.11390931
0.13480392 0.4909314 0.116053924
0.14779413 0.49411768 0.11654412
0.16985294 0.49411768 0.1129902
0.18670343 0.49503678 0.111764714
0.20710786 0.49387258 0.11066177
0.22984067 0.48958334 0.10980392
0.25196078 0.49411768 0.11421569
0.27340686 0.49607843 0.115686275
0.3022059 0.492402 0.113848045
0.3322304 0.4921569 0.11366422
0.3625 0.49313727 0.11200981
0.3942402 0.49914217 0.11372549
0.42671567 0.49485296 0.1112745
0.46372554 0.4921569 0.10827205
0.49607843 0.49411768 0.11470589
0.52493876 0.49607843 0.11997549
0.5541667 0.49607843 0.12965687
0.5918505 0.49914217 0.13946079
0.6240196 0.5017157 0.14975491
0.6445466 0.5076593 0.15287991
0.6746324 0.5061275 0.16335785
0.7098652 0.51072305 0.17377453
0.7382353 0.5151961 0.18235293
0.7716299 0.5143995 0.19093138
0.8046568 0.517402 0.19865194
0.8333946 0.52064955 0.2071691
0.86372554 0.52524513 0.2142157
0.90214455 0.5316789 0.22273284
0.9439951 0.53333336 0.23026961
0.966973 0.5368873 0.24025735
0.99803925 0.5411765 0.24705882
0.122303925 0.532353 0.11838235
0.12913986 0.53568864 0.11889936
0.14381893 0.5307598 0.12346047
0.15783931 0.5339461 0.12177543
0.17723653 0.5339461 0.122303925
0.1934934 0.53360146 0.122303925
0.21540287 0.53141856 0.12140779
0.23328355 0.5305071 0.11918274
0.25407475 0.5319547 0.1225184
0.27744716 0.5336972 0.12389706
0.308678 0.5302696 0.12022059
0.34326363 0.5300973 0.121518835
0.36648285 0.53275126 0.1200674
0.39985827 0.5357001 0.12071079
0.42867646 0.5350491 0.1194853
0.4645987 0.532353 0.11838236
0.49724266 0.5311888 0.11917893
0.5284314 0.53140706 0.11902957
0.5558594 0.5339538 0.12536766
0.59227943 0.53592604 0.13519073
0.6267004 0.5376685 0.14615503
0.6479665 0.54095435 0.15122549
0.67240345 0.5441177 0.15953586
0.7042854 0.54522824 0.16654412
0.7356924 0.55140936 0.17843139
0.7674671 0.5519608 0.1878102
0.80346966 0.5526578 0.19620098
0.8325981 0.5544003 0.2021829
0.8611673 0.5575981 0.20842525
0.89991957 0.5647059 0.2169539
0.93439806 0.5669118 0.22279412
0.9659161 0.56902194 0.2341912
0.9960785 0.5731618 0.23921567
0.13088235 0.5639706 0.12965687
0.14090839 0.562523 0.12977175
0.15 0.56246936 0.13065258
0.16472887 0.5620328 0.1307598
0.18281248 0.56498164 0.13357843
0.19885875 0.5648285 0.13357843
0.21804534 0.5627451 0.1320619
0.23643535 0.56354934 0.13184744
0.25955883 0.5639706 0.13327207
0.28198528 0.5639706 0.13357843
0.31698838 0.56282175 0.13242954
0.34163603 0.5600873 0.12965687
0.36804533 0.56161153 0.12981005
0.404879 0.56305915 0.13088235
0.4328738 0.561106 0.1304994
0.46469054 0.56287533 0.12905943
0.49938726 0.5606618 0.12696078
0.5348116 0.55917585 0.12646294
0.5581955 0.56312805 0.12864584
0.59227943 0.5673024 0.13553922
0.62380517 0.5678922 0.14283088
0.6540365 0.5652804 0.15265013
0.6728095 0.57051164 0.15614277
0.7101869 0.57365197 0.16881894
0.7373162 0.57726717 0.17708336
0.76642156 0.5781863 0.18389246
0.8041667 0.5793658 0.1974571
0.8327589 0.58231467 0.20477942
0.86075366 0.5826593 0.20814951
0.9007123 0.5858073 0.2185815
0.9338082 0.59163606 0.22549021
0.96826744 0.5937577 0.23200062
0.9960785 0.6004902 0.24191174
0.13946079 0.5939951 0.13946079
0.15188037 0.5962814 0.14281173
0.16041666 0.5974724 0.1450138
0.17290519 0.59692097 0.14190412
0.18710172 0.59355086 0.14031863
0.20420112 0.5989507 0.14175476
0.22145374 0.6001226 0.14289983
0.24051395 0.598112 0.14107691
0.26155025 0.59705883 0.14261642
0.28838083 0.5996439 0.14079735
0.31974572 0.5915058 0.14031863
0.34711245 0.593233 0.13955653
0.37218136 0.59515935 0.14175859
0.40888098 0.58950293 0.13773745
0.43850335 0.59396446 0.14060968
0.46876913 0.5930722 0.1372932
0.50306374 0.596201 0.13707109
0.53553927 0.59387255 0.13735831
0.56068474 0.5955653 0.13860294
0.5929496 0.597729 0.13994333
0.623269 0.59791666 0.14643076
0.64808136 0.60005367 0.155733
0.67265624 0.60103405 0.15660234
0.7083103 0.60245097 0.16774663
0.7390013 0.6065257 0.18030025
0.76843214 0.60777044 0.18588388
0.80282634 0.60613513 0.19462316
0.83229935 0.60870105 0.20313266
0.86144304 0.61000305 0.20975797
0.89718896 0.6125 0.21777728
0.93488055 0.6224648 0.2311198
0.9668314 0.6245098 0.23157933
0.9960785 0.6292892 0.24313726
0.14803922 0.6240196 0.1514706
0.15710786 0.6251532 0.14889705
0.16577819 0.63017774 0.15235907
0.17668505 0.62555146 0.15182292
0.19332108 0.62732846 0.1514706
0.20894608 0.62817097 0.15170038
0.2262255 0.6284314 0.15196079
0.2428462 0.6281097 0.1516391
0.26691177 0.6279412 0.15183824
0.29379597 0.63125 0.1515472
0.3200674 0.62405026 0.14825368
0.34952512 0.6207108 0.14462316
0.37003672 0.6247549 0.14583334
0.4114277 0.6252911 0.15119486
0.44466913 0.6229167 0.15058212
0.47276348 0.6259651 0.14914218
0.50906867 0.6245098 0.15122549
0.53693324 0.62421876 0.14923409
0.5636336 0.6267157 0.14803922
0.59388787 0.6252604 0.14803922
0.62101716 0.6275123 0.14589462
0.64966303 0.6250919 0.15318629
0.68241423 0.62521446 0.16056986
0.70868564 0.6290441 0.16662072
0.73406863 0.6333333 0.17794117
0.766636 0.6349265 0.18357845
0.8000919 0.63235295 0.19344364
0.8339614 0.6344363 0.20393689
0.8639094 0.6362745 0.21029413
0.8993873 0.63909316 0.21740195
0.93799025 0.6497549 0.22956496
0.9694853 0.6488511 0.2314185
0.9960785 0.652451 0.23970586
0.15661766 0.6464461 0.1567402
0.16139707 0.6502681 0.1569853
0.17068781 0.64973193 0.16053922
0.18455884 0.64754903 0.16053922
0.2017157 0.6503677 0.1591146
0.21525352 0.6503677 0.158521
0.2305147 0.6482307 0.15840228
0.24930684 0.64656866 0.15424709
0.27239585 0.6522672 0.15863971
0.29495633 0.6542701 0.1573338
0.32009804 0.65049785 0.15306373
0.34974724 0.65000767 0.15649511
0.37673098 0.6469363 0.15605086
0.4137791 0.65031403 0.15294118
0.4439185 0.6513863 0.15409008
0.47541744 0.6525736 0.1582108
0.5079044 0.65024513 0.15863971
0.5401004 0.65024513 0.15666744
0.566345 0.6529412 0.15661766
0.59993106 0.65110296 0.15661766
0.62486213 0.65035236 0.15318629
0.6502413 0.65392923 0.15661383
0.68406093 0.6540518 0.1615043
0.71333873 0.65477943 0.17236137
0.7409314 0.65906864 0.17555147
0.77650887 0.6606618 0.18688725
0.8083027 0.6597503 0.1955193
0.8382276 0.6619524 0.20416665
0.8646906 0.66200984 0.21029413
0.9015396 0.66755897 0.22013251
0.9422794 0.6700291 0.22987899
0.96688884 0.66654414 0.23481543
0.99987745 0.6738971 0.24301472
0.16519609 0.6720588 0.16887255
0.17007507 0.6759804 0.17242649
0.17847732 0.675337 0.1689185
0.18932293 0.67048097 0.17015165
0.20474878 0.66648287 0.17279412
0.21937805 0.66874236 0.16934744
0.23448224 0.66873467 0.16557905
0.25008425 0.6687883 0.1629519
0.27303922 0.6743872 0.16427697
0.2985677 0.6727099 0.1685049
0.32794118 0.66884196 0.16911766
0.35345438 0.672549 0.16519609
0.3818015 0.6729779 0.16522673
0.42158395 0.67603403 0.1661918
0.4503064 0.6763021 0.16887255
0.47820926 0.67637104 0.1672794
0.50808823 0.6743872 0.16507353
