assets/luts/LUTs/LEICA/LEICA SLV.cube
#Generated by PennL1
#小红书号：PennL1
#公众号：胶片感
#闲鱼号：LOOK胶片感
TITLE LEICA SLV
LUT_3D_SIZE 33
0.011764706 0.0 0.015686275
0.04509804 0.004289216 0.02745098
0.10710785 0.007843138 0.025980392
0.14485295 0.0067401966 0.019607844
0.2004902 0.0053921575 0.02254902
0.24583334 0.009681373 0.025612745
0.29313725 0.011764706 0.027941179
0.3317402 0.014338236 0.03137255
0.36176473 0.015686275 0.03137255
0.4050245 0.018995099 0.034681372
0.4375 0.019607844 0.03897059
0.45183825 0.027328432 0.03541667
0.48137254 0.024509804 0.04019608
0.50710785 0.032230392 0.047058824
0.5279412 0.03529412 0.045833334
0.54448533 0.03529412 0.04632353
0.57450986 0.039215688 0.058823533
0.597549 0.040808827 0.059681375
0.6120098 0.041911766 0.049509805
0.63406867 0.046200983 0.05012255
0.6529412 0.047058824 0.05784314
0.67009807 0.050857842 0.058823533
0.6997549 0.05122549 0.058823533
0.7279412 0.05612745 0.06066177
0.74803925 0.0627451 0.07254902
0.7753676 0.06139706 0.07303922
0.79852945 0.062254906 0.066176474
0.8221814 0.06666667 0.07058824
0.84362745 0.07156863 0.0754902
0.86507356 0.07169118 0.078431375
0.8992647 0.07696079 0.09117647
0.9165441 0.081985295 0.09767157
0.9294118 0.08627451 0.101960786
0.011764706 0.028676473 0.0050245104
0.04691713 0.042260263 0.018941484
0.09408701 0.03406863 0.016789217
0.1437117 0.04033778 0.020768229
0.20511642 0.04154412 0.022931986
0.24894685 0.0439951 0.024827667
0.2939951 0.043374695 0.020511642
0.3328393 0.045948226 0.02155714
0.3627451 0.050490197 0.029963236
0.39178923 0.05147059 0.034738816
0.42847732 0.051815256 0.03529412
0.45442325 0.04505208 0.03160616
0.47627145 0.05551471 0.039031863
0.49803922 0.059803925 0.043347888
0.5196002 0.06164216 0.052941177
0.5411497 0.061982997 0.048801318
0.56237745 0.0666054 0.044914216
0.579385 0.071009494 0.041027118
0.6009957 0.06631434 0.039836094
0.62973726 0.06870788 0.04579121
0.65217525 0.07720588 0.053645834
0.67008656 0.07818627 0.06142004
0.6885034 0.08213083 0.05899204
0.7150812 0.083088234 0.057670806
0.74322915 0.08719363 0.0692402
0.76839 0.089709714 0.073422186
0.78962165 0.08855699 0.06666667
0.8129174 0.09262408 0.07083334
0.8372549 0.0980239 0.07428003
0.8605775 0.10071615 0.07977941
0.8833333 0.107789524 0.08228401
0.91155404 0.11307828 0.08590686
0.9294118 0.10955883 0.09338236
0.013235294 0.086519614 0.014215687
0.045695465 0.09057905 0.016927084
0.099218756 0.09338236 0.022273285
0.140625 0.09865197 0.022472426
0.20079656 0.09702819 0.019087011
0.24345896 0.09901961 0.021078432
0.2920037 0.09364278 0.019286152
0.33092833 0.09573377 0.028829657
0.36164215 0.102512255 0.036213238
0.39167434 0.103676476 0.0355239
0.42181373 0.105974264 0.03460478
0.44389552 0.10460325 0.03227635
0.47043505 0.10324755 0.039093137
0.49579504 0.10625 0.049869794
0.5178922 0.10854779 0.046844363
0.5398438 0.10815717 0.04343597
0.5591912 0.11127451 0.04387255
0.57941175 0.11337317 0.044745713
0.60583645 0.11178003 0.047533702
0.6333334 0.11327359 0.05159314
0.65134805 0.11954657 0.051807597
0.6700444 0.12034314 0.052428003
0.6965686 0.12455577 0.06377146
0.7252528 0.12930453 0.067907475
0.74430156 0.13094364 0.06605393
0.7644608 0.1304994 0.06531097
0.7915901 0.13446692 0.067723654
0.81458336 0.13958333 0.071522675
0.83771443 0.143413 0.073897064
0.8653646 0.14513634 0.07810968
0.8903033 0.14912684 0.08368567
0.9147748 0.15577513 0.087446384
0.92867655 0.15392157 0.0877451
0.020710785 0.1370098 0.01004902
0.053779874 0.14256282 0.021710325
0.1048943 0.14893536 0.030844059
0.14969745 0.15392923 0.02824372
0.1963848 0.15186888 0.028278187
0.24463849 0.1515242 0.02913986
0.29546568 0.15207568 0.02979473
0.32680377 0.15159315 0.031885725
0.35686272 0.15499388 0.038817402
0.39117646 0.15705806 0.03896676
0.42181373 0.15251991 0.038028494
0.44292662 0.14888175 0.037798714
0.47388178 0.15199143 0.047058824
0.5003677 0.15134805 0.04877451
0.5203202 0.15494792 0.05157016
0.5413374 0.1570236 0.045833334
0.5613358 0.15692402 0.048161767
0.58533627 0.1575521 0.052163757
0.60639554 0.15970436 0.055660233
0.6303884 0.1609107 0.058206957
0.65738356 0.16308211 0.05635723
0.67134273 0.16335785 0.059803925
0.69968593 0.1665288 0.06812194
0.7271829 0.17171799 0.07269838
0.7467525 0.17288603 0.06930147
0.7698185 0.17697228 0.07134651
0.7938649 0.17930454 0.074992344
0.8156863 0.18559283 0.07781863
0.8408088 0.18777573 0.08310356
0.8642808 0.19221431 0.087067254
0.88880974 0.19910386 0.091957726
0.9107843 0.20336628 0.09601333
0.9276961 0.20428921 0.096323535
0.025 0.19264707 0.018627452
0.060600493 0.20182292 0.028262869
0.10762868 0.20122549 0.031648286
0.14920343 0.2046875 0.032567404
0.2052696 0.20355392 0.03425245
0.25022978 0.20347732 0.0370864
0.28893995 0.20382965 0.037714463
0.32775736 0.20147058 0.03760723
0.3605392 0.2007353 0.03897059
0.391636 0.2025582 0.04590993
0.4231924 0.19558825 0.051654413
0.44442403 0.19984682 0.044730395
0.47224265 0.19558825 0.048897058
0.4978707 0.19923407 0.052542895
0.51893383 0.19969364 0.054840688
0.54335177 0.20101103 0.053661156
0.5642157 0.20318627 0.054656863
0.586535 0.19954044 0.05477941
0.60824144 0.20125613 0.05906863
0.6318321 0.204856 0.06259192
0.6526348 0.20968138 0.061948534
0.6724725 0.2131434 0.0641391
0.70079654 0.21461397 0.07049633
0.7235448 0.21423101 0.07018995
0.7480392 0.22058824 0.075
0.7724265 0.22352941 0.07374387
0.7928003 0.22588848 0.08039216
0.8178156 0.22683823 0.08558518
0.84178925 0.22898285 0.08719363
0.86530334 0.23806679 0.09162071
0.889185 0.2426777 0.09313726
0.9082414 0.25246632 0.10113358
0.93039215 0.25 0.101960786
0.029289216 0.24534315 0.023529412
0.061155792 0.25271904 0.033088237
0.10808824 0.24691331 0.030269608
0.15234375 0.2515242 0.034041822
0.20695466 0.2506587 0.036320467
0.25 0.25220972 0.03762255
0.2905484 0.24982384 0.036450677
0.3317785 0.24800093 0.0379519
0.36574757 0.25082722 0.043719362
0.39395297 0.24979703 0.042118568
0.4290518 0.24388021 0.043267466
0.4514706 0.24522826 0.045285694
0.4705576 0.24215686 0.048284315
0.5016812 0.24473041 0.05514706
0.52111673 0.24289218 0.05514706
0.5421454 0.24484146 0.058333337
0.5657476 0.24178922 0.05894608
0.58716685 0.24091989 0.05504749
0.6076287 0.24453126 0.059106927
0.63361293 0.24726947 0.064162076
0.6529412 0.24928004 0.063250616
0.67009807 0.25532708 0.06477099
0.6976562 0.25758272 0.0685049
0.71915984 0.25825292 0.06637945
0.7426777 0.26271445 0.07515319
0.7669501 0.2634153 0.076348044
0.79080886 0.26885724 0.078975186
0.8155752 0.27107078 0.08345971
0.83734685 0.27340686 0.086887255
0.86436504 0.28333333 0.09267387
0.89178926 0.28664216 0.09585632
0.9085287 0.2904182 0.098089
0.9254902 0.2947304 0.09828432
0.033578433 0.29656863 0.025735294
0.06687347 0.29959407 0.035209868
0.1240043 0.29198837 0.029978555
0.16178003 0.2976716 0.03261336
0.2111826 0.30067402 0.035784315
0.24921109 0.30155486 0.03681832
0.29093137 0.29931068 0.03674939
0.33269763 0.29931068 0.038036153
0.3641544 0.2988358 0.042156864
0.39908856 0.29869792 0.04396446
0.42922795 0.29303002 0.04365809
0.45360756 0.2899127 0.04534314
0.47107843 0.28893995 0.046047796
0.50490963 0.28958336 0.05146293
0.5210325 0.28774512 0.053186275
0.54129905 0.29064032 0.05637255
0.5658089 0.2867647 0.05906863
0.5869715 0.28623623 0.05608916
0.60848653 0.29024205 0.060784318
0.63406867 0.29227176 0.061511952
0.65487134 0.2941483 0.061029416
0.672304 0.29602483 0.06269149
0.69594055 0.29852942 0.06876532
0.7196079 0.30274206 0.06803769
0.7443628 0.3047794 0.07530638
0.7685049 0.30549175 0.082084864
0.794133 0.31176472 0.0804228
0.8155101 0.31501994 0.08249082
0.8393689 0.32034314 0.08838848
0.86252296 0.32551318 0.08874847
0.8892923 0.33233765 0.09476103
0.91033244 0.33757663 0.09832261
0.9276961 0.3375 0.10073529
0.040441178 0.3317402 0.02745098
0.06912531 0.33750004 0.03429841
0.12314645 0.33161 0.037484683
0.16261107 0.33799022 0.04097733
0.2147212 0.34131435 0.04018076
0.2516774 0.34031862 0.04362745
0.29522058 0.33823532 0.046400122
0.334735 0.33654642 0.046936274
0.3669424 0.33658087 0.047947306
0.4025199 0.33802468 0.052730545
0.42863816 0.33329505 0.04987745
0.45551085 0.3276578 0.05228631
0.47783393 0.3264706 0.05526961
0.5050973 0.3250498 0.058995865
0.52323073 0.321201 0.060049023
0.5454006 0.32339922 0.06009881
0.5640932 0.3206495 0.059497554
0.5865694 0.32175627 0.06035157
0.6095588 0.32482386 0.06501991
0.63406867 0.3272557 0.067624085
0.65412074 0.3300705 0.067892164
0.6739392 0.33039218 0.06539905
0.69701284 0.32941177 0.07074909
0.72349495 0.33349034 0.07377451
0.7454351 0.33566177 0.07809436
0.767647 0.3374732 0.082433365
0.79365045 0.3420573 0.084336706
0.8177888 0.34630442 0.08637791
0.839905 0.35122553 0.09053309
0.862657 0.3545458 0.09330576
0.8894532 0.36273745 0.09937194
0.9142195 0.37156865 0.104166664
0.9294118 0.37095588 0.105882354
0.046078432 0.3647059 0.039215688
0.076072305 0.36675858 0.04332108
0.12604167 0.36746326 0.044914216
0.16715686 0.36859682 0.044393383
0.21237746 0.37352943 0.044362746
0.25159314 0.3744485 0.046354167
0.29822305 0.37218136 0.048897058
0.33532476 0.36896446 0.048039217
0.36642158 0.3737745 0.05245098
0.4 0.37300858 0.057230394
0.43523285 0.3661152 0.056924023
0.45554534 0.36467525 0.05796569
0.47879902 0.36335784 0.06151961
0.5053922 0.3603554 0.06044731
0.52316177 0.3572917 0.061825983
0.5428616 0.35471812 0.061795346
0.56568635 0.3529412 0.064705886
0.58676475 0.35407475 0.06703432
0.6066176 0.35686272 0.06930147
0.6311275 0.35762867 0.07037377
0.6525735 0.35612744 0.07058824
0.6710478 0.3587316 0.07248775
0.69601715 0.35808823 0.07671569
0.727114 0.36237746 0.08054534
0.7458334 0.36642158 0.08063726
0.7702513 0.36795342 0.08112745
0.796201 0.37095588 0.08627451
0.8169424 0.37855393 0.08835784
0.8376225 0.38100493 0.09387255
0.86498165 0.38419116 0.099601716
0.89025736 0.38927698 0.09938726
0.91277575 0.39463848 0.105238974
0.92647064 0.4009804 0.10882353
0.050367646 0.40232843 0.043137256
0.07892157 0.4023859 0.047369026
0.12756588 0.4028263 0.049632356
0.1684781 0.4036037 0.046618413
0.22210479 0.40562195 0.04931066
0.26193324 0.40384114 0.053638175
0.30022213 0.40347734 0.057666976
0.33566177 0.40294117 0.05812271
0.37064952 0.4063419 0.060386032
0.40005365 0.40416667 0.059244793
0.43080574 0.39930302 0.061925553
0.4588235 0.3957108 0.062254906
0.4808364 0.3956342 0.065977335
0.5053922 0.39437425 0.06629902
0.52358305 0.39037225 0.06710325
0.5459521 0.38884804 0.06397442
0.5666667 0.3872549 0.06666667
0.5846891 0.38209635 0.0689951
0.60791206 0.38124996 0.07058824
0.63345593 0.38383502 0.073173255
0.6557598 0.38402268 0.076792285
0.6734069 0.38453966 0.077799484
0.6956648 0.38790596 0.07536765
0.72184056 0.38961017 0.08007813
0.7427696 0.39503676 0.08468138
0.7671224 0.3939415 0.08329887
0.7921339 0.39796263 0.08627451
0.8148706 0.4029412 0.091873474
0.8393229 0.40684742 0.095511645
0.8642387 0.41090685 0.09754902
0.8898208 0.41250765 0.10084253
0.9118873 0.4221737 0.10545726
0.9287991 0.42438725 0.10980392
0.058333337 0.42990193 0.050490197
0.08926165 0.4302466 0.050758272
0.13112746 0.43357843 0.050934438
0.16999081 0.43364736 0.051769305
0.22172181 0.4351103 0.05459559
0.26384807 0.4372549 0.056625307
0.3004902 0.4351869 0.05885417
0.33807448 0.43116572 0.058907785
0.3697304 0.43284312 0.064522065
0.40277267 0.43982077 0.06621477
0.43333334 0.43036148 0.06640625
0.4557598 0.42941174 0.06642923
0.47815564 0.42941174 0.06712623
0.5061964 0.4285539 0.06959253
0.52745104 0.42311582 0.06675858
0.5489966 0.41799173 0.06950828
0.57034314 0.41605392 0.07401961
0.5893612 0.41164213 0.074165136
0.6094822 0.41510415 0.07679228
0.63406867 0.4147212 0.07526042
0.65637255 0.4139706 0.07794118
0.6704581 0.4139706 0.078431375
0.69558823 0.41421568 0.08210785
0.7207108 0.41486672 0.08528646
0.74399513 0.4192402 0.08345588
0.77238816 0.42189798 0.088641234
0.79646146 0.4237745 0.09362745
0.8199832 0.42806372 0.09401808
0.8387868 0.43235293 0.09420956
0.8629366 0.43664214 0.1022212
0.8986673 0.44073224 0.11156557
0.91625303 0.44208792 0.109880514
0.9367647 0.44583333 0.12083334
0.06286765 0.4517157 0.06654412
0.08686428 0.45562577 0.06297871
0.13085938 0.45624998 0.06289063
0.16850491 0.4583678 0.065161616
0.21968444 0.45563725 0.070710786
0.2576555 0.45557982 0.070710786
0.30040595 0.45558363 0.072778806
0.3432177 0.45314416 0.07446768
0.37447917 0.45753676 0.07745098
0.40365735 0.45612743 0.07212394
0.43381587 0.45919114 0.074517466
0.46323913 0.4517157 0.07831266
0.4815104 0.45122552 0.07515319
0.50727254 0.4477941 0.07963006
0.5303079 0.44534314 0.081372544
0.5490924 0.4384574 0.07867648
0.57058823 0.43609068 0.082536764
0.58975565 0.4335784 0.088507205
0.6095588 0.42954195 0.084895834
0.63713235 0.4313036 0.08853401
0.6570772 0.43200058 0.08376226
0.6778263 0.4356656 0.09020374
0.7033241 0.43211547 0.09031863
0.7286382 0.4328048 0.091505826
0.7508272 0.4349571 0.099969365
0.7765548 0.4347618 0.10477941
0.8007353 0.4414905 0.10220589
0.82621783 0.44571078 0.108325675
0.84892774 0.44992343 0.11380208
0.87454426 0.45161232 0.11102941
0.90124846 0.4548024 0.116299026
0.92007506 0.45895755 0.12121247
0.93737745 0.45943624 0.1254902
0.067156866 0.477451 0.0627451
0.10228248 0.48105085 0.070802696
0.13851105 0.47849265 0.06868873
0.17398898 0.48115808 0.072181374
0.22285539 0.48186272 0.07536765
0.26015624 0.47979474 0.075980395
0.29877454 0.47938114 0.07405025
0.33812806 0.48088235 0.07447917
0.37377453 0.48125 0.078799024
0.40611213 0.47847733 0.08238358
0.44065565 0.48115808 0.0833027
0.46286765 0.4779412 0.07990196
0.48529413 0.477451 0.08131128
0.51210177 0.47391242 0.091069244
0.52803314 0.47138482 0.08976716
0.5477482 0.46786153 0.0877451
0.57058823 0.4642157 0.08897059
0.59139097 0.45620406 0.08612133
0.609712 0.4594669 0.08771446
0.6367494 0.45908394 0.09008885
0.6628064 0.45447308 0.09620098
0.678508 0.4539216 0.0975337
0.7004289 0.45802695 0.094148286
0.730913 0.46024814 0.09468444
0.7465687 0.45747548 0.099509805
0.77172184 0.45902264 0.11156556
0.80045956 0.46148893 0.10931373
0.8221814 0.46384805 0.111136645
0.8457721 0.46568626 0.11550246
0.8720282 0.4737898 0.115747556
0.89485294 0.47696078 0.120772064
0.9198529 0.47740504 0.122503065
0.94068635 0.48088235 0.1264706
0.07230392 0.50232846 0.06531863
0.108126536 0.5054726 0.076432295
0.1444087 0.50551474 0.077696085
0.18540901 0.5040518 0.07537148
0.2296109 0.5087776 0.07987133
0.26570544 0.50644153 0.083700985
0.30526197 0.5031863 0.083700985
0.3371094 0.5031863 0.08281633
0.37248775 0.5061275 0.08759192
0.40032172 0.5063841 0.08675322
0.4362056 0.50625 0.08995098
0.45940942 0.50625 0.09102712
0.48121935 0.50575984 0.090962015
0.51065415 0.50165826 0.09584099
0.52980244 0.49899665 0.09507506
0.5491422 0.49751073 0.09718137
0.57144606 0.49338236 0.09411765
0.59273136 0.4874349 0.09156327
0.61196387 0.4862209 0.09039523
0.63511413 0.48664215 0.091429226
0.6572304 0.48053005 0.09041054
0.68081343 0.47965688 0.0939951
0.7033777 0.4824755 0.09688266
0.7278302 0.47879902 0.10023361
0.75 0.4797794 0.10358456
0.7736788 0.48301545 0.105882354
0.79997706 0.4849188 0.10625766
0.8230929 0.4887255 0.10765166
0.8442708 0.4910999 0.11228554
0.8729129 0.49582568 0.12242265
0.8981235 0.498246 0.1254902
0.92328435 0.5019608 0.1282667
0.9372549 0.5014706 0.13161765
0.07965687 0.52377456 0.07696079
0.10774357 0.52425706 0.08221508
0.14578737 0.5281863 0.080147065
0.1854856 0.52500004 0.076616116
0.23397672 0.52601105 0.07619485
0.2688266 0.52769613 0.07810968
0.30392158 0.52769613 0.07941177
0.33389246 0.52769613 0.081341915
0.36482844 0.5306373 0.08621324
0.3979473 0.52830887 0.08956802
0.43210784 0.52769613 0.09018076
0.45812652 0.52769613 0.09407169
0.47876838 0.5273591 0.09264706
0.5116882 0.52500004 0.093504906
0.5289216 0.52377456 0.09618566
0.55036765 0.5221737 0.09534314
0.57450986 0.51973045 0.09534314
0.5954504 0.5158318 0.0962163
0.61571693 0.5113818 0.099509805
0.6395374 0.50931376 0.09862898
0.6615196 0.5058824 0.09439339
0.6791667 0.504205 0.09648438
0.70448834 0.5039982 0.108333334
0.7275046 0.5014706 0.108524814
0.7512255 0.50214463 0.109865196
0.7763787 0.50509346 0.10994179
0.8036152 0.5073989 0.11058517
0.8262715 0.5095206 0.11699602
0.84764093 0.51323533 0.12162991
0.87228096 0.5147059 0.12554382
0.89877456 0.5178922 0.1277114
0.92228866 0.5221814 0.12794119
0.9397059 0.519853 0.12916668
0.08553922 0.5436275 0.08553922
0.112526804 0.5459559 0.08431373
0.14560355 0.55232847 0.08743107
0.18745787 0.54869413 0.08443628
0.23431373 0.54754907 0.083088234
0.2716912 0.54754907 0.08622856
0.30571386 0.54754907 0.089698225
0.33989355 0.54650354 0.08768766
0.37395832 0.5488971 0.09022672
0.3985294 0.5492571 0.097062655
0.42801777 0.5476486 0.09367341
0.45397136 0.54754907 0.09578355
0.4780331 0.5477482 0.09803922
0.5073338 0.5491422 0.09854856
0.5300246 0.5484146 0.09964001
0.5521178 0.54616654 0.09868643
0.57450986 0.54442406 0.09963235
0.5959559 0.5408625 0.098249845
0.6147059 0.5373698 0.099999994
0.6410539 0.5341529 0.10247013
0.6642157 0.5300245 0.10485601
0.6803194 0.528822 0.103603706
0.70575976 0.5256128 0.11073836
0.73088235 0.5258617 0.11408931
0.753125 0.5268076 0.117034316
0.778056 0.5256128 0.11782706
0.8022365 0.52732843 0.11645987
0.8270489 0.52868795 0.12205883
0.84920347 0.5303922 0.1268076
0.8748392 0.5341529 0.1291705
0.9014706 0.5356465 0.13130362
0.9229856 0.5393383 0.1317402
0.9435049 0.54129905 0.13406864
0.09019608 0.5686275 0.0882353
0.11329657 0.57077205 0.08272059
0.15220588 0.57254905 0.08627451
0.1877451 0.57254905 0.08682598
0.23480392 0.57181376 0.0882353
0.2688113 0.57058823 0.08639707
0.3055147 0.57058823 0.08872549
0.3428309 0.5693015 0.08958334
0.3720588 0.57156867 0.09117647
0.39662993 0.5742035 0.0971201
0.42389706 0.5726716 0.09620099
0.4517157 0.57254905 0.0942402
0.47720587 0.57303923 0.09803922
0.50036764 0.5760417 0.097610295
0.52426475 0.57450986 0.09730393
0.551103 0.5737133 0.10159314
0.57254905 0.57058823 0.101960786
0.5939951 0.5686275 0.102328435
0.6154412 0.56727946 0.10526961
0.64148283 0.5636029 0.107414216
0.6625 0.5593138 0.10784314
0.6780025 0.56072307 0.10784314
0.7015931 0.5529412 0.10808824
0.7282476 0.5532476 0.11176471
0.7495098 0.5539216 0.113235295
0.7773897 0.55098045 0.116299026
0.80098045 0.5518383 0.114583336
0.8233456 0.5529412 0.11881128
0.84387255 0.5553922 0.12156863
0.8715687 0.5596814 0.12579657
0.89950985 0.5591912 0.12745099
0.9234682 0.56237745 0.12745099
0.9392157 0.5666667 0.12941177
0.09252451 0.59828436 0.08627451
0.118504904 0.59580654 0.08345589
0.1624464 0.5946615 0.087446384
0.19669119 0.59640396 0.08957951
0.24227943 0.59782475 0.09047182
0.27619103 0.5971929 0.09202283
0.3114277 0.5959559 0.0928462
0.34118414 0.59748393 0.089950986
0.36666667 0.5994792 0.09329044
0.3963312 0.6018421 0.099505976
0.42428768 0.600023 0.096691184
0.45164293 0.5976218 0.092696846
0.47521448 0.6000766 0.09862132
0.49987748 0.60163146 0.10183823
0.5209789 0.60220593 0.10049786
0.5468138 0.60220593 0.10493643
0.56942403 0.6002451 0.10428922
0.5943628 0.59828436 0.105970435
0.61690414 0.59718907 0.10981158
0.6437309 0.5948721 0.11053921
0.6692249 0.5909314 0.10850184
0.6827436 0.5859299 0.10749847
0.7019378 0.584781 0.112132356
0.72830504 0.5825981 0.111768536
0.74880517 0.5816177 0.11292892
0.7727941 0.5786765 0.120955884
0.7968138 0.5776578 0.11736367
0.81825984 0.57719445 0.117746636
0.84261644 0.5803922 0.12215074
0.86924404 0.5835363 0.12336857
0.8971125 0.5841912 0.12505361
0.9197304 0.585635 0.12760034
0.93958336 0.5897059 0.1317402
0.09681372 0.6159314 0.08897059
0.12632507 0.6152114 0.08908548
0.16424634 0.61908704 0.09042586
0.20265013 0.61546415 0.09183517
0.24436276 0.6188725 0.09638481
0.27798715 0.6207491 0.09898897
0.31234682 0.62009805 0.09768689
0.34135264 0.6209023 0.09693628
0.3707108 0.6213235 0.09944853
0.39758733 0.62463236 0.09949449
0.42833945 0.6215686 0.09811581
0.4489813 0.6228324 0.09971661
0.47401965 0.6240196 0.10643382
0.50088084 0.6231082 0.10772058
0.5192249 0.62153804 0.10672488
0.5447228 0.62414986 0.11017923
0.5699755 0.62193626 0.10992647
0.5959559 0.6197227 0.11360294
0.61740196 0.620481 0.11418505
0.6449755 0.62036616 0.11583181
0.6679228 0.61902577 0.11534927
0.6883885 0.6086627 0.11400889
0.7061274 0.6120098 0.11911765
0.73125 0.6079121 0.11892617
0.7526961 0.6053309 0.11844363
0.77549016 0.60348505 0.120603554
0.7995098 0.60117954 0.122212015
0.8195236 0.6019225 0.12017465
0.84460783 0.6005821 0.120863974
0.87287074 0.6018383 0.12578891
0.90001535 0.60732234 0.13014707
0.92486984 0.60589004 0.13199297
0.9438726 0.6095588 0.13333334
0.10416667 0.6410539 0.096323535
0.1259421 0.6384383 0.09910003
0.16539523 0.64244795 0.096323535
0.2018459 0.63957185 0.095703125
0.246201 0.6372549 0.09623162
0.2786765 0.6425781 0.09998468
0.31311277 0.6458334 0.10121017
0.34399512 0.6438228 0.09938726
0.37101716 0.64506745 0.10327819
0.4016276 0.6491422 0.10430071
0.4297947 0.6432062 0.10416667
0.45076212 0.643819 0.10526961
0.47363666 0.64860606 0.112867646
0.4995596 0.6415288 0.112679996
0.52259505 0.64455426 0.11254596
0.5452206 0.6445236 0.11462163
0.573652 0.6458334 0.1163603
0.5966261 0.645324 0.117298566
0.6164446 0.6455653 0.1170573
0.64018846 0.6458334 0.11745942
0.66662073 0.6458334 0.12300859
0.6836206 0.6403723 0.1267425
0.71022516 0.6406174 0.12444088
0.7319968 0.63345593 0.12108992
0.75085783 0.6301471 0.11829045
0.77575827 0.6287991 0.1189951
0.80111825 0.62622553 0.12328432
0.8235448 0.62505364 0.124578744
0.8480546 0.6248622 0.1262255
0.87243026 0.62378216 0.12892924
0.8984069 0.62953436 0.13259804
0.9213657 0.6302275 0.13333334
0.93897057 0.6310049 0.13639706
0.105882354 0.6642157 0.10490196
0.13114278 0.66066176 0.09880515
0.16507353 0.6642157 0.10147059
0.20983456 0.66393995 0.10036765
0.25306374 0.6621324 0.10030638
0.28822 0.6623621 0.105131745
0.32083333 0.66663605 0.107322305
0.34946388 0.6633119 0.10399816
0.37916666 0.6637255 0.10735294
0.40454963 0.66801476 0.11220895
0.42990193 0.6644914 0.10952819
0.45481005 0.66435355 0.10934436
0.47095588 0.6688726 0.11072304
0.5019455 0.6700521 0.11447611
0.5227022 0.66798407 0.11608456
0.5431832 0.6678462 0.11392464
0.56936276 0.66813725 0.11764706
0.59059435 0.66813725 0.12107843
0.6127451 0.66813725 0.12107843
0.6407782 0.66813725 0.123759195
0.6645833 0.66813725 0.1283701
0.69185054 0.6676624 0.12607232
0.71446085 0.66393995 0.12867647
0.73475796 0.65972733 0.124923415
0.75085783 0.65931374 0.12450981
0.77656245 0.65678614 0.12585784
0.80379903 0.6519608 0.12864584
0.8293352 0.6517004 0.12709866
0.8511642 0.64748776 0.12794119
0.8752451 0.6447457 0.12941177
0.90655637 0.6481924 0.13538605
0.9238052 0.6490196 0.1367647
0.94754905 0.652451 0.14068627
0.105882354 0.67806375 0.10208333
0.1368528 0.6817517 0.10256204
0.17801012 0.6818628 0.108846515
0.21482843 0.68293124 0.10679381
0.25629595 0.6841912 0.109528184
0.29302236 0.68357843 0.109681375
0.32513788 0.6857307 0.11188726
0.35510877 0.68562347 0.110948995
0.38514093 0.68848044 0.11544119
0.405373 0.6895642 0.11750537
0.43346354 0.6859069 0.1209712
0.45550704 0.6856656 0.11740197
0.47723654 0.6867494 0.11741729
0.50232846 0.6934781 0.11755133
0.52373624 0.6921952 0.11879596
0.5466912 0.68958336 0.121323526
0.5686275 0.68958336 0.12144608
0.5904182 0.69183904 0.12156863
0.6108303 0.6907705 0.12156863
0.6402229 0.6925514 0.12463236
0.670864 0.6933824 0.12892157
0.68613666 0.6933824 0.12561275
0.71495104 0.6892157 0.12964155
0.73695236 0.6867264 0.13249464
0.76332724 0.6912378 0.12928922
0.7906059 0.6815373 0.12933135
0.8105775 0.6755591 0.13107385
0.83204275 0.6736596 0.13314569
0.85052085 0.6723193 0.13316484
0.87739736 0.67092144 0.1332108
0.90855545 0.6668658 0.13649663
0.9278302 0.6696194 0.13725491
0.9490196 0.67009807 0.13737746
0.11813726 0.7031862 0.11421569
0.14507507 0.703776 0.12176777
0.18489584 0.7071538 0.12141544
0.219784 0.70624995 0.11981464
0.26945466 0.7034313 0.11737133
0.3012408 0.7034313 0.120205276
0.33336398 0.70329344 0.11852023
0.36086857 0.70575976 0.12104014
0.39221814 0.70710784 0.122303925
0.4165441 0.70710784 0.12871477
0.44166666 0.70710784 0.12645528
0.459689 0.70710784 0.1262255
