assets/luts/LUTs/LEICA/LEICA TEL.cube
#Generated by PennL1 - 闲鱼号：LOOK胶片感 公众号：胶片感
TITLE LEICA TEL
LUT_3D_SIZE 33
0.019607844 0.015686275 0.02745098
0.036764707 0.016053922 0.027818628
0.053186275 0.020343138 0.03137255
0.07046569 0.023529412 0.03137255
0.09754902 0.023529412 0.03137255
0.11715686 0.025367647 0.03137255
0.14093138 0.02745098 0.03137255
0.1632353 0.024877451 0.03137255
0.1862745 0.026470589 0.034313727
0.21531862 0.02745098 0.03529412
0.24534313 0.031127453 0.03529412
0.27144608 0.03137255 0.02757353
0.3019608 0.031862747 0.031862747
0.33541667 0.03529412 0.03529412
0.36299023 0.03529412 0.03529412
0.3892157 0.03529412 0.03370098
0.4254902 0.037254903 0.03137255
0.4594363 0.039215688 0.03137255
0.48676473 0.039215688 0.03406863
0.5278187 0.039215688 0.03529412
0.5647059 0.035784315 0.031862747
0.5914216 0.039093137 0.03137255
0.63750005 0.031127453 0.03137255
0.6754902 0.02745098 0.030759806
0.7117647 0.026470589 0.026470589
0.7519608 0.020833334 0.023529412
0.78627455 0.017401962 0.025245098
0.8205883 0.01752451 0.02745098
0.85 0.013235295 0.02745098
0.88419116 0.011764706 0.021813726
0.9196079 0.011764706 0.019607844
0.9503676 0.008210785 0.019607844
0.9686275 0.007843138 0.023529412
0.027083334 0.028553922 0.028186275
0.036397062 0.029289216 0.027818628
0.053622857 0.03291207 0.027221201
0.07428386 0.033314187 0.026734835
0.099770226 0.034911152 0.031969976
0.11916743 0.037132353 0.029729627
0.1430147 0.037339155 0.027037378
0.16850874 0.037258733 0.030013023
0.1914522 0.037132353 0.031188726
0.21898745 0.04075138 0.025317863
0.24889708 0.041076902 0.023920037
0.27466682 0.041532632 0.027707567
0.29618567 0.04502145 0.025153186
0.33741575 0.046120558 0.030514708
0.36288297 0.04912684 0.02856158
0.3907667 0.052519914 0.029561123
0.42156863 0.05514706 0.029411767
0.45469898 0.055664062 0.03370098
0.4871247 0.0573606 0.0328508
0.5283893 0.05469899 0.032027423
0.5640166 0.05392157 0.031786155
0.5917548 0.05736443 0.028297335
0.63085943 0.053308822 0.028408395
0.67597276 0.04846431 0.030572152
0.7099264 0.043137256 0.025153186
0.746312 0.043382354 0.026470589
0.78692555 0.03807445 0.02389706
0.8172296 0.035784315 0.024092373
0.84857535 0.034175858 0.024264706
0.884352 0.038893998 0.02400046
0.91678923 0.037798714 0.024195774
0.9610294 0.033578433 0.020710785
0.97291666 0.029656863 0.024264706
0.022794118 0.042892158 0.03382353
0.0335095 0.046515014 0.03137255
0.050735295 0.05147059 0.031969976
0.07287071 0.055759806 0.03566177
0.09607843 0.058854166 0.037009805
0.11936275 0.059313726 0.031227024
0.14592524 0.06151961 0.024280025
0.16876532 0.060661767 0.02969516
0.19264705 0.0598652 0.029044118
0.21631435 0.06604627 0.030139402
0.24603248 0.064169735 0.027650123
0.2721354 0.066444546 0.02992494
0.30150124 0.06764706 0.030729169
0.33656558 0.071078435 0.030514708
0.36444548 0.073069856 0.026991421
0.3913833 0.0777497 0.025980392
0.42193627 0.07941177 0.028308826
0.4548177 0.081947 0.033402268
0.48823532 0.0850337 0.034788605
0.52618724 0.08602941 0.037048105
0.55937505 0.08602941 0.03495711
0.5964691 0.08602941 0.03384651
0.6384804 0.08186275 0.03451287
0.6813726 0.077688426 0.033325672
0.7211398 0.075796574 0.030453432
0.7538144 0.075237446 0.02880668
0.7893076 0.06885724 0.027037378
0.8230622 0.06580883 0.02914369
0.85067403 0.06596202 0.030637257
0.8859988 0.0620481 0.02834712
0.9196079 0.06004902 0.03003983
0.96251535 0.056495097 0.027083334
0.9772059 0.056862745 0.03137255
0.020710785 0.06433824 0.028553922
0.03550092 0.066073075 0.03147595
0.051631436 0.072709866 0.032475494
0.07138864 0.076723345 0.033578433
0.09080882 0.08218444 0.034926474
0.11357614 0.08446308 0.030637257
0.14189646 0.0866345 0.029518997
0.16382506 0.08601793 0.02914369
0.18792892 0.087162994 0.028553922
0.2156633 0.09210708 0.027623314
0.24798562 0.092892155 0.02745098
0.2729856 0.09012715 0.024685968
0.2992341 0.092417285 0.026976103
0.33957952 0.097054996 0.030514708
0.3650276 0.09791667 0.02534467
0.39223728 0.099509805 0.021158855
0.42352942 0.100428924 0.024632353
0.45976946 0.10404029 0.031452972
0.49078587 0.108233765 0.031495098
0.5308824 0.108578436 0.031131282
0.568413 0.1095435 0.030407477
0.6040097 0.109681375 0.027539063
0.6416667 0.10654871 0.032230392
0.6842142 0.10183824 0.028553922
0.72270226 0.1015625 0.02757353
0.75779724 0.09744945 0.024632353
0.79227173 0.09412531 0.025865503
0.8247549 0.0952474 0.02745098
0.8571538 0.0935815 0.02814032
0.88767236 0.09196921 0.027761184
0.91773134 0.09117647 0.02745098
0.95365727 0.08862209 0.0248966
0.97928923 0.08897059 0.03137255
0.022058824 0.085784316 0.03137255
0.03307292 0.09007353 0.03307292
0.05245098 0.093903184 0.03529412
0.071537994 0.09757966 0.03598346
0.09564951 0.10392157 0.03682598
0.11663603 0.10575981 0.033455886
0.1395527 0.10784314 0.029166669
0.16432293 0.10784314 0.030024512
0.19068627 0.110049024 0.03026961
0.21608455 0.11492035 0.026593138
0.24672182 0.11706495 0.027359068
0.2689951 0.117034316 0.027420344
0.3 0.11421569 0.027083334
0.33602944 0.12161459 0.03115809
0.36498165 0.12398898 0.029166667
0.39739585 0.12599571 0.0274663
0.42647058 0.12745099 0.028921569
0.46282166 0.12832414 0.03037684
0.49583334 0.13262868 0.03069853
0.5350491 0.13431373 0.03115809
0.56893384 0.13645834 0.029227942
0.60246634 0.13961399 0.028921569
0.64028805 0.13783701 0.033670343
0.68333334 0.13186274 0.03137255
0.719853 0.13088235 0.030759806
0.7619639 0.12659314 0.028921569
0.7938113 0.1257353 0.028921569
0.8254442 0.12377451 0.02814032
0.85631126 0.12254903 0.029901963
0.89345896 0.122962624 0.029610908
0.92640936 0.12015931 0.030116422
0.9558057 0.12227329 0.027726715
0.98088235 0.11617647 0.03284314
0.017769609 0.10906863 0.033210784
0.029339002 0.11151961 0.03529412
0.048506435 0.11580883 0.03529412
0.069431685 0.12061504 0.03529412
0.09534314 0.12544423 0.03529412
0.115563735 0.12843138 0.033455886
0.13828892 0.1294807 0.030200675
0.16413145 0.12988283 0.029450063
0.18547794 0.1350184 0.027971813
0.21348038 0.13651961 0.024142157
0.24545804 0.14019608 0.025482537
0.2696653 0.14221431 0.025677849
0.3022212 0.1409467 0.02769608
0.3370443 0.14620098 0.028553922
0.3655178 0.14742647 0.030966606
0.39645758 0.15012255 0.029534314
0.42953432 0.15012255 0.02769608
0.46151963 0.15245098 0.025857843
0.4940717 0.15943627 0.02981771
0.5344363 0.16045114 0.029990043
0.5704657 0.16165748 0.027925858
0.5989622 0.16770451 0.02947687
0.64143693 0.16556373 0.029419426
0.68333334 0.1621745 0.027983304
0.71954656 0.1627451 0.029074756
0.7624234 0.1584559 0.02769608
0.79775584 0.15679382 0.028500307
0.82647824 0.15575215 0.028427543
0.85715383 0.15510112 0.028753065
0.8937079 0.15306373 0.028213084
0.92977947 0.14857537 0.030882355
0.9567632 0.15157017 0.027841605
0.9827206 0.14803922 0.033455886
0.015686275 0.13480392 0.0375
0.027366728 0.13717066 0.037706804
0.046400122 0.1394608 0.039705884
0.067915134 0.14361213 0.039085478
0.09393383 0.14754902 0.036672797
0.11346508 0.15183824 0.034489892
0.13846508 0.1541973 0.033578433
0.16441484 0.15698531 0.031004902
0.18731618 0.1596201 0.028002452
0.21580882 0.16191024 0.022280945
0.24583334 0.16593137 0.02132353
0.27840075 0.16582415 0.023460478
0.3044424 0.17031251 0.02132353
0.3393459 0.1727788 0.02266391
0.36780027 0.17676164 0.02745098
0.39617035 0.17883731 0.026554842
0.4285539 0.18014705 0.024632353
0.46253833 0.18247549 0.024019608
0.49705884 0.18946078 0.024862133
0.5404489 0.1905714 0.026968444
0.5769608 0.1916973 0.024019608
0.6053386 0.1957108 0.025191482
0.64548105 0.19765624 0.02734375
0.68553925 0.19217984 0.0256587
0.7205883 0.19375001 0.025919117
0.76014096 0.19276962 0.027182905
0.79852945 0.19019608 0.02745098
0.828554 0.18902421 0.028484987
0.85857844 0.18661152 0.02745098
0.89300704 0.18772212 0.02780331
0.92614895 0.18668813 0.029335173
0.9644914 0.18427543 0.027657783
0.98088235 0.18235295 0.033578433
0.020833334 0.15539217 0.039215688
0.03406863 0.15955499 0.039342064
0.05122549 0.16214001 0.040563725
0.0698989 0.16468291 0.040908396
0.091896445 0.16985294 0.04031863
0.11370634 0.17414217 0.03666131
0.13948376 0.17843138 0.03529412
0.16580883 0.18103172 0.03272059
0.19246323 0.18342523 0.03229167
0.21964231 0.18954886 0.02815181
0.24926472 0.19182752 0.024915747
0.2792854 0.19322151 0.026060816
0.30637255 0.19647671 0.024754902
0.34296495 0.2010072 0.02478171
0.37235755 0.20190717 0.024877451
0.4016659 0.2052696 0.024329811
0.4319853 0.20888479 0.02420343
0.46390548 0.21249999 0.024877451
0.49877453 0.217716 0.023950674
0.54149437 0.21936275 0.026593138
0.57331496 0.22161458 0.024019608
0.6068666 0.22074908 0.023529412
0.6431756 0.224303 0.02745098
0.687657 0.21936275 0.026838236
0.72251844 0.21969976 0.023560049
0.75646836 0.2202474 0.024073225
0.7965457 0.21936275 0.025467219
0.82785696 0.2186466 0.026876532
0.8586857 0.21717218 0.029059438
0.89153266 0.21675475 0.027293965
0.92303926 0.21778493 0.028316483
0.96727943 0.21212852 0.02757736
0.9817402 0.20894608 0.030147059
0.023529412 0.1754902 0.039215688
0.037040442 0.17711398 0.04188113
0.056862745 0.18333334 0.039215688
0.070710786 0.18471201 0.04031863
0.081985295 0.19080882 0.041666668
0.10710785 0.19693628 0.03875613
0.13449755 0.19957107 0.036580883
0.16151962 0.2038603 0.036580883
0.18799019 0.21102941 0.035784315
0.2164522 0.21439952 0.031985298
0.25183827 0.21746324 0.033210784
0.28694853 0.21871936 0.03324142
0.31299022 0.22218138 0.030392159
0.35373774 0.2268995 0.030177698
0.3800858 0.22873776 0.027573531
0.40854782 0.23219976 0.023529412
0.4392157 0.2367647 0.025
0.47162992 0.23958333 0.026470589
0.5046569 0.24387255 0.026470589
0.5440258 0.24739586 0.029534316
0.5776961 0.24889708 0.026960785
0.6127145 0.2452206 0.023621324
0.6476103 0.2517157 0.027634803
0.6903493 0.24803923 0.029779414
0.725 0.24877453 0.02622549
0.76087624 0.24996936 0.023805147
0.7962623 0.24932599 0.020588236
0.8281557 0.24785541 0.02267157
0.8589461 0.24693628 0.02512255
0.89555764 0.2452206 0.026194854
0.92438734 0.24491423 0.024877451
0.9621936 0.24065563 0.024509804
0.97745097 0.24215686 0.02745098
0.026838236 0.2002451 0.045833334
0.040130977 0.20366882 0.04576823
0.057843138 0.20602022 0.039836094
0.07338006 0.21249999 0.04455806
0.089338236 0.21701899 0.049525123
0.11197151 0.22014016 0.044489123
0.13453585 0.2223269 0.03887102
0.16053922 0.22892158 0.03683364
0.19123775 0.23501839 0.035447307
0.22193629 0.24452743 0.034777116
0.25621173 0.2466529 0.0321538
0.284398 0.25001916 0.028553922
0.31436887 0.25151658 0.024754902
0.35206035 0.2579772 0.024031097
0.38131893 0.26052392 0.021063114
0.41236213 0.2655714 0.021564798
0.4461397 0.26795346 0.02052696
0.48028108 0.26997167 0.021453738
0.51199454 0.27291667 0.026416974
0.55111444 0.2746209 0.02534467
0.5841146 0.28054535 0.024218751
0.61801475 0.28077897 0.02354856
0.6559207 0.28525585 0.027489277
0.6939683 0.28468138 0.027967984
0.7263174 0.28400737 0.02579657
0.76467144 0.28177467 0.022686888
0.7982614 0.28164065 0.02622549
0.8319853 0.27957645 0.026551012
0.8646906 0.27783397 0.026838236
0.89715457 0.27762333 0.027278647
0.925115 0.28013942 0.029641546
0.96139705 0.27720588 0.024149816
0.9797794 0.27414218 0.02745098
0.02745098 0.22230393 0.05808824
0.040686276 0.2262255 0.057352945
0.057843138 0.22700675 0.050291054
0.073897064 0.2325291 0.050628066
0.09255515 0.2380821 0.050980393
0.11518842 0.23995863 0.047189035
0.13687193 0.24204963 0.042892158
0.16662838 0.24730393 0.037905946
0.19123775 0.2584559 0.032536767
0.22568934 0.26499695 0.03161765
0.26398593 0.26913297 0.03483456
0.29067865 0.28063726 0.031119794
0.3252451 0.28161767 0.030422796
0.3621324 0.28928462 0.027152266
0.39215684 0.29231006 0.025811888
0.4237745 0.29414064 0.023383886
0.45625 0.29828432 0.023284314
0.48872554 0.3002451 0.021147367
0.5203432 0.30546877 0.02254902
0.55955887 0.30784315 0.023583027
0.5921569 0.30505514 0.020312501
0.6224188 0.31178004 0.023414522
0.65733767 0.31547183 0.01986826
0.6981618 0.30972734 0.016996019
0.7310662 0.31495097 0.01997549
0.7724265 0.310746 0.019776348
0.8042739 0.3099418 0.02009804
0.8343214 0.30992648 0.022051165
0.8633885 0.30808824 0.02377451
0.8986673 0.3107307 0.02377451
0.9346508 0.3089767 0.023973653
0.95576745 0.31144303 0.020243566
0.98039216 0.30784315 0.02745098
0.019852942 0.25159314 0.051102944
0.033432905 0.25587088 0.051459096
0.053209253 0.2593367 0.054189645
0.067348346 0.25947076 0.051102944
0.08610601 0.26102942 0.051056985
0.10747549 0.26709944 0.04914216
0.13540135 0.26906404 0.044921875
0.16968827 0.26997548 0.043259807
0.19825368 0.27996325 0.040226717
0.23053387 0.2862554 0.04242111
0.26839003 0.2942402 0.043014705
0.30329353 0.30282247 0.03517157
0.33717832 0.3072457 0.028048407
0.37092906 0.31086475 0.030514708
0.40215993 0.31344977 0.02622549
0.4348997 0.32009804 0.02198606
0.46501225 0.32242647 0.017892158
0.4974533 0.32482767 0.015981158
0.53161764 0.32908243 0.01584712
0.56909084 0.33036536 0.018776808
0.60428923 0.33360907 0.019715074
0.6274434 0.33786765 0.015931373
0.6688802 0.33823532 0.023169424
0.70639163 0.33880973 0.019033395
0.7374693 0.3419424 0.015931373
0.7716912 0.33938038 0.015931373
0.80434287 0.33431372 0.015931373
0.8343061 0.33424863 0.015866268
0.86421573 0.3318168 0.015808824
0.902608 0.33594134 0.01853937
0.9360064 0.33502603 0.019707415
0.96638715 0.33420268 0.016065411
0.9844362 0.33419117 0.023406863
0.02745098 0.27401963 0.055882353
0.039476104 0.27749693 0.055882353
0.054319855 0.27867648 0.055882353
0.07314645 0.2831036 0.055882353
0.09577206 0.2875613 0.05459559
0.11530331 0.29131436 0.050612748
0.13921568 0.293413 0.047977943
0.1720282 0.296201 0.04754902
0.20477942 0.3004902 0.041666668
0.23534006 0.30850184 0.040119488
0.2686581 0.31715688 0.038817402
0.31378677 0.32915136 0.038005516
0.336152 0.33725494 0.030882355
0.37850797 0.34658393 0.029917281
0.40968138 0.35355395 0.025551472
0.4422641 0.3509038 0.02333027
0.47524512 0.35318628 0.024754902
0.5102635 0.35750616 0.023851104
0.53985906 0.36063117 0.019699756
0.5797641 0.36384806 0.019010417
0.6152574 0.36170346 0.021691177
0.64666057 0.36459866 0.01920956
0.6705576 0.37107843 0.019117648
0.7117647 0.3705423 0.019653799
0.7449755 0.36862746 0.02254902
0.77598035 0.3705576 0.02254902
0.81007963 0.36841297 0.02254902
0.8381281 0.36657473 0.02098652
0.8650123 0.3648897 0.019914217
0.90085787 0.3675245 0.019745711
0.93587625 0.36862743 0.022395834
0.9772059 0.3646293 0.016375614
0.9892157 0.3647059 0.019607844
0.02745098 0.30232844 0.06360295
0.035133272 0.30355394 0.06360295
0.057107843 0.3076823 0.0634421
0.07266391 0.3121362 0.0627451
0.094699755 0.31780025 0.06242341
0.11691177 0.31887257 0.05964691
0.14216453 0.32107845 0.05317862
0.16953509 0.32536766 0.05068551
0.20027573 0.33030024 0.045741424
0.23394608 0.34069777 0.046580117
0.26699603 0.34895068 0.03683364
0.31158856 0.35737976 0.03293888
0.3450521 0.36288297 0.028523285
0.3853439 0.37089843 0.02812117
0.4193321 0.38014707 0.022012869
0.44832262 0.38623622 0.021936275
0.48210785 0.38878676 0.020036764
0.5158931 0.39082795 0.016318168
0.5458104 0.392693 0.012890626
0.58089006 0.39711627 0.0150160855
0.6137561 0.39816177 0.012254902
0.64910007 0.39816177 0.0147326905
0.67977947 0.39590228 0.014828432
0.7179037 0.39523208 0.014828432
0.7509804 0.3969363 0.014613971
0.7800015 0.40063572 0.013970589
0.8125996 0.40111828 0.013970589
0.84091604 0.40104932 0.016053922
0.8715533 0.40070468 0.019806985
0.907104 0.4014629 0.01875383
0.9390931 0.40208334 0.017892158
0.9805568 0.3957529 0.015115656
0.9960785 0.39816177 0.01875
0.02867647 0.327451 0.07034314
0.040686276 0.3305147 0.06911765
0.057337623 0.33406863 0.06815258
0.07492341 0.33517158 0.06465993
0.0986826 0.34001225 0.06495099
0.1187883 0.3439568 0.058823533
0.14235601 0.34681374 0.05245098
0.16691178 0.35110295 0.0525046
0.19154412 0.35741422 0.050490197
0.2224954 0.36568627 0.0484758
0.26167282 0.3705882 0.042080272
0.3133119 0.38133425 0.040234376
0.3440564 0.38854167 0.03449755
0.38877144 0.39615503 0.037178308
0.42017463 0.40626535 0.02791054
0.4550628 0.41518843 0.02243413
0.4894608 0.41911763 0.022181373
0.5216759 0.42144608 0.021200981
0.5513634 0.42202818 0.016911766
0.58414525 0.42578125 0.015686275
0.61942405 0.4291054 0.0133272065
0.648698 0.42941177 0.012990196
0.67909014 0.43079045 0.014215686
0.7159697 0.4300245 0.014024204
0.74914217 0.43400738 0.012316177
0.78042275 0.43510264 0.009872856
0.8130208 0.43397674 0.00960478
0.8442095 0.43337163 0.01172641
0.8748468 0.43302697 0.012990196
0.90612745 0.43164062 0.012990196
0.9372549 0.43088236 0.012990196
0.97927386 0.42843902 0.012990196
0.99485296 0.42818627 0.015686275
0.03296569 0.3569853 0.08161765
0.043723196 0.35894608 0.07913986
0.059436277 0.3625 0.07682292
0.07769608 0.36360297 0.074348964
0.100612745 0.36642158 0.075628065
0.123763025 0.3682598 0.06999847
0.14746477 0.37075675 0.06442249
0.17598805 0.37469748 0.062009808
0.20217524 0.38192403 0.057873778
0.23100492 0.39031863 0.054530486
0.26619947 0.39522058 0.051983766
0.30764785 0.40813804 0.04769455
0.34468445 0.41515014 0.040808827
0.3876034 0.4280446 0.039602485
0.42243412 0.4350337 0.03261336
0.4570389 0.4425245 0.026068475
0.49295342 0.4456495 0.024325982
0.5247205 0.44877452 0.021200981
0.5532016 0.45415902 0.016911766
0.58960253 0.45712698 0.016930914
0.62169117 0.46015626 0.015885418
0.65242803 0.46362594 0.014142923
0.6829198 0.460049 0.017915135
0.71924406 0.46408933 0.016057752
0.74828434 0.46605393 0.014093138
0.7809972 0.46495864 0.012745099
0.8122013 0.46324298 0.011887256
0.8448185 0.4620328 0.014093138
0.87470895 0.46007967 0.014093138
0.9072304 0.4598039 0.012948071
0.94094664 0.4585095 0.013794425
0.9714576 0.45965457 0.012649357
0.99215686 0.4582108 0.014093138
0.03529412 0.38627452 0.09019608
0.04834559 0.38860297 0.09197304
0.063725494 0.3925245 0.09019608
0.081433825 0.39522058 0.08854167
0.10147059 0.3987745 0.08137255
0.12199755 0.40183824 0.07830882
0.14791667 0.4017157 0.075980395
0.17622548 0.4038603 0.069975495
0.2004902 0.4147059 0.06421569
0.22904414 0.42261028 0.057781868
0.26458335 0.42904413 0.05686275
0.30300248 0.43553925 0.04877451
0.3404412 0.44485295 0.04142157
0.38333333 0.45814952 0.041850492
0.4207108 0.46580884 0.03541667
0.46017158 0.47414213 0.028982844
0.49215686 0.47843137 0.025490196
0.52647066 0.4827206 0.023161765
0.5567402 0.4897059 0.01752451
0.5938113 0.49368873 0.017218139
0.6242647 0.49583334 0.01764706
0.6464461 0.501777 0.01384804
0.67879903 0.49620098 0.011764707
0.71770835 0.4983456 0.011458334
0.74705887 0.5 0.009313726
0.78069854 0.49797797 0.007843138
0.811152 0.49583334 0.009558824
0.8411152 0.49595588 0.0107230395
0.86838233 0.49534315 0.009803922
0.9032476 0.49889705 0.009803922
0.93921566 0.4968137 0.012990197
0.9628677 0.4978554 0.008394608
0.9862745 0.49607843 0.011764706
0.03995098 0.42022058 0.09411765
0.050857842 0.42502683 0.096147366
0.06757813 0.42676932 0.09993107
0.08546262 0.42982152 0.096695006
0.10931373 0.43491116 0.09119179
0.12940028 0.43665364 0.08814721
0.1560815 0.43791363 0.08550092
0.1811198 0.44080883 0.07946921
0.20695466 0.44748774 0.074632354
0.23639706 0.45453814 0.06569011
0.27228096 0.46068478 0.062032785
0.31210938 0.46526885 0.047671568
0.34347427 0.47659314 0.044071693
0.38684896 0.4887638 0.0440985
0.4198606 0.49891242 0.036037073
0.46097583 0.50808823 0.027749695
0.49252453 0.51121324 0.026654411
0.5273476 0.5157208 0.026505055
0.5588236 0.52365196 0.022066483
0.596201 0.52610296 0.020343138
0.62858456 0.52889097 0.019699756
0.6518153 0.53308827 0.015808824
0.6791897 0.532353 0.010271139
0.71813726 0.5326019 0.0115157785
0.74466914 0.5345282 0.0103553925
0.7749425 0.53492653 0.009853708
0.8071921 0.532353 0.009558824
0.8372664 0.53111595 0.009681373
0.8640932 0.5300245 0.007843138
0.90057445 0.53398824 0.008988205
0.933701 0.53424484 0.01262255
0.96861213 0.5297258 0.008360141
0.985049 0.5316177 0.011764706
0.048529413 0.45024508 0.10490196
0.06053922 0.4529488 0.1053845
0.0774663 0.45589766 0.10931373
0.094247855 0.4610524 0.10536918
0.1129902 0.46862742 0.10094976
0.13382353 0.46862742 0.096239276
0.15804228 0.46931678 0.09186581
0.18259805 0.47242647 0.08639707
0.21035539 0.47671568 0.08210784
0.24234834 0.48658857 0.076784626
0.28014708 0.4919118 0.06724878
0.3158548 0.50166976 0.058861826
0.3487439 0.5093137 0.052113973
0.38949144 0.5210019 0.048628986
0.42372856 0.5284314 0.040931374
0.45756742 0.53651196 0.031747855
0.4954657 0.5417893 0.028799022
0.53249085 0.54619336 0.025850184
0.558655 0.5555301 0.018351715
0.5935049 0.5588236 0.0154411765
0.62631744 0.5611826 0.014368873
0.6605316 0.560095 0.010416668
0.68341 0.5639706 0.011764706
0.7217448 0.5639706 0.011343444
0.7490809 0.5656251 0.009375
0.77549016 0.5692402 0.0085248165
0.80926776 0.56548715 0.005683211
0.83794427 0.56475186 0.0057215076
0.8680454 0.5620711 0.0051470594
0.9033318 0.56480545 0.0070848656
0.93480396 0.5666667 0.008838848
0.9754902 0.55955887 0.0055147065
0.9909314 0.5627451 0.009068628
0.0632353 0.48333332 0.1189951
0.07340687 0.48341376 0.118788294
0.08998928 0.48492646 0.11662838
0.10355392 0.48969823 0.11396676
0.119041055 0.4971967 0.1083027
0.1403531 0.5043773 0.10435815
0.1622549 0.5060049 0.09841452
0.18426394 0.5065679 0.09375
0.20958945 0.5143995 0.08946079
0.23957184 0.52166826 0.07741652
0.2742111 0.5233533 0.070082724
0.31767386 0.53232616 0.06546798
0.3506587 0.54018074 0.054794732
0.39462316 0.548652 0.052516084
0.42407322 0.5551241 0.04242494
0.46076518 0.56580883 0.033126533
0.500674 0.57395834 0.032475494
0.53643537 0.5815985 0.028186275
0.5627911 0.5883119 0.020611214
0.5936198 0.59246707 0.017892158
0.6320619 0.59388787 0.017892158
0.6589614 0.5961321 0.017061122
0.68149513 0.5968674 0.011764706
0.7193513 0.59447384 0.011630668
0.75 0.59825367 0.010906863
0.7775965 0.60154337 0.009558824
0.8119102 0.60060513 0.0069852946
0.8413143 0.5989507 0.0069852946
0.8725644 0.5968444 0.0069852946
0.904902 0.59743416 0.0053998167
0.93602943 0.59791666 0.009757966
0.9767157 0.5963619 0.0073529417
0.99215686 0.59705883 0.013970589
0.07009804 0.5142157 0.12156863
0.08284314 0.5145374 0.11873469
0.09926471 0.517739 0.122579664
0.11309743 0.5211704 0.11490503
0.13265932 0.52947307 0.11409315
0.15625 0.5322304 0.10934436
0.17769608 0.53431374 0.106617644
0.19914216 0.5365656 0.102328435
0.22610295 0.5414216 0.09803922
0.25600493 0.54885113 0.08092831
0.2897059 0.55321693 0.07426471
0.3254749 0.5615196 0.05975797
0.36041668 0.57052696 0.057904415
0.4021293 0.58125 0.053186275
0.43345588 0.59013486 0.042156864
0.46770835 0.60473347 0.034359682
0.5088236 0.6095589 0.033333335
0.5371324 0.61438423 0.025612745
0.5663297 0.6188726 0.018627452
0.60278803 0.6231618 0.016176471
0.6356005 0.6270221 0.016176471
0.6648591 0.6279259 0.012852329
0.69393384 0.6244792 0.011764706
0.7238818 0.6251685 0.011228554
0.74828434 0.6314951 0.009191177
0.77689946 0.63422185 0.010416667
0.8067095 0.63572305 0.007843138
0.83863354 0.6334253 0.007843138
0.8709559 0.6326593 0.009987745
0.90736824 0.6313726 0.008455883
0.93946075 0.6313726 0.00814951
0.9770374 0.6282629 0.004779412
0.9955883 0.6279412 0.00882353
0.07438726 0.5404412 0.1329657
0.08762255 0.5446079 0.13286611
0.10475644 0.5488741 0.132307
0.12074526 0.5542012 0.1268191
0.13811275 0.5585019 0.12135417
0.16022901 0.5597465 0.11763941
0.18393077 0.5638481 0.11353401
0.20870098 0.56143534 0.11090687
0.23033088 0.5716606 0.103768386
0.25525048 0.5821079 0.091704965
0.29191944 0.58344823 0.082590386
0.3189913 0.58774513 0.07758119
0.3579657 0.59728867 0.06878064
0.39831114 0.61259574 0.05532323
0.43076748 0.62238055 0.041919425
0.4676739 0.6322304 0.03752681
0.5041054 0.6365197 0.031433824
0.53784466 0.6408089 0.022866882
0.5678539 0.64770985 0.019561889
0.60701215 0.6531863 0.019485295
0.63293505 0.6541514 0.0128370095
0.66200984 0.6615273 0.015448837
0.68847275 0.6614047 0.007965687
0.72142696 0.65847504 0.007946539
0.74898905 0.662837 0.007873775
0.78312653 0.6631587 0.0066176476
0.8139553 0.65988815 0.005706189
0.84594816 0.65791595 0.0058249086
0.8724877 0.6567096 0.0041207112
