assets/luts/LUTs/LEICA/LEICA IA.cube
#Generated by PennL1 - 闲鱼号：LOOK胶片感 公众号：胶片感
TITLE LEICA IA
LUT_3D_SIZE 33
0.0 0.0 0.0
0.0058823535 0.0058823535 0.0058823535
0.017647058 0.017647058 0.017647058
0.032352943 0.032352943 0.032352943
0.047058824 0.047058824 0.047058824
0.06764706 0.06764706 0.06764706
0.08627451 0.08627451 0.08627451
0.101960786 0.101960786 0.101960786
0.11372549 0.11372549 0.11372549
0.12843138 0.13137256 0.13137256
0.14509805 0.14901961 0.14901961
0.16470589 0.16764706 0.16764706
0.1882353 0.1882353 0.1882353
0.20588236 0.20588236 0.20588236
0.21960784 0.21960784 0.21960784
0.23431373 0.23431373 0.23431373
0.25490198 0.25490198 0.25490198
0.28137255 0.28431374 0.28431374
0.29803923 0.3 0.3
0.31862748 0.31862748 0.31862748
0.35686278 0.35686278 0.35686278
0.3656863 0.3656863 0.3656863
0.38039216 0.38039216 0.38039216
0.4019608 0.4019608 0.4019608
0.43137252 0.43137252 0.43137252
0.4372549 0.4372549 0.4372549
0.454902 0.45686275 0.454902
0.47352943 0.4764706 0.47450984
0.48235294 0.48235294 0.4862745
0.48235294 0.48235294 0.48333335
0.49215686 0.49215686 0.4901961
0.5039216 0.5039216 0.50098044
0.50980395 0.50980395 0.50980395
0.01764706 0.01764706 0.01764706
0.023529414 0.023529414 0.023529414
0.03382353 0.03382353 0.03382353
0.04632353 0.047058824 0.04632353
0.058823533 0.06176471 0.058823533
0.075 0.0757353 0.075
0.08921569 0.08921569 0.08921569
0.103431374 0.103431374 0.103431374
0.11960784 0.11960784 0.11960784
0.13431373 0.13504903 0.13504903
0.1509804 0.15196079 0.15196079
0.16985294 0.17058824 0.17058824
0.19117646 0.19117646 0.19117646
0.20441177 0.20661765 0.20661765
0.21372548 0.21519607 0.21519607
0.22696078 0.22769606 0.22769606
0.2519608 0.25490198 0.25490198
0.27843136 0.28210783 0.27990198
0.3009804 0.3029412 0.3014706
0.32450983 0.32450983 0.32450983
0.3539216 0.3539216 0.3539216
0.36936277 0.36936277 0.36936277
0.38627452 0.38627452 0.38627452
0.40637255 0.40710786 0.40637255
0.43137252 0.4343137 0.43137252
0.44387257 0.44460785 0.44387257
0.45784318 0.45833337 0.45784318
0.47058824 0.47132352 0.47083333
0.47941175 0.47941175 0.48039213
0.49264705 0.49264705 0.49289215
0.50098044 0.50098044 0.50049025
0.5061275 0.5061275 0.5053922
0.50980395 0.50980395 0.50980395
0.039215684 0.039215684 0.039215684
0.046568632 0.046568632 0.046568632
0.055882357 0.055882357 0.055882357
0.066176474 0.06666667 0.066176474
0.07647059 0.078431375 0.07647059
0.0882353 0.08872549 0.0882353
0.10098039 0.10098039 0.10098039
0.11421569 0.11421569 0.11421569
0.12745099 0.12745099 0.12745099
0.14215687 0.14215687 0.14215687
0.15882353 0.15882353 0.15882353
0.17598039 0.17598039 0.17598039
0.19215685 0.19215685 0.19215685
0.20539215 0.20686275 0.20686275
0.21666667 0.21764705 0.21764705
0.23284313 0.23333332 0.23333332
0.26078433 0.2627451 0.2627451
0.2857843 0.28774512 0.28627452
0.30784315 0.30882353 0.30784315
0.33039218 0.33039218 0.33039218
0.35686275 0.35686275 0.35686275
0.3745098 0.3745098 0.3745098
0.39411765 0.39411765 0.39411765
0.41421568 0.4147059 0.41421568
0.43333334 0.43529412 0.43333334
0.44656867 0.44705886 0.44656867
0.45686275 0.45686275 0.45686275
0.46617645 0.46617645 0.46617645
0.4764706 0.4764706 0.4764706
0.4911765 0.4911765 0.4911765
0.5 0.5 0.5
0.5063726 0.5063726 0.5063726
0.5137255 0.5137255 0.5137255
0.06666667 0.06666667 0.06666667
0.07401961 0.07401961 0.07328431
0.08137255 0.08137255 0.080882356
0.08872549 0.08872549 0.08872549
0.09607843 0.09607843 0.09607843
0.10490196 0.10490196 0.10490196
0.11666667 0.11666667 0.11666667
0.12892157 0.12892157 0.12892157
0.1392157 0.1392157 0.1392157
0.15245098 0.15245098 0.15318628
0.16764706 0.16764706 0.16862746
0.18259804 0.18259804 0.18333334
0.19509803 0.19509803 0.19509803
0.20980392 0.20980392 0.20980392
0.2245098 0.2245098 0.2245098
0.24313726 0.24313726 0.24313726
0.26960784 0.26960784 0.26960784
0.29387257 0.29387257 0.29387257
0.3137255 0.3137255 0.3137255
0.33480394 0.33480394 0.33480394
0.3627451 0.3627451 0.3627451
0.37818626 0.37818626 0.37818626
0.39803922 0.39803922 0.39803922
0.41862747 0.41838238 0.41838238
0.43627453 0.43529412 0.43529412
0.45024514 0.44926473 0.45000002
0.45980394 0.45931372 0.45980394
0.46862742 0.46862742 0.46862742
0.48039216 0.48039216 0.48039216
0.48995098 0.48995098 0.48995098
0.49901962 0.49901962 0.49852943
0.5088236 0.5088236 0.50808823
0.5205883 0.5205883 0.5205883
0.101960786 0.101960786 0.101960786
0.10490196 0.10490196 0.101960786
0.10784314 0.10784314 0.105882354
0.110784315 0.110784315 0.110784315
0.11372549 0.11372549 0.11372549
0.12254903 0.12254903 0.12254903
0.13137256 0.13137256 0.13137256
0.14215687 0.14215687 0.14215687
0.15686275 0.15686275 0.15686275
0.16568628 0.16568628 0.16862746
0.1764706 0.1764706 0.18039216
0.18921569 0.18921569 0.19215687
0.20392157 0.20392157 0.20392157
0.21862745 0.21862745 0.21862745
0.23333333 0.23333333 0.23333333
0.24901961 0.24901961 0.24901961
0.26666668 0.26666668 0.26666668
0.29313725 0.29313725 0.29313725
0.3137255 0.3137255 0.3137255
0.3362745 0.3362745 0.3362745
0.36862746 0.36862746 0.36862746
0.377451 0.377451 0.377451
0.3921569 0.3921569 0.3921569
0.41274512 0.41176474 0.41176474
0.4392157 0.43529412 0.43529412
0.45980394 0.45588237 0.45882353
0.4745098 0.47254902 0.4745098
0.4862745 0.4862745 0.4862745
0.49803925 0.49803925 0.49803925
0.50098044 0.50098044 0.50098044
0.50784314 0.50784314 0.5058824
0.5176471 0.5176471 0.5147059
0.5294118 0.5294118 0.5294118
0.12843138 0.12843138 0.12843138
0.13137256 0.13137256 0.12843138
0.13578431 0.13578431 0.13382353
0.13946079 0.14019608 0.13946079
0.14019608 0.14313726 0.14019608
0.14460784 0.14754903 0.14460784
0.1504902 0.15196079 0.1504902
0.15759805 0.15759805 0.15759805
0.16568628 0.16568628 0.16568628
0.17671569 0.17671569 0.17745098
0.19264707 0.19264707 0.19362745
0.20833334 0.20833334 0.20906863
0.21862745 0.21862745 0.21862745
0.23333333 0.23553921 0.23333333
0.24950981 0.2509804 0.24950981
0.26446077 0.26519608 0.26519608
0.27549022 0.2784314 0.2784314
0.30196077 0.30269608 0.30269608
0.3240196 0.3240196 0.3240196
0.34583333 0.34583333 0.34583333
0.37156862 0.37156862 0.37156862
0.3870098 0.3892157 0.3870098
0.40245098 0.40392157 0.40245098
0.42156863 0.42132354 0.42132354
0.44803923 0.44705886 0.44705886
0.45980394 0.45882356 0.45955884
0.47009805 0.46960783 0.47009805
0.48259807 0.48259807 0.48259807
0.50098044 0.50098044 0.50098044
0.4995098 0.4995098 0.4995098
0.51225495 0.51225495 0.51176476
0.52500004 0.52500004 0.52426475
0.5235294 0.5235294 0.5235294
0.15686275 0.15686275 0.15686275
0.15539217 0.15539217 0.15392157
0.16078432 0.16078432 0.15980393
0.16568628 0.16617647 0.16568628
0.1627451 0.16470589 0.1627451
0.16862746 0.17058824 0.16862746
0.17352942 0.1745098 0.17254902
0.17892157 0.17892157 0.17745098
0.18627451 0.18627451 0.18627451
0.19803922 0.19803922 0.19656862
0.21176471 0.21176471 0.21078432
0.22401962 0.22401962 0.22401962
0.23137254 0.23137254 0.23137254
0.24460785 0.24607843 0.24313726
0.25980395 0.26078433 0.25882354
0.275 0.27549022 0.27549022
0.2882353 0.2901961 0.2901961
0.31323528 0.3137255 0.3137255
0.33529413 0.33529413 0.33529413
0.35588238 0.35588238 0.35588238
0.3764706 0.3764706 0.3764706
0.3985294 0.4 0.3985294
0.41568628 0.4166667 0.41568628
0.43088236 0.43088236 0.43088236
0.44705886 0.44705886 0.44705886
0.46176472 0.46323532 0.46176472
0.477451 0.47843137 0.477451
0.4926471 0.4926471 0.4926471
0.5058824 0.5058824 0.5058824
0.51029414 0.5088235 0.51029414
0.52254903 0.52156866 0.5235294
0.53333336 0.53333336 0.534804
0.53333336 0.53333336 0.53333336
0.18431373 0.18431373 0.18431373
0.17843138 0.17843138 0.17843138
0.18431373 0.18431373 0.18431373
0.19019608 0.19019608 0.19019608
0.18431373 0.18431373 0.18431373
0.19313726 0.19240196 0.19240196
0.1985294 0.19754902 0.19607843
0.20343137 0.20269607 0.2004902
0.21078432 0.21078432 0.21078432
0.22181372 0.22181372 0.21887253
0.23137255 0.23137255 0.22941175
0.2389706 0.2389706 0.2389706
0.24411765 0.24411765 0.24411765
0.25661767 0.25661767 0.25441176
0.27058825 0.27058825 0.26911765
0.28651962 0.28651962 0.28651962
0.30490196 0.30490196 0.30490196
0.3262255 0.3269608 0.3269608
0.34754902 0.3480392 0.3480392
0.3671569 0.3671569 0.3671569
0.38333333 0.38333333 0.38333333
0.40686274 0.40686274 0.40686274
0.425 0.425 0.425
0.4387255 0.4387255 0.4387255
0.4490196 0.4490196 0.4490196
0.46960786 0.47181374 0.46960786
0.4906863 0.49215686 0.4906863
0.5071079 0.5071079 0.5071079
0.5137255 0.5137255 0.5137255
0.5254902 0.5232843 0.5254902
0.53382355 0.532353 0.5352942
0.53995097 0.53995097 0.5421569
0.54509807 0.54509807 0.54509807
0.20784314 0.20784314 0.20784314
0.20196079 0.20196079 0.20196079
0.20784312 0.20784312 0.20784312
0.21372548 0.21372548 0.21372548
0.20784314 0.20784314 0.20784314
0.21666667 0.21372548 0.21372548
0.22352941 0.21960783 0.21960783
0.22843137 0.2254902 0.2254902
0.23137255 0.23137255 0.23137255
0.24019608 0.24019608 0.23725489
0.24901962 0.24901962 0.24705882
0.25588238 0.25588238 0.25588238
0.25882354 0.25882354 0.25882354
0.2735294 0.2735294 0.2735294
0.2882353 0.2882353 0.2882353
0.30490196 0.30490196 0.30490196
0.3254902 0.3254902 0.3254902
0.34019607 0.34313726 0.34313726
0.36078432 0.3627451 0.3627451
0.38039216 0.38039216 0.38039216
0.39215687 0.39215687 0.39215687
0.40686274 0.40686274 0.40686274
0.4235294 0.4235294 0.4235294
0.44313726 0.44313726 0.44313726
0.46666667 0.46666667 0.46666667
0.48725492 0.48725492 0.48725492
0.50392157 0.50392157 0.50392157
0.5166667 0.5166667 0.5166667
0.5254902 0.5254902 0.5254902
0.5372549 0.5372549 0.5372549
0.5411765 0.5411765 0.5411765
0.5421569 0.5421569 0.5421569
0.54509807 0.54509807 0.54509807
0.23431373 0.23431373 0.23431373
0.23725492 0.23725492 0.23725492
0.24019608 0.24019608 0.24019608
0.24093136 0.24093136 0.24093136
0.2372549 0.2372549 0.2372549
0.24387255 0.24313727 0.24313727
0.2514706 0.2504902 0.2504902
0.25931373 0.25857842 0.25857842
0.26666668 0.26666668 0.26666668
0.2644608 0.2644608 0.2637255
0.27107844 0.27107844 0.27058825
0.28014708 0.28014708 0.28088236
0.28529412 0.28529412 0.2882353
0.29779413 0.29779413 0.29852945
0.31176472 0.31176472 0.31176472
0.3269608 0.3269608 0.3269608
0.34313726 0.34313726 0.34313726
0.35784313 0.35857844 0.35857844
0.3754902 0.3759804 0.3759804
0.39362746 0.39362746 0.39362746
0.40980393 0.40980393 0.40980393
0.43112746 0.43112746 0.43112746
0.45441175 0.45441175 0.45441175
0.4747549 0.4747549 0.4747549
0.48725492 0.48725492 0.48725492
0.49901962 0.49901962 0.49901962
0.51568633 0.51568633 0.51568633
0.5306373 0.5306373 0.5306373
0.5372549 0.5372549 0.5372549
0.5446079 0.5446079 0.5446079
0.5514706 0.5514706 0.5514706
0.5568628 0.55759805 0.5568628
0.55980396 0.5627451 0.55980396
0.2627451 0.2647059 0.2627451
0.27009806 0.26911765 0.27009806
0.27058825 0.26960784 0.27058825
0.26813728 0.26862746 0.26813728
0.26666668 0.26862746 0.26666668
0.27254903 0.27156866 0.27107844
0.2794118 0.2784314 0.2784314
0.2867647 0.2867647 0.2867647
0.29411766 0.29411766 0.29411766
0.29411766 0.29411766 0.29411766
0.29803923 0.29901963 0.29803923
0.30490196 0.30637255 0.30539215
0.3137255 0.3137255 0.3156863
0.3240196 0.3240196 0.32450983
0.33235294 0.33137256 0.33137256
0.3421569 0.3406863 0.3406863
0.35686272 0.35686272 0.35686272
0.37303922 0.37303922 0.37303922
0.39215687 0.39215687 0.39117646
0.41127452 0.4117647 0.40980393
0.42745098 0.42941177 0.42745098
0.45098042 0.4514706 0.45098042
0.47352943 0.47352943 0.47352943
0.49264705 0.49264705 0.49264705
0.5058824 0.5058824 0.5058824
0.51323533 0.51323533 0.51323533
0.52745104 0.52745104 0.52745104
0.5426471 0.5426471 0.5426471
0.5529412 0.5529412 0.5529412
0.5647059 0.5647059 0.5647059
0.57058823 0.57058823 0.57058823
0.5740196 0.5745098 0.5740196
0.57843137 0.5803922 0.57843137
0.29509807 0.29803923 0.29509807
0.30098042 0.29950982 0.30098042
0.29901963 0.29754904 0.29901963
0.29558825 0.29632354 0.29558825
0.29705882 0.3 0.29705882
0.3014706 0.3 0.2992647
0.30588236 0.30441177 0.30441177
0.31078434 0.31078434 0.31078434
0.31666666 0.31666666 0.31666666
0.32254905 0.32254905 0.32254905
0.3240196 0.3254902 0.3240196
0.32794118 0.33014706 0.32794118
0.34117648 0.34117648 0.34117648
0.34852943 0.34852943 0.34852943
0.35196078 0.3504902 0.3504902
0.35833335 0.35612747 0.35612747
0.3745098 0.3745098 0.3745098
0.3892157 0.3892157 0.3892157
0.40882352 0.40882352 0.40735292
0.42990196 0.43088236 0.42794117
0.4490196 0.45294118 0.45
0.47181374 0.47352943 0.47279415
0.4901961 0.4906863 0.4906863
0.50661767 0.50661767 0.50661767
0.5235294 0.5235294 0.5235294
0.5294118 0.5294118 0.5294118
0.54215693 0.54215693 0.54215693
0.55710787 0.55710787 0.55710787
0.56960785 0.56960785 0.56960785
0.58504903 0.58504903 0.58504903
0.58823526 0.58823526 0.58823526
0.5884804 0.5884804 0.58823526
0.5950981 0.5950981 0.59411764
0.33333334 0.33333334 0.33333334
0.33039218 0.33039218 0.33039218
0.3254902 0.3254902 0.3254902
0.32352942 0.32352942 0.32352942
0.32941177 0.32941177 0.32941177
0.32941177 0.32941177 0.32941177
0.32941177 0.32941177 0.32941177
0.33137256 0.33137256 0.33137256
0.3372549 0.3372549 0.3372549
0.34313726 0.34313726 0.34313726
0.34313726 0.34313726 0.34313726
0.34705883 0.34705883 0.34705883
0.36470586 0.36470586 0.36470586
0.36764705 0.36764705 0.36764705
0.37254903 0.37254903 0.37254903
0.38333336 0.38333336 0.38333336
0.4039216 0.4039216 0.4039216
0.40980393 0.40980393 0.40980393
0.4235294 0.4235294 0.4235294
0.44607842 0.44705883 0.44705883
0.47843134 0.48235294 0.48235294
0.49901962 0.5029412 0.5029412
0.5137255 0.5156863 0.5156863
0.5264706 0.5264706 0.5264706
0.5411765 0.5411765 0.5411765
0.5470588 0.5470588 0.5470588
0.5627451 0.5627451 0.5627451
0.57843137 0.57843137 0.57843137
0.58431375 0.58431375 0.58431375
0.59313726 0.59313726 0.59313726
0.59411764 0.59411764 0.59411764
0.5950981 0.5950981 0.59411764
0.6039216 0.6039216 0.6
0.3627451 0.35980392 0.35980392
0.35759804 0.35686275 0.35906863
0.35784313 0.35784313 0.35931373
0.35882354 0.35882354 0.35882354
0.35588235 0.35588235 0.35588235
0.36029413 0.36029413 0.36029413
0.3661765 0.3661765 0.3661765
0.37107843 0.37107843 0.37107843
0.372549 0.372549 0.372549
0.37622547 0.3740196 0.37622547
0.37990198 0.37843138 0.37843138
0.3867647 0.3867647 0.38455883
0.39999998 0.39999998 0.39999998
0.40514708 0.40514708 0.40514708
0.40637255 0.40637255 0.40637255
0.40980393 0.40980393 0.40980393
0.42156863 0.42156863 0.42156863
0.4384804 0.4384804 0.4384804
0.45441175 0.45441175 0.45441175
0.47034314 0.47058824 0.47058824
0.4872549 0.4882353 0.4882353
0.51666665 0.5176471 0.5176471
0.5328431 0.5348039 0.5348039
0.5426471 0.5441177 0.5441177
0.5529412 0.55 0.55
0.5632353 0.56470585 0.5625
0.57892156 0.5803921 0.57892156
0.59460783 0.59460783 0.5953431
0.60490197 0.60490197 0.60784316
0.6115196 0.6115196 0.6122549
0.6147059 0.6147059 0.6161765
0.62009805 0.62009805 0.62205887
0.6333333 0.6333333 0.63235295
0.38627452 0.38235295 0.38431373
0.38774508 0.3867647 0.3887255
0.39019606 0.39019606 0.39117646
0.39019608 0.39019608 0.3897059
0.38431373 0.38431373 0.38235295
0.39019608 0.39166668 0.3897059
0.39509803 0.39607844 0.39509803
0.3990196 0.3985294 0.3985294
0.4019608 0.39999998 0.39999998
0.40637255 0.40441176 0.40588236
0.40882355 0.40784314 0.40784314
0.4137255 0.4137255 0.4122549
0.4254902 0.4254902 0.4254902
0.4343137 0.4343137 0.4343137
0.4392157 0.4392157 0.4392157
0.44362745 0.44362745 0.44362745
0.4509804 0.4509804 0.4509804
0.4642157 0.4642157 0.4642157
0.48137257 0.48137257 0.48137257
0.49656862 0.49656862 0.49656862
0.50392157 0.50392157 0.50392157
0.53039217 0.53039217 0.53039217
0.54607844 0.5470588 0.5470588
0.5563726 0.5568628 0.5568628
0.5666667 0.5627451 0.5627451
0.5887255 0.5892157 0.58774513
0.6039216 0.60490197 0.6039216
0.6156863 0.6156863 0.6161765
0.627451 0.627451 0.6294118
0.6362745 0.6362745 0.63676476
0.6401961 0.6401961 0.64117646
0.6450981 0.6450981 0.64656866
0.65686274 0.65686274 0.65686274
0.41274512 0.40980393 0.41274512
0.41936275 0.41936272 0.41936275
0.42156863 0.42205882 0.42156863
0.41960785 0.41960785 0.41887254
0.41372553 0.41372553 0.4107843
0.41960785 0.42254904 0.41960785
0.42058823 0.422549 0.4210784
0.42205882 0.42132354 0.42132354
0.42941177 0.42647058 0.42647058
0.43529412 0.43455884 0.43455884
0.43382353 0.43382353 0.43382353
0.43480393 0.43480393 0.43480393
0.44803923 0.44803923 0.44803923
0.46053922 0.46053922 0.46053922
0.46960783 0.46960783 0.46960783
0.47696078 0.47696078 0.47696078
0.48431373 0.48431373 0.48431373
0.4909314 0.4909314 0.49166667
0.50686276 0.50686276 0.50735295
0.5230392 0.5230392 0.5230392
0.53039217 0.53039217 0.53039217
0.5509804 0.5509804 0.5509804
0.5642157 0.5642157 0.5642157
0.57500005 0.57426476 0.57426476
0.5882353 0.5852941 0.5852941
0.6161765 0.6154412 0.6154412
0.6289216 0.6289216 0.6284314
0.63676476 0.63676476 0.6360294
0.65000004 0.65000004 0.65000004
0.6602942 0.6602942 0.6602942
0.6637255 0.6637255 0.6637255
0.6664216 0.6664216 0.6664216
0.6745098 0.6745098 0.6745098
0.45098042 0.45098042 0.45098042
0.45098042 0.4539216 0.45098042
0.45098042 0.45294118 0.45098042
0.44901964 0.44901964 0.44901964
0.44313726 0.44313726 0.44313726
0.44901964 0.4519608 0.4519608
0.44705886 0.4490196 0.4490196
0.44705883 0.44705883 0.44705883
0.4588235 0.4588235 0.4588235
0.46470588 0.46470588 0.46470588
0.45882356 0.45882356 0.45882356
0.45686278 0.45686278 0.45686278
0.4745098 0.4745098 0.4745098
0.48921567 0.48921567 0.48921567
0.49607843 0.49607843 0.49607843
0.5019608 0.5019608 0.5019608
0.5137255 0.5137255 0.5137255
0.52254903 0.52254903 0.5254902
0.53333336 0.53333336 0.5352942
0.54803926 0.54803926 0.54803926
0.5686275 0.5686275 0.5686275
0.5892157 0.5892157 0.5892157
0.59803927 0.59803927 0.59803927
0.6058824 0.6058824 0.6058824
0.62352943 0.62352943 0.62352943
0.63823533 0.63823533 0.63823533
0.6450981 0.6450981 0.6431373
0.6529412 0.6529412 0.65000004
0.67058825 0.67058825 0.67058825
0.67647064 0.67647064 0.67647064
0.6784314 0.6784314 0.6784314
0.68039215 0.68039215 0.68039215
0.6862745 0.6862745 0.6862745
0.48333335 0.48333335 0.48333335
0.4789216 0.47965688 0.4789216
0.4789216 0.47941178 0.477451
0.47916666 0.47916666 0.47696078
0.4754902 0.4754902 0.4754902
0.48137257 0.48210785 0.48431373
0.48235294 0.48284313 0.48431373
0.48235294 0.48235294 0.48235294
0.4852941 0.4852941 0.4852941
0.4911765 0.4911765 0.4911765
0.49558824 0.49558824 0.49411768
0.502451 0.502451 0.5002451
0.5156863 0.5156863 0.5156863
0.52156866 0.52156866 0.52156866
0.5313726 0.529902 0.529902
0.54534316 0.542402 0.5431373
0.56372553 0.56078434 0.56372553
0.5681373 0.567402 0.5688726
0.57450986 0.57303923 0.5735294
0.5833334 0.58112746 0.58112746
0.5950981 0.5950981 0.5950981
0.61348045 0.61348045 0.61348045
0.62303925 0.62303925 0.62303925
0.63161767 0.63161767 0.63161767
0.64705884 0.64705884 0.64705884
0.6529412 0.6529412 0.6529412
0.6598039 0.6598039 0.65931374
0.67132354 0.67132354 0.67058825
0.6911765 0.6911765 0.6911765
0.69485295 0.69485295 0.69485295
0.69901955 0.69901955 0.69901955
0.70392156 0.70392156 0.70392156
0.70980394 0.70980394 0.70980394
0.5058824 0.5058824 0.5058824
0.5029412 0.5029412 0.50147057
0.504902 0.504902 0.5019608
0.5088235 0.5088235 0.5058824
0.5117647 0.5117647 0.5117647
0.5117647 0.5117647 0.51323533
0.5156863 0.5156863 0.51666665
0.51960784 0.51960784 0.51960784
0.51960784 0.51960784 0.51960784
0.5269608 0.5269608 0.5269608
0.5352941 0.5352941 0.53431374
0.5436275 0.5441177 0.5421569
0.55098045 0.5529412 0.55098045
0.5583334 0.5588236 0.55980396
0.56568635 0.5647059 0.56568635
0.57549024 0.5735295 0.5740197
0.59019613 0.5882353 0.59019613
0.5975491 0.59852946 0.59901965
0.6068628 0.60588235 0.60588235
0.61764705 0.6147059 0.6151961
0.6294118 0.6294118 0.6313726
0.64705884 0.64705884 0.64754903
0.6509804 0.6509804 0.6509804
0.65539217 0.65539217 0.65539217
0.6745098 0.6745098 0.6745098
0.68039215 0.68039215 0.68039215
0.6872549 0.6872549 0.6862745
0.69705886 0.69705886 0.69558823
0.7117647 0.7117647 0.7117647
0.7161765 0.7161765 0.7161765
0.71960783 0.71960783 0.71960783
0.7230392 0.7230392 0.7230392
0.72745097 0.72745097 0.72745097
0.5264706 0.5264706 0.5264706
0.52720594 0.52720594 0.52500004
0.53186274 0.53186274 0.5289216
0.5389706 0.5389706 0.53676474
0.5470588 0.5470588 0.5470588
0.54338235 0.54338235 0.54338235
0.5470588 0.5470588 0.5470588
0.5529412 0.5529412 0.5529412
0.5558824 0.5558824 0.5558824
0.5647059 0.5647059 0.5647059
0.5735294 0.5740196 0.5740196
0.5803922 0.58186275 0.58112746
0.5833334 0.5862745 0.5833334
0.59362745 0.59436274 0.59583336
0.59803927 0.59803927 0.59950984
0.602451 0.602451 0.602451
0.6127451 0.6127451 0.6127451
0.6252451 0.627451 0.627451
0.6377451 0.6377451 0.6377451
0.65 0.6477941 0.6487745
0.66176474 0.66176474 0.6656863
0.6786765 0.67941177 0.6803922
0.67990196 0.68039215 0.68039215
0.68284315 0.68284315 0.68284315
0.704902 0.704902 0.704902
0.7144608 0.7137255 0.7144608
0.71960783 0.71911764 0.71813726
0.7247549 0.7247549 0.7223039
0.7343137 0.7343137 0.73333335
0.73799026 0.73799026 0.73774517
0.7382353 0.7382353 0.7382353
0.7394608 0.7397059 0.7394608
0.74607843 0.74705887 0.74607843
0.5529412 0.5529412 0.5529412
0.5558824 0.5558824 0.5558824
0.5627451 0.5627451 0.5627451
0.57058823 0.57058823 0.57058823
0.5764706 0.5764706 0.5764706
0.5794118 0.5794118 0.5794118
0.5764706 0.5764706 0.5764706
0.5764706 0.5764706 0.5764706
0.5882353 0.5882353 0.5882353
0.59705883 0.59705883 0.59705883
0.6058824 0.60784316 0.60784316
0.6127451 0.6156863 0.6156863
0.6156863 0.6156863 0.6156863
0.6215687 0.6215687 0.6215687
0.627451 0.627451 0.627451
0.6362745 0.6362745 0.6362745
0.6509804 0.6509804 0.6509804
0.6656863 0.6656863 0.6656863
0.6745098 0.6745098 0.6745098
0.67941177 0.67941177 0.68039215
0.68235296 0.68235296 0.6862745
0.6970588 0.70000005 0.7009804
0.7078432 0.70980394 0.70980394
0.7196079 0.7196079 0.7196079
0.7372549 0.7372549 0.7372549
0.7490196 0.74607843 0.7490196
0.7490196 0.74705887 0.7490196
0.7490196 0.7490196 0.74803925
0.7607843 0.7607843 0.75686276
0.75784314 0.75784314 0.75686276
0.7529412 0.7529412 0.7529412
0.754902 0.7558824 0.754902
0.77254903 0.7764706 0.77254903
0.582353 0.582353 0.582353
0.5852941 0.5830883 0.5830883
0.5906863 0.58921576 0.58921576
0.59558827 0.59632355 0.59558827
0.59705883 0.6 0.59705883
0.6066177 0.607353 0.6066177
0.61029416 0.61029416 0.61029416
0.6132353 0.6132353 0.6132353
0.62058824 0.62058824 0.62058824
0.625 0.625 0.625
0.6279412 0.6284314 0.6284314
0.63186276 0.63259804 0.63259804
0.6392157 0.6392157 0.6392157
0.64730394 0.64730394 0.64730394
0.65539217 0.65539217 0.65539217
0.6642157 0.6642157 0.6642157
0.6745098 0.6745098 0.6745098
0.6914216 0.6914216 0.6914216
0.7009804 0.7009804 0.7009804
0.7066177 0.7066177 0.7068628
0.7117647 0.7117647 0.71274513
0.72647065 0.72941184 0.72965693
0.7401961 0.7436275 0.74215686
0.75196075 0.75416666 0.75196075
0.76078427 0.76078427 0.76078427
0.7681372 0.7651961 0.7681372
0.76666665 0.7647059 0.76666665
0.76666665 0.76740193 0.76715684
0.7784314 0.78137255 0.78039217
0.78210783 0.7828432 0.7825981
0.78088236 0.78088236 0.78088236
0.7828432 0.78308827 0.7828432
0.79607844 0.7970588 0.79607844
0.6098039 0.6098039 0.6098039
0.61127454 0.6098039 0.61127454
0.61764705 0.6166667 0.6176471
0.6240196 0.6245098 0.6240196
0.6254902 0.627451 0.6254902
0.63284314 0.6333333 0.63284314
0.63529414 0.63529414 0.63529414
0.63774514 0.63774514 0.63774514
0.6450981 0.6450981 0.6450981
0.6450981 0.6450981 0.6450981
0.6490196 0.6490196 0.6490196
0.65686274 0.65686274 0.65686274
0.6686275 0.6686275 0.6686275
0.68039215 0.68039215 0.68039215
0.6872549 0.6872549 0.6872549
0.6916667 0.6916667 0.6916667
0.6960784 0.6960784 0.6960784
0.7107843 0.7107843 0.7107843
0.72352946 0.72352946 0.72352946
0.7343137 0.7343137 0.73382354
0.74313724 0.74313724 0.7411765
0.75637263 0.7578432 0.757353
0.76764715 0.7696079 0.7696079
0.77598035 0.777451 0.777451
0.78039217 0.78039217 0.78039217
0.7862745 0.7848039 0.7862745
0.7872549 0.78627455 0.7872549
0.7892157 0.7897059 0.7897059
0.7980392 0.8 0.8
