assets/luts/LUTs/LEICA/LEICA CHR.cube
#Generated by PennL1 - 闲鱼号：LOOK胶片感 公众号：胶片感
TITLE LEICA CHR
LUT_3D_SIZE 33
0.07058824 0.05490196 0.058823533
0.075980395 0.058455884 0.062377453
0.09240197 0.05490196 0.059558827
0.109681375 0.05490196 0.0627451
0.1367647 0.053431373 0.06421569
0.15821078 0.04914216 0.06666667
0.18186274 0.049264707 0.062254906
0.21531862 0.04840686 0.058823533
0.24215686 0.047058824 0.064705886
0.27683824 0.043750003 0.063357845
0.31176472 0.043137256 0.055392157
0.33811274 0.043137256 0.062622555
0.36911762 0.04264706 0.058823533
0.40514708 0.038357846 0.05796569
0.43333334 0.03529412 0.05612745
0.46127453 0.03529412 0.06041667
0.48431376 0.03137255 0.0627451
0.51200986 0.029779414 0.058088236
0.5377451 0.03137255 0.06029412
0.56348044 0.03137255 0.05968138
0.5892157 0.027941177 0.062254906
0.5997549 0.03125 0.05894608
0.62083334 0.027205883 0.05514706
0.6416667 0.024142157 0.060049023
0.6598039 0.026470589 0.06568628
0.67990196 0.023529412 0.06409314
0.69705886 0.023529412 0.06495099
0.7100491 0.025612745 0.05857843
0.7235294 0.025 0.057352945
0.735049 0.02634804 0.061642163
0.75 0.024264706 0.06593138
0.7529412 0.023529412 0.06666667
0.7647059 0.03137255 0.07450981
0.06666667 0.059926473 0.06164216
0.07638251 0.05985754 0.062113207
0.09944087 0.059329048 0.05660233
0.1134421 0.060822614 0.06029412
0.13678004 0.063250616 0.062055763
0.15828356 0.061469823 0.05977712
0.19048713 0.059191182 0.06298254
0.21887638 0.05685892 0.06174939
0.2455576 0.05591299 0.059007358
0.28019685 0.052385878 0.058513332
0.314951 0.048383884 0.058800556
0.34226793 0.04791667 0.062377453
0.3687653 0.05122549 0.06144302
0.4014706 0.0470167 0.055518538
0.42881432 0.041904107 0.05795037
0.46308595 0.03820849 0.059750307
0.48468137 0.040134806 0.056678925
0.5104971 0.03995098 0.051497396
0.53813577 0.03506434 0.054296877
0.56699216 0.03504519 0.061477486
0.58975184 0.02354473 0.059037995
0.607353 0.031786155 0.061542593
0.62193626 0.035439648 0.059022676
0.64388025 0.03216529 0.06206725
0.66596204 0.032567404 0.06139706
0.68125004 0.03259038 0.058835022
0.697549 0.032107845 0.060791977
0.71048945 0.032107845 0.0599035
0.72735906 0.032567404 0.055958945
0.73913145 0.0320504 0.0625651
0.74821544 0.029151348 0.06586244
0.75975037 0.028220741 0.05593597
0.75759804 0.031740196 0.05490196
0.06813726 0.07132353 0.05392157
0.075160846 0.0714614 0.06437654
0.09891237 0.067156866 0.065333955
0.112208955 0.07221967 0.06384804
0.14093138 0.070618875 0.06850491
0.1629902 0.06985295 0.06708793
0.19771753 0.06609988 0.06063113
0.22624081 0.06642157 0.063258275
0.24908088 0.068811275 0.06041667
0.27588084 0.063610606 0.056755517
0.30793506 0.061121326 0.058670346
0.3449755 0.05794271 0.0573989
0.36936274 0.06053922 0.05851716
0.41139707 0.057107843 0.054978557
0.43628985 0.056112133 0.05199142
0.46402422 0.053622857 0.05477941
0.4882353 0.05122549 0.055269614
0.5124464 0.04970129 0.057069547
0.5418658 0.04898897 0.060248166
0.5717372 0.04355086 0.063350186
0.5896447 0.044944853 0.056004904
0.6066177 0.042256437 0.051102944
0.6333793 0.041467525 0.058670346
0.6547871 0.04253983 0.05664063
0.6695466 0.04595588 0.057475492
0.6824679 0.047303922 0.05841759
0.69828427 0.042478554 0.0609375
0.71350336 0.04250153 0.051884193
0.72840077 0.046139706 0.050582107
0.7423637 0.04060202 0.05269608
0.75672483 0.0412837 0.05528493
0.7619562 0.03793658 0.053661153
0.76617646 0.038235296 0.054166667
0.07450981 0.08002451 0.06776961
0.08592601 0.08394608 0.07226563
0.10040595 0.08520987 0.067363665
0.11391315 0.08910079 0.067811735
0.13967526 0.087162994 0.0645527
0.16156174 0.08804382 0.062063422
0.19508272 0.0860141 0.06420037
0.22130056 0.08676471 0.06165365
0.24427085 0.08759192 0.06075368
0.27965686 0.08455882 0.06154642
0.31033242 0.07762715 0.0589997
0.34185815 0.07720588 0.053327974
0.36810663 0.07671569 0.05807292
0.4082108 0.073525585 0.06053922
0.43210787 0.07369792 0.060883887
0.4589461 0.07148438 0.060945164
0.48768386 0.06795344 0.05686275
0.5177313 0.06645987 0.057146143
0.5420114 0.06403952 0.05749847
0.5726677 0.061760876 0.052213542
0.5900123 0.061519608 0.05344669
0.6078087 0.060451135 0.050000004
0.6367647 0.057774205 0.054656867
0.66083413 0.059976257 0.057797186
0.67518383 0.059436277 0.05560662
0.6910539 0.06301318 0.05540365
0.70477945 0.060546875 0.05146293
0.7216912 0.06063496 0.048828125
0.73938423 0.059313726 0.04488358
0.7510455 0.05526195 0.045032937
0.76589304 0.05825674 0.04623928
0.7706265 0.055204503 0.04900046
0.77365196 0.05759804 0.052083336
0.075980395 0.10294118 0.07205883
0.08863358 0.10392157 0.0754902
0.102971815 0.10465686 0.07622549
0.11534926 0.10784314 0.07665441
0.14368872 0.10784314 0.070159316
0.16605392 0.10853247 0.07337622
0.19191177 0.10710784 0.07377451
0.21936275 0.10539216 0.06787684
0.24325982 0.107230395 0.06973039
0.27706802 0.105775125 0.06197917
0.31130517 0.10171569 0.058915444
0.34208027 0.10147059 0.058746938
0.37414217 0.101164214 0.05618873
0.40674022 0.099877454 0.05490196
0.4315564 0.09957108 0.05612745
0.46041667 0.09375 0.059819244
0.48627454 0.092156865 0.056127455
0.51853555 0.08765319 0.050980393
0.5423407 0.08893995 0.049969364
0.570144 0.08664216 0.049509805
0.5957721 0.08449755 0.04822304
0.61752456 0.08336397 0.04708946
0.6395221 0.08048407 0.04641544
0.66127455 0.08186275 0.051087625
0.67941177 0.080882356 0.049387254
0.7010263 0.07794118 0.050658703
0.7170037 0.07794118 0.051409315
0.7315258 0.07715993 0.048835788
0.74883586 0.07738971 0.04944853
0.7590686 0.076884195 0.04900429
0.7696385 0.075275734 0.050030638
0.7786765 0.07855392 0.05182292
0.7794118 0.07892157 0.051960785
0.08026961 0.13419119 0.07083334
0.087350644 0.13009728 0.06875
0.10262715 0.128822 0.06982996
0.11906404 0.13051471 0.0729588
0.14215687 0.13051471 0.07115503
0.16605392 0.13235295 0.075616576
0.19294578 0.13326441 0.073353246
0.22240733 0.13235295 0.06705347
0.24739584 0.13235295 0.07095589
0.27928922 0.12925093 0.06588542
0.31142005 0.125 0.05918352
0.34221435 0.12647825 0.058708645
0.37781864 0.12314645 0.055116422
0.4069317 0.12521064 0.05490196
0.43500304 0.12423408 0.054978553
0.4639591 0.118604474 0.055893846
0.48811278 0.11482844 0.053982846
0.52376306 0.112143844 0.049888942
0.5482001 0.1129902 0.047709867
0.5755247 0.11279872 0.048494946
0.59914213 0.11092219 0.045465685
0.61346513 0.10911842 0.041651346
0.64446235 0.10687041 0.04779412
0.666502 0.10882354 0.052657783
0.6835478 0.107843146 0.03927696
0.70654106 0.10490196 0.04152497
0.7230545 0.10490196 0.043750003
0.7376149 0.10379519 0.044604015
0.7554994 0.10526961 0.047610298
0.77038527 0.102600336 0.041804537
0.7805147 0.09928769 0.04095435
0.78742725 0.10411689 0.04152114
0.7898284 0.10281863 0.041544117
0.08676471 0.16176471 0.064460784
0.09554994 0.16009498 0.066873476
0.10709253 0.16053922 0.06992953
0.12454045 0.15991881 0.0736826
0.14849879 0.15833333 0.07202819
0.1692938 0.1622396 0.07256434
0.1972886 0.16418505 0.071614586
0.22806373 0.1622549 0.06737899
0.24889706 0.1622549 0.066360295
0.28102788 0.15749848 0.06666667
0.31729475 0.15707721 0.06551777
0.34655333 0.15430453 0.060922187
0.37990198 0.15119487 0.05726103
0.40944394 0.15269609 0.055867035
0.43843442 0.15200675 0.058088236
0.46519607 0.15068935 0.053400736
0.492402 0.14705883 0.050735295
0.52702975 0.144447 0.049961705
0.5553309 0.1438266 0.04623162
0.58271295 0.14620098 0.04791667
0.61118263 0.14512868 0.047273286
0.6203968 0.13939185 0.037798714
0.6511949 0.14079352 0.041007966
0.6753217 0.13872549 0.041352637
0.6943015 0.13829657 0.037683826
0.7158548 0.1370098 0.038020834
0.73258275 0.13604473 0.035018384
0.7505974 0.13480392 0.03594516
0.7644608 0.13725491 0.03575368
0.78149515 0.13784468 0.033708643
0.7933824 0.1375 0.03627451
0.7964078 0.14060968 0.035454962
0.80490196 0.1370098 0.03529412
0.09276961 0.18406862 0.06531863
0.10428922 0.18652727 0.077087164
0.115939036 0.1858992 0.078079045
0.12904413 0.18761106 0.07601486
0.15503983 0.18664216 0.07374387
0.17060739 0.18974419 0.073877916
0.19862899 0.19174325 0.07536765
0.22809054 0.18718596 0.07450981
0.24932598 0.18734682 0.06829044
0.2811619 0.1868528 0.0710095
0.3156863 0.18790595 0.073077515
0.3497166 0.18022749 0.06290595
0.37636337 0.1820772 0.06723346
0.41622627 0.1781365 0.062086403
0.44159773 0.17892158 0.05975031
0.4677696 0.17677313 0.05718061
0.49540442 0.1762255 0.050306376
0.5253677 0.17720588 0.047361366
0.55136335 0.17787224 0.05009191
0.58196235 0.17649357 0.047889862
0.61118263 0.17279413 0.044806987
0.63203126 0.16850491 0.039380364
0.658701 0.16829811 0.041544117
0.6805492 0.16703431 0.03786765
0.7028799 0.16703431 0.037898287
0.7213504 0.16614968 0.03660003
0.74164367 0.16499694 0.033409927
0.7600873 0.1643191 0.03473882
0.77314645 0.16395527 0.037362132
0.7892157 0.16727942 0.0331993
0.79901195 0.16629137 0.032467835
0.8069968 0.16580883 0.03505285
0.81433827 0.16703431 0.03786765
0.097058825 0.20980391 0.07254902
0.10965074 0.21041666 0.07941177
0.12003677 0.20814951 0.07922795
0.13673408 0.21372549 0.077879906
0.15808824 0.21482843 0.07794118
0.17447916 0.21712622 0.07901348
0.20098038 0.21764706 0.074693635
0.23014705 0.21249999 0.07383579
0.25514707 0.21715686 0.07303922
0.2872549 0.21712624 0.079166666
0.32156864 0.20839462 0.07763481
0.3524816 0.21179534 0.071629904
0.37377453 0.21213235 0.07193628
0.4147365 0.20805758 0.060998783
0.44368872 0.20851715 0.06084559
0.47500002 0.20784312 0.05762868
0.50196075 0.20637254 0.05245098
0.5295037 0.20548406 0.051348038
0.552451 0.20588236 0.0502451
0.57742035 0.20741421 0.047487747
0.6183824 0.1992647 0.04877451
0.6377758 0.1942402 0.042371325
0.66023284 0.2 0.037377454
0.6855086 0.19954044 0.039215688
0.7107843 0.19779412 0.039705884
0.7266851 0.19865197 0.040165443
0.7440564 0.19650736 0.03651961
0.76308215 0.19341299 0.036917895
0.78161764 0.19387256 0.039215688
0.79515934 0.19466913 0.037806373
0.80698526 0.19332108 0.037254903
0.8168199 0.1958027 0.035477944
0.8215686 0.19411765 0.03627451
0.11127451 0.2454657 0.084436275
0.11384804 0.23579195 0.078431375
0.12451746 0.23784466 0.07905178
0.1454657 0.23894377 0.0826708
0.16668199 0.2450674 0.08403799
0.18745787 0.24493337 0.08051471
0.21519607 0.2485524 0.079603255
0.24001992 0.24702437 0.083088234
0.2609988 0.24932598 0.084436275
0.29252452 0.24730393 0.08547028
0.32683825 0.2387638 0.0819853
0.34722733 0.24597505 0.07781863
0.37973347 0.24227941 0.07709865
0.41557518 0.23957184 0.07219286
0.44259343 0.24112286 0.07041208
0.47499618 0.24019225 0.06653646
0.5022672 0.23854165 0.066176474
0.5334674 0.23492646 0.05672105
0.56004906 0.23492646 0.05302543
0.5878906 0.23540516 0.05367647
0.62032783 0.23393075 0.054212622
0.63874465 0.23310737 0.0498966
0.6669118 0.22810967 0.04877451
0.6922258 0.23421797 0.05089997
0.7135723 0.23219974 0.041023284
0.7316177 0.22862287 0.038583793
0.75081193 0.22894455 0.043704044
0.7717716 0.22467448 0.042030483
0.7883732 0.227451 0.039215688
0.8023783 0.22995175 0.036837474
0.81079966 0.22977942 0.035906866
0.82187116 0.23033473 0.035351563
0.8334559 0.23308823 0.041911766
0.11372549 0.26936275 0.0752451
0.12215839 0.2689951 0.07912071
0.13489583 0.27181375 0.08583027
0.15140167 0.27090228 0.08609835
0.1754902 0.2752451 0.084803924
0.19693628 0.27463236 0.082238056
0.22086397 0.27685356 0.082245715
0.2513174 0.27438727 0.08733916
0.27371326 0.27322304 0.08719363
0.29796264 0.27617955 0.08937654
0.33112746 0.27625614 0.09316789
0.36055455 0.28015473 0.085784316
0.38823527 0.27322304 0.08529412
0.42340687 0.27708334 0.08186275
0.44975492 0.2766238 0.07941177
0.48497245 0.2749464 0.07411918
0.511152 0.27806374 0.07046569
0.5376226 0.27012104 0.066084564
0.5624234 0.27115503 0.060799636
0.59294575 0.27230394 0.061450675
0.6237745 0.26908702 0.05582108
0.642402 0.27575064 0.054664522
0.6754902 0.26426166 0.057659317
0.69946384 0.26184896 0.04743413
0.7164829 0.26574758 0.047610294
0.7445236 0.26569396 0.04890472
0.7650582 0.26253065 0.048529413
0.7823606 0.26237747 0.04656863
0.79656863 0.2631434 0.040594365
0.81078434 0.26206344 0.041681986
0.8243566 0.25804228 0.04264706
0.8338006 0.26401657 0.04264706
0.8389706 0.264951 0.035784315
0.1257353 0.28321078 0.08627451
0.13717832 0.2875881 0.08627451
0.13625154 0.2915671 0.0877451
0.15553387 0.29378447 0.095255055
0.18794423 0.29257047 0.098161764
0.20937116 0.29687884 0.098161764
0.23301929 0.298966 0.10236673
0.25636873 0.29652652 0.09839921
0.28354782 0.3037684 0.10324755
0.30717295 0.3002068 0.09299556
0.33936122 0.29534316 0.09044884
0.3691138 0.3029412 0.09828432
0.38864887 0.30292588 0.09401042
0.42331114 0.30362284 0.09232154
0.44784006 0.3029335 0.095710784
0.48249847 0.29674098 0.0904182
0.50784314 0.30091912 0.08449755
0.53333336 0.30269608 0.083088234
0.5602559 0.2948606 0.07574296
0.59615886 0.29436278 0.0707644
0.62117034 0.29500613 0.06063113
0.6354052 0.2986558 0.059191182
0.6686428 0.29070926 0.06263021
0.7001034 0.28858382 0.060236678
0.71384805 0.29509807 0.065625004
0.73509115 0.2924441 0.061519608
0.75994176 0.28732386 0.05717678
0.7791743 0.28725493 0.050865505
0.79338235 0.28733152 0.04500613
0.8131472 0.28728938 0.04908854
0.82899046 0.29034162 0.047939647
0.83845747 0.29105392 0.047514554
0.8356618 0.28725493 0.04387255
0.13480392 0.3137255 0.087254904
0.14673713 0.31954658 0.087254904
0.15949754 0.31550246 0.08854167
0.17314646 0.32135418 0.09618567
0.19577207 0.32481617 0.10183824
0.21668199 0.329182 0.102221206
0.24050245 0.33085173 0.10003064
0.2688113 0.33331802 0.10592831
0.29178923 0.33308825 0.11200981
0.32172182 0.33284315 0.10405944
0.3462316 0.33008578 0.09969363
0.37098652 0.33727023 0.11018689
0.38878676 0.3372549 0.10680147
0.43135723 0.33307293 0.105621934
0.45686275 0.33039215 0.10064338
0.48400733 0.33298102 0.097778805
0.5093137 0.33308825 0.09068628
0.53811276 0.32970282 0.08475797
0.5673101 0.32956496 0.085049026
0.59572613 0.3324755 0.078079045
0.6245711 0.32775736 0.07303922
0.6512102 0.32601103 0.0730239
0.6714461 0.31951594 0.06859682
0.7079044 0.32594976 0.06744792
0.71997553 0.32843137 0.064705886
0.7414828 0.32775736 0.06629902
0.76464456 0.32454044 0.060723044
0.7834099 0.32205883 0.056862745
0.8014093 0.32389706 0.058700986
0.81899506 0.32288605 0.059803925
0.8249081 0.32245713 0.05382966
0.8396599 0.32210478 0.06222427
0.8480392 0.32205883 0.06666667
0.14681374 0.34718138 0.09583333
0.15126762 0.34477252 0.09591376
0.16764706 0.35142463 0.09685202
0.18663068 0.354542 0.09768689
0.2089614 0.36041668 0.1006587
0.23040748 0.36143154 0.1039905
0.2576057 0.35980392 0.10281863
0.27897137 0.36696154 0.10683977
0.30272675 0.3661152 0.10729167
0.33169425 0.36385956 0.10818781
0.36290592 0.36659774 0.110523894
0.3865885 0.37080652 0.11455653
0.40658703 0.37306985 0.113128066
0.4309551 0.3687002 0.10969669
0.4606158 0.37097883 0.110883884
0.49145985 0.3699755 0.10421263
0.52089465 0.3661152 0.09797794
0.54618186 0.36640245 0.09901961
0.5738511 0.364951 0.09614737
0.6037416 0.36611906 0.09239431
0.63014704 0.36946997 0.08923101
0.6571883 0.363917 0.09098499
0.68769145 0.36348042 0.084734984
0.7126226 0.35905716 0.08036918
0.7358456 0.35545343 0.07328431
0.751348 0.35989967 0.075172335
0.7681296 0.3632506 0.072786465
0.7857154 0.3593482 0.0718482
0.8061274 0.35756743 0.069531254
0.82757354 0.35894224 0.069615506
0.83627456 0.3622932 0.06621477
0.8547794 0.35931373 0.06887255
0.8574755 0.3572304 0.067524515
0.15661766 0.37965688 0.101960786
0.1577206 0.37990963 0.10221355
0.17109375 0.38313422 0.104702815
0.19166666 0.38720894 0.10400582
0.21761642 0.39090073 0.10272672
0.23810509 0.39411762 0.105675556
0.2688266 0.39411762 0.108486526
0.2881817 0.39846048 0.11036305
0.30808824 0.40165442 0.11372549
0.3411535 0.39865196 0.11822151
0.36585477 0.39803922 0.11634498
0.39623928 0.4007353 0.118864894
0.4124081 0.3995711 0.11734069
0.4449525 0.39345893 0.110960476
0.47738972 0.4019608 0.11865809
0.4986596 0.4035616 0.11604627
0.52610296 0.4007353 0.1129902
0.55121785 0.40023744 0.10993413
0.5815104 0.3971967 0.10193015
0.61053926 0.39654565 0.09990043
0.6352022 0.39788604 0.1004902
0.6567479 0.39685202 0.09787837
0.689951 0.39656863 0.09878983
0.71200985 0.3920496 0.09365809
0.73645836 0.38884804 0.08553922
0.7560585 0.39247087 0.08763787
0.7744485 0.3922028 0.08484988
0.79306835 0.39211088 0.07994792
0.8134804 0.3931066 0.07696079
0.8349265 0.39411762 0.08259804
0.84263176 0.3921262 0.079427086
0.8586857 0.39144456 0.080629595
0.8666667 0.38480392 0.0754902
0.16629903 0.4118873 0.101960786
0.17362516 0.4162186 0.10340457
0.18504901 0.4117494 0.10168505
0.20253524 0.41290978 0.10310968
0.22780332 0.41974568 0.11099877
0.24718137 0.42514554 0.1129902
0.2733303 0.4259421 0.116505824
0.2984222 0.42781863 0.11972274
0.32475492 0.43210784 0.124111526
0.35023743 0.4311236 0.12352558
0.3773514 0.43075982 0.124655336
0.40291822 0.42926624 0.12654336
0.4253217 0.4320619 0.13083641
0.46033242 0.43053386 0.11901425
0.48679534 0.43258274 0.12033548
0.50483304 0.43373546 0.1192402
0.5314339 0.43075982 0.11727942
0.5566521 0.42916667 0.11626455
0.5855393 0.4286535 0.11480545
0.61372554 0.42827052 0.11011413
0.6374234 0.42907476 0.11046263
0.66358 0.42845434 0.10911842
0.69394916 0.423606 0.11106005
0.71899515 0.42266774 0.105507046
0.74276966 0.4221201 0.10340074
0.7623698 0.42261413 0.10299862
0.7865502 0.42140776 0.09889706
0.8030293 0.4240541 0.09349341
0.81737125 0.42365196 0.0897212
0.83647746 0.4259421 0.09252068
0.84801626 0.42305455 0.09407935
0.8587278 0.4235141 0.08990885
0.8682598 0.41973037 0.08946079
0.17843138 0.44509804 0.10392157
0.19129902 0.4504289 0.10392157
0.20379901 0.44546568 0.10502451
0.21838236 0.44871324 0.10925245
0.24117647 0.45367646 0.110049024
0.2620098 0.45857844 0.115563735
0.28553924 0.46053922 0.119852945
0.31599265 0.46139705 0.1189951
0.33774513 0.46274507 0.12205882
0.36102942 0.46770835 0.12352942
0.39044118 0.46678922 0.13088235
0.4143995 0.46482843 0.13155638
0.4389706 0.46887255 0.13602942
0.4689951 0.47015935 0.12787992
0.49411768 0.46801472 0.12941177
0.52205884 0.4682598 0.12781863
0.54509807 0.4666667 0.1254902
0.5681373 0.46274507 0.12781863
0.59338236 0.46544117 0.12806374
0.6249387 0.4651348 0.12591912
0.6502451 0.4612745 0.1254902
0.6681373 0.46648285 0.11979167
0.69203436 0.45894608 0.11789216
0.722978 0.46047795 0.120036766
0.7455883 0.46029413 0.11176471
0.76825976 0.4620098 0.11109069
0.7905637 0.45943627 0.108946085
0.8075367 0.45857844 0.104718134
0.825 0.45612746 0.10563725
0.8420956 0.45827204 0.103615195
0.8582108 0.4620098 0.1067402
0.86789215 0.4574142 0.102512255
0.87647057 0.45490193 0.10392157
0.19754902 0.48296568 0.11053921
0.20475261 0.48485756 0.11098729
0.22211245 0.48107383 0.10894608
0.23452052 0.48582643 0.11233916
0.25891545 0.49313727 0.112591915
0.27902114 0.49463084 0.11580882
0.3063343 0.4954274 0.12087163
0.33298102 0.49730396 0.12205117
0.35248163 0.4957108 0.12524511
0.37844285 0.5046569 0.1262255
0.40615043 0.50500154 0.13070619
0.43272057 0.5026463 0.13183977
0.45523897 0.5048101 0.1351103
0.4838427 0.50483686 0.13674557
0.5079887 0.5065028 0.13776043
0.5355737 0.5064951 0.13785234
0.55643386 0.50257355 0.13952206
0.580059 0.49676013 0.14126456
0.60355395 0.49975494 0.14132202
0.6348422 0.50098044 0.13990504
0.658701 0.49754903 0.13615197
0.67706037 0.50014555 0.13257506
0.69433975 0.5008349 0.13520221
0.7249962 0.49865198 0.12867264
0.7478248 0.49963236 0.121875
0.771021 0.5006779 0.123766854
0.7939951 0.49775583 0.121032484
0.81051624 0.49572226 0.11936275
0.83146447 0.49558827 0.11951593
0.85004216 0.49591377 0.11842065
0.8650582 0.49805456 0.11692709
0.8723997 0.49931833 0.11889937
0.8846814 0.4947304 0.12071079
0.2120098 0.5156863 0.11372549
0.21751685 0.5137332 0.11497396
0.235095 0.50929844 0.11492035
0.24988513 0.5128447 0.11407016
0.26973042 0.52138484 0.11752451
0.29228708 0.52349114 0.122962624
0.3194087 0.5235754 0.12881434
0.34375003 0.5308671 0.13138787
0.3683211 0.53112745 0.1358456
0.39391083 0.53552395 0.1375
0.42466298 0.53399205 0.1375
0.4439951 0.5275812 0.13636643
0.46724877 0.5390625 0.14745712
0.5007583 0.53734684 0.15078126
0.520864 0.5355086 0.14787072
0.5440947 0.53701746 0.15173101
0.56556374 0.5325981 0.15183824
0.5884881 0.52817863 0.1504902
0.61001843 0.529519 0.14947917
0.63713235 0.5341146 0.1492111
0.6626532 0.5295037 0.15055147
0.6844363 0.5234528 0.14812347
0.70105696 0.5298254 0.14992341
0.7279412 0.5282552 0.14061734
0.7517157 0.5269608 0.1382353
0.7714844 0.52855396 0.14142157
0.79491425 0.5271599 0.13681068
0.81437653 0.52802545 0.13541667
0.83455884 0.52484685 0.13526349
0.8531863 0.5232843 0.13627452
0.87034315 0.5276655 0.1352788
0.87683827 0.5297871 0.13127299
0.8835784 0.52475494 0.13088235
0.22794117 0.5469363 0.119852945
0.23333335 0.5401578 0.1174441
0.24934132 0.54330575 0.124188125
0.26472506 0.5487669 0.12598039
0.28841913 0.5506434 0.12809436
0.306093 0.55418587 0.13305378
0.3318551 0.5609146 0.13785233
0.3594133 0.56163836 0.1377451
0.38195467 0.5620711 0.14227942
0.40823376 0.5633464 0.14682521
0.43592218 0.5626762 0.14730392
0.45973498 0.5612056 0.15268077
0.4768229 0.5693168 0.15649511
0.50979626 0.5622396 0.15955117
0.5329657 0.56499696 0.15970436
0.5535157 0.5659697 0.16547948
0.5732231 0.5641544 0.16256128
0.59474957 0.5605201 0.15964308
0.61595434 0.5638711 0.1615426
0.6408663 0.56616884 0.16433823
0.66947 0.55968136 0.16862744
0.69178927 0.5600069 0.16828662
0.7124311 0.558701 0.1645144
0.7348154 0.55808824 0.15415518
0.755239 0.55499387 0.15462624
0.7746055 0.55639553 0.15656787
0.79977787 0.5582185 0.15477176
0.8194317 0.55707335 0.15278417
0.8361673 0.5583946 0.15387562
0.849146 0.555645 0.14988895
0.8679305 0.56029415 0.14979321
0.87500006 0.5589882 0.14881282
0.88848037 0.5639706 0.14865197
0.24509804 0.5735294 0.12843138
0.2535999 0.5760264 0.13178615
0.26681986 0.57665443 0.13523285
0.28480396 0.57841605 0.13573836
0.31029412 0.5808824 0.14203432
0.32622552 0.58295035 0.14042586
0.35196078 0.5858456 0.14289215
0.37576592 0.58563113 0.14878982
0.3997549 0.5882353 0.1517157
0.41986826 0.58632046 0.14947918
0.45104167 0.59221816 0.16188726
0.47694543 0.58935356 0.16040134
0.49515933 0.59344363 0.16464461
0.52400434 0.59162074 0.17032783
0.5469057 0.59169734 0.16887255
0.56911767 0.5936887 0.17196691
0.5882354 0.59117645 0.17156863
0.607644 0.59448534 0.17320772
0.6300552 0.59405637 0.17264093
0.65295655 0.5904565 0.17463236
0.6723652 0.58884805 0.17291668
0.7001532 0.5858762 0.17919731
0.71838236 0.5852941 0.17496936
0.7403646 0.58521754 0.16822916
0.76274514 0.58480394 0.17500001
0.7799939 0.58497244 0.17541361
0.80422795 0.5852941 0.16930148
0.8217372 0.5850337 0.16894914
0.8414216 0.5854167 0.1728554
0.860432 0.58507967 0.17098652
0.8694853 0.58281255 0.17000613
0.87725186 0.5850184 0.16698836
0.890196 0.5862745 0.17009804
0.25465688 0.5954657 0.13700981
0.26775813 0.59903115 0.14129902
0.282644 0.59630054 0.1455423
0.29592142 0.60155874 0.14756435
0.3255668 0.6085325 0.14647672
0.34387258 0.61096436 0.1523361
0.36960787 0.61102945 0.1564415
0.39526275 0.61102945 0.15665595
0.4124081 0.61112136 0.15958947
0.43188187 0.6174594 0.16364124
0.46077666 0.61885726 0.16823684
0.49031863 0.6189913 0.16838619
0.509421 0.62599576 0.17090994
0.54105395 0.6234758 0.1877183
0.5613511 0.6264247 0.18647367
0.58021986 0.6280369 0.18548945
0.60159314 0.6245098 0.1877451
0.6207108 0.61894536 0.18556221
0.6380362 0.61891085 0.18659621
0.6613014 0.61877686 0.18190488
0.6834712 0.6154259 0.18348652
0.70145905 0.611152 0.19522443
0.7150736 0.61839 0.1876149
0.7383196 0.61482847 0.18445542
0.7684743 0.61482847 0.18694854
0.7856235 0.61482847 0.18280102
0.8029948 0.6131664 0.18175553
0.8262102 0.61102945 0.18590686
0.8488052 0.60865504 0.19019607
0.86059284 0.609961 0.18884805
0.8722274 0.61092985 0.19083178
0.8814951 0.6144608 0.18799019
0.890196 0.61102945 0.1877451
0.26813728 0.61372554 0.14240196
0.2839384 0.61715686 0.15012255
0.2943168 0.61789215 0.1530331
0.3100184 0.6212163 0.15231311
0.3324755 0.6242341 0.1603554
0.35541517 0.62706804 0.16345742
0.3806373 0.627451 0.16176471
0.39983153 0.62916666 0.16691177
