assets/luts/LUTs/LEICA/LEICA NAT.cube
#Generated by Pennl1
#闲鱼号：LOOK胶片感
#公众号：胶片感
TITLE LEICA NAT
LUT_3D_SIZE 5
0.007843138 0.0 0.007843138
0.23039216 0.0627451 0.07254902
0.5 0.11764707 0.1254902
0.74705887 0.18235293 0.19411764
1.0 0.24313726 0.2509804
0.064705886 0.22549021 0.06666667
0.22745098 0.23210785 0.063725494
0.49313727 0.24754903 0.112745106
0.7438725 0.28235298 0.18137255
0.99215686 0.3254902 0.24019605
0.1137255 0.4882353 0.11176471
0.25196078 0.49411768 0.11421569
0.49607843 0.49411768 0.11470589
0.7382353 0.5151961 0.18235293
0.99803925 0.5411765 0.24705882
0.18627451 0.7294117 0.18627451
0.28039217 0.72916675 0.18529414
0.5151961 0.73382354 0.18578433
0.7401961 0.73676467 0.18382353
0.9960785 0.7519608 0.2519608
0.24705882 0.9960785 0.24705882
0.3254902 0.9960785 0.24509804
0.5392157 0.99411774 0.2392157
0.75392157 0.9960785 0.24117646
0.9960785 1.0 0.24313726
0.06960785 0.0627451 0.23921567
0.23921567 0.06348039 0.24215688
0.50441176 0.112745106 0.2617647
0.74240196 0.18431373 0.29387257
0.99705887 0.24411765 0.33823532
0.07034314 0.23088235 0.23063727
0.22352941 0.22867648 0.22071078
0.48406863 0.2627451 0.26225492
0.73406863 0.2984069 0.29724264
0.9950981 0.34852943 0.35612747
0.11372549 0.48774514 0.24950981
0.26409316 0.47977942 0.26421568
0.4887255 0.48553923 0.27009806
0.7392158 0.5207108 0.30845588
0.9975491 0.55049026 0.35980392
0.18848039 0.72843134 0.2857843
0.30588236 0.7289216 0.30710787
0.5227941 0.73014706 0.30955884
0.73988974 0.7290442 0.3137255
0.99558836 0.759804 0.3620098
0.24019605 0.9960785 0.32941177
0.34950984 0.9992648 0.34926474
0.54852945 0.9975491 0.34460786
0.7595588 0.9960785 0.34754905
0.9901961 0.99705887 0.35
0.12352942 0.10980392 0.49803925
0.25490195 0.11764707 0.50686276
0.5058824 0.12254902 0.5098039
0.7441177 0.18382353 0.5254902
1.0 0.24509804 0.5529412
0.11617648 0.24852943 0.49460787
0.26066178 0.26299024 0.4814951
0.48602945 0.26078433 0.48014703
0.7367647 0.30257356 0.513603
0.9960785 0.35147062 0.552451
0.11960785 0.49215683 0.49901962
0.2654412 0.48529413 0.49166667
0.49411765 0.49215683 0.49460787
0.72990197 0.534804 0.5409314
0.99215686 0.57843137 0.582353
0.19117647 0.7294117 0.52205884
0.30392158 0.7313726 0.525
0.5387255 0.72573537 0.5411765
0.73235303 0.7279411 0.54718137
0.99411774 0.7686274 0.5916667
0.24509804 0.99803925 0.5431373
0.34901962 0.9950981 0.54656863
0.5833334 0.9960785 0.5794118
0.7735294 0.9960785 0.57892156
0.99215686 0.9960785 0.582353
0.19313723 0.18235293 0.74607843
0.29093137 0.18308826 0.74926484
0.5245098 0.18578433 0.7480392
0.7492647 0.18480392 0.7517157
0.9960785 0.24509804 0.77156866
0.17965686 0.2764706 0.7352941
0.3 0.29950982 0.73253685
0.5165441 0.30134803 0.73333323
0.7312499 0.30238974 0.7297794
0.9950981 0.35269606 0.76176476
0.18039216 0.5088236 0.7436274
0.30955884 0.5205883 0.7427696
0.53676474 0.53431374 0.7276961
0.7291666 0.53553927 0.7294117
0.99509805 0.582353 0.7803922
0.18578433 0.73357844 0.7409314
0.30857843 0.7322304 0.7476716
0.5433824 0.72745097 0.7406863
0.7422794 0.73884803 0.74914217
0.9960785 0.78627455 0.8031863
0.24313726 0.9990196 0.7607843
0.34632355 0.99803925 0.7583334
0.57990193 0.9975491 0.7735294
0.79068625 0.99828434 0.78921574
0.9960785 0.9960785 0.78921574
0.2509804 0.24705882 1.0
0.32941177 0.24607842 1.0
0.5431373 0.24509804 0.99803925
0.75490195 0.24411765 0.99705887
0.99215686 0.24313726 0.9960785
0.24313726 0.3254902 0.99411774
0.34926474 0.34779412 0.9914216
0.55441177 0.3480392 0.99313724
0.76519614 0.34656867 0.9946079
0.99313724 0.35294122 0.99705887
0.24313726 0.5372549 0.99411774
0.34950984 0.55098045 0.9946079
0.5852941 0.57843137 0.99411774
0.7764706 0.5808824 0.99558836
0.99411774 0.582353 0.99215686
0.24411765 0.7441177 0.9960785
0.34975493 0.7556373 0.9995099
0.5857843 0.7705883 0.9975491
0.7943628 0.7877451 0.99803925
0.99215686 0.78529423 0.99803925
0.23921567 1.0 0.99215686
0.3480392 0.9950981 0.99215686
0.5803922 0.99803925 0.9882353
0.7931373 0.9960785 0.99215686
0.9960785 0.9960785 0.99215686
