assets/luts/LUTs/LEICA/LEICA BW HC.cube
#Generated by Pennl1
#闲鱼号：LOOK胶片感
#公众号：胶片感
TITLE LEICA BW HC
LUT_3D_SIZE 5
0.0 0.0 0.0
0.09509804 0.09509804 0.09509804
0.25686276 0.25686276 0.25686276
0.4362745 0.4362745 0.4362745
0.6039216 0.6039216 0.6039216
0.1627451 0.1627451 0.1627451
0.2129902 0.2129902 0.2129902
0.33676472 0.33676472 0.33676472
0.48235294 0.48235294 0.48235294
0.6333333 0.6333333 0.6333333
0.42745098 0.42745098 0.42745098
0.45294118 0.45294118 0.45294118
0.5156863 0.5156863 0.5156863
0.6186275 0.6186275 0.6186275
0.74509805 0.74509805 0.74509805
0.68333334 0.68333334 0.68333334
0.6958333 0.6958333 0.6958333
0.7397059 0.7397059 0.7397059
0.8125 0.8125 0.8125
0.88725495 0.88725495 0.88725495
0.9137255 0.9137255 0.9137255
0.92156863 0.92156863 0.92156863
0.9333334 0.9333334 0.9333334
0.9617647 0.9617647 0.9617647
0.9960785 0.9960785 0.9960785
0.0 0.0 0.0
0.09877451 0.09877451 0.09877451
0.25490198 0.25490198 0.25490198
0.43578428 0.43578428 0.43578428
0.6 0.6 0.6
0.17328434 0.17328434 0.17328434
0.21231619 0.21231619 0.21231619
0.33933827 0.33933827 0.33933827
0.48014703 0.48014703 0.48014703
0.63774514 0.63774514 0.63774514
0.42941177 0.42941177 0.42941177
0.45428926 0.45428926 0.45428926
0.5171569 0.5171569 0.5171569
0.6219363 0.6219363 0.6219363
0.74509805 0.74509805 0.74509805
0.67965686 0.67965686 0.67965686
0.69797796 0.69797796 0.69797796
0.7401961 0.7401961 0.7401961
0.8130515 0.8130515 0.8130515
0.890196 0.890196 0.890196
0.917647 0.917647 0.917647
0.92156863 0.92156863 0.92156863
0.9338236 0.9338236 0.9338236
0.9617647 0.9617647 0.9617647
0.9960785 0.9960785 0.9960785
0.0 0.0 0.0
0.09754903 0.09754903 0.09754903
0.25588238 0.25588238 0.25588238
0.43627456 0.43627456 0.43627456
0.6039216 0.6039216 0.6039216
0.16960785 0.16960785 0.16960785
0.21519607 0.21519607 0.21519607
0.3375 0.3375 0.3375
0.4822304 0.4822304 0.4822304
0.6387255 0.6387255 0.6387255
0.43039215 0.43039215 0.43039215
0.45441175 0.45441175 0.45441175
0.51617646 0.51617646 0.51617646
0.6196079 0.6196079 0.6196079
0.74509805 0.74509805 0.74509805
0.6813725 0.6813725 0.6813725
0.6958333 0.6958333 0.6958333
0.7409314 0.7409314 0.7409314
0.8133579 0.8133579 0.8133579
0.8892157 0.8892157 0.8892157
0.91568625 0.91568625 0.91568625
0.9205883 0.9205883 0.9205883
0.93529415 0.93529415 0.93529415
0.9617647 0.9617647 0.9617647
0.9960785 0.9960785 0.9960785
0.0 0.0 0.0
0.09681372 0.09681372 0.09681372
0.25539213 0.25539213 0.25539213
0.4370098 0.4370098 0.4370098
0.6039216 0.6039216 0.6039216
0.16960785 0.16960785 0.16960785
0.21170343 0.21170343 0.21170343
0.33578432 0.33578432 0.33578432
0.48014703 0.48014703 0.48014703
0.63504905 0.63504905 0.63504905
0.4284314 0.4284314 0.4284314
0.45575982 0.45575982 0.45575982
0.5188726 0.5188726 0.5188726
0.6186275 0.6186275 0.6186275
0.7480392 0.7480392 0.7480392
0.68235296 0.68235296 0.68235296
0.6974265 0.6974265 0.6974265
0.7409314 0.7409314 0.7409314
0.8126838 0.8126838 0.8126838
0.8882353 0.8882353 0.8882353
0.9137255 0.9137255 0.9137255
0.9205883 0.9205883 0.9205883
0.93529415 0.93529415 0.93529415
0.9617647 0.9617647 0.9617647
0.9960785 0.9960785 0.9960785
0.0 0.0 0.0
0.09803922 0.09803922 0.09803922
0.2529412 0.2529412 0.2529412
0.4352941 0.4352941 0.4352941
0.6 0.6 0.6
0.16862746 0.16862746 0.16862746
0.21372549 0.21372549 0.21372549
0.33578432 0.33578432 0.33578432
0.4828431 0.4828431 0.4828431
0.63725495 0.63725495 0.63725495
0.42941177 0.42941177 0.42941177
0.45441175 0.45441175 0.45441175
0.5156863 0.5156863 0.5156863
0.6186275 0.6186275 0.6186275
0.74705887 0.74705887 0.74705887
0.67941177 0.67941177 0.67941177
0.6982844 0.6982844 0.6982844
0.7406863 0.7406863 0.7406863
0.81470585 0.81470585 0.81470585
0.88725495 0.88725495 0.88725495
0.9137255 0.9137255 0.9137255
0.9205883 0.9205883 0.9205883
0.93529415 0.93529415 0.93529415
0.9617647 0.9617647 0.9617647
0.9960785 0.9960785 0.9960785
