assets/luts/LUTs/LEICA/LEICA BW HC.cube
#Generated by Pennl1
#闲鱼号：LOOK胶片感
#公众号：胶片感
TITLE LEICA BW HC
LUT_3D_SIZE 9
0.0 0.0 0.0
0.030882355 0.030882355 0.030882355
0.09509804 0.09509804 0.09509804
0.1637255 0.1637255 0.1637255
0.25686276 0.25686276 0.25686276
0.3504902 0.3504902 0.3504902
0.4362745 0.4362745 0.4362745
0.52205884 0.52205884 0.52205884
0.6039216 0.6039216 0.6039216
0.07254902 0.07254902 0.07254902
0.089705884 0.089705884 0.089705884
0.12696078 0.12696078 0.12696078
0.19148284 0.19148284 0.19148284
0.2776961 0.2776961 0.2776961
0.36678922 0.36678922 0.36678922
0.45232844 0.45232844 0.45232844
0.534375 0.534375 0.534375
0.6132353 0.6132353 0.6132353
0.1627451 0.1627451 0.1627451
0.18137255 0.18137255 0.18137255
0.2129902 0.2129902 0.2129902
0.26691177 0.26691177 0.26691177
0.33676472 0.33676472 0.33676472
0.41200984 0.41200984 0.41200984
0.48235294 0.48235294 0.48235294
0.55625004 0.55625004 0.55625004
0.6333333 0.6333333 0.6333333
0.29460785 0.29460785 0.29460785
0.30814952 0.30814952 0.30814952
0.33100492 0.33100492 0.33100492
0.36917892 0.36917892 0.36917892
0.41666672 0.41666672 0.41666672
0.47585782 0.47585782 0.47585782
0.54215693 0.54215693 0.54215693
0.60998774 0.60998774 0.60998774
0.68039215 0.68039215 0.68039215
0.42745098 0.42745098 0.42745098
0.43872547 0.43872547 0.43872547
0.45294118 0.45294118 0.45294118
0.47965688 0.47965688 0.47965688
0.5156863 0.5156863 0.5156863
0.5615196 0.5615196 0.5615196
0.6186275 0.6186275 0.6186275
0.67990196 0.67990196 0.67990196
0.74509805 0.74509805 0.74509805
0.5612745 0.5612745 0.5612745
0.56868875 0.56868875 0.56868875
0.579902 0.579902 0.579902
0.60134804 0.60134804 0.60134804
0.6284314 0.6284314 0.6284314
0.6670956 0.6670956 0.6670956
0.7142157 0.7142157 0.7142157
0.76960784 0.76960784 0.76960784
0.82549024 0.82549024 0.82549024
0.68333334 0.68333334 0.68333334
0.6862745 0.6862745 0.6862745
0.6958333 0.6958333 0.6958333
0.7166667 0.7166667 0.7166667
0.7397059 0.7397059 0.7397059
0.7708334 0.7708334 0.7708334
0.8125 0.8125 0.8125
0.8537991 0.8537991 0.8537991
0.88725495 0.88725495 0.88725495
0.81960785 0.81960785 0.81960785
0.82591915 0.82591915 0.82591915
0.8307598 0.8307598 0.8307598
0.8430147 0.8430147 0.8430147
0.85857844 0.85857844 0.85857844
0.8820466 0.8820466 0.8820466
0.9026961 0.9026961 0.9026961
0.92689955 0.92689955 0.92689955
0.95392156 0.95392156 0.95392156
0.9137255 0.9137255 0.9137255
0.91519606 0.91519606 0.91519606
0.92156863 0.92156863 0.92156863
0.9220588 0.9220588 0.9220588
0.9333334 0.9333334 0.9333334
0.952451 0.952451 0.952451
0.9617647 0.9617647 0.9617647
0.97892153 0.97892153 0.97892153
0.9960785 0.9960785 0.9960785
0.0 0.0 0.0
0.034191176 0.034191176 0.034191176
0.09681372 0.09681372 0.09681372
0.1632353 0.1632353 0.1632353
0.25686276 0.25686276 0.25686276
0.34920347 0.34920347 0.34920347
0.4379902 0.4379902 0.4379902
0.5196079 0.5196079 0.5196079
0.6039216 0.6039216 0.6039216
0.07401961 0.07401961 0.07401961
0.091237746 0.091237746 0.091237746
0.1259038 0.1259038 0.1259038
0.19216451 0.19216451 0.19216451
0.28002453 0.28002453 0.28002453
0.36727172 0.36727172 0.36727172
0.4508272 0.4508272 0.4508272
0.5313113 0.5313113 0.5313113
0.6107843 0.6107843 0.6107843
0.16593137 0.16593137 0.16593137
0.18045343 0.18045343 0.18045343
0.21522671 0.21522671 0.21522671
0.26878065 0.26878065 0.26878065
0.33780637 0.33780637 0.33780637
0.40850183 0.40850183 0.40850183
0.48020834 0.48020834 0.48020834
0.56096816 0.56096816 0.56096816
0.641299 0.641299 0.641299
0.2933211 0.2933211 0.2933211
0.30722275 0.30722275 0.30722275
0.33100492 0.33100492 0.33100492
0.36930147 0.36930147 0.36930147
0.41672793 0.41672793 0.41672793
0.47350645 0.47350645 0.47350645
0.540671 0.540671 0.540671
0.6104779 0.6104779 0.6104779
0.68039215 0.68039215 0.68039215
0.429902 0.429902 0.429902
0.43792897 0.43792897 0.43792897
0.45373777 0.45373777 0.45373777
0.47879902 0.47879902 0.47879902
0.51531863 0.51531863 0.51531863
0.5633885 0.5633885 0.5633885
0.61917895 0.61917895 0.61917895
0.6803615 0.6803615 0.6803615
0.74656856 0.74656856 0.74656856
0.5551471 0.5551471 0.5551471
0.56752455 0.56752455 0.56752455
0.5817096 0.5817096 0.5817096
0.59773284 0.59773284 0.59773284
0.6304534 0.6304534 0.6304534
0.66721815 0.66721815 0.66721815
0.7164062 0.7164062 0.7164062
0.7719439 0.7719439 0.7719439
0.8279412 0.8279412 0.8279412
0.67990196 0.67990196 0.67990196
0.6876073 0.6876073 0.6876073
0.6976103 0.6976103 0.6976103
0.716682 0.716682 0.716682
0.73988974 0.73988974 0.73988974
0.7744332 0.7744332 0.7744332
0.8155331 0.8155331 0.8155331
0.85496324 0.85496324 0.85496324
0.890196 0.890196 0.890196
0.8226103 0.8226103 0.8226103
0.8252069 0.8252069 0.8252069
0.8336704 0.8336704 0.8336704
0.8421033 0.8421033 0.8421033
0.8581189 0.8581189 0.8581189
0.8806909 0.8806909 0.8806909
0.90485597 0.90485597 0.90485597
0.9263251 0.9263251 0.9263251
0.95091915 0.95091915 0.95091915
0.9147059 0.9147059 0.9147059
0.917647 0.917647 0.917647
0.92095584 0.92095584 0.92095584
0.92598045 0.92598045 0.92598045
0.93529415 0.93529415 0.93529415
0.9521446 0.9521446 0.9521446
0.9628676 0.9628676 0.9628676
0.97892153 0.97892153 0.97892153
0.9960785 0.9960785 0.9960785
0.0 0.0 0.0
0.03259804 0.03259804 0.03259804
0.09877451 0.09877451 0.09877451
0.1629902 0.1629902 0.1629902
0.25490198 0.25490198 0.25490198
0.35183826 0.35183826 0.35183826
0.43578428 0.43578428 0.43578428
0.5214461 0.5214461 0.5214461
0.6 0.6 0.6
0.070710786 0.070710786 0.070710786
0.092156865 0.092156865 0.092156865
0.12677696 0.12677696 0.12677696
0.19782476 0.19782476 0.19782476
0.28143382 0.28143382 0.28143382
0.37189034 0.37189034 0.37189034
0.4527267 0.4527267 0.4527267
0.53282785 0.53282785 0.53282785
0.6117647 0.6117647 0.6117647
0.17328434 0.17328434 0.17328434
0.18069854 0.18069854 0.18069854
0.21231619 0.21231619 0.21231619
0.2698836 0.2698836 0.2698836
0.33933827 0.33933827 0.33933827
0.4071691 0.4071691 0.4071691
0.48014703 0.48014703 0.48014703
0.5579964 0.5579964 0.5579964
0.63774514 0.63774514 0.63774514
0.29227942 0.29227942 0.29227942
0.30389094 0.30389094 0.30389094
0.33125 0.33125 0.33125
0.36937806 0.36937806 0.36937806
0.41899508 0.41899508 0.41899508
0.47660843 0.47660843 0.47660843
0.539614 0.539614 0.539614
0.61158085 0.61158085 0.61158085
0.6838235 0.6838235 0.6838235
0.42941177 0.42941177 0.42941177
0.4366421 0.4366421 0.4366421
0.45428926 0.45428926 0.45428926
0.48002455 0.48002455 0.48002455
0.5171569 0.5171569 0.5171569
0.56470597 0.56470597 0.56470597
0.6219363 0.6219363 0.6219363
0.6822304 0.6822304 0.6822304
0.74509805 0.74509805 0.74509805
0.5552696 0.5552696 0.5552696
0.5660233 0.5660233 0.5660233
0.57800245 0.57800245 0.57800245
0.6002911 0.6002911 0.6002911
0.62873775 0.62873775 0.62873775
0.6668658 0.6668658 0.6668658
0.71390927 0.71390927 0.71390927
0.768367 0.768367 0.768367
0.82549024 0.82549024 0.82549024
0.67965686 0.67965686 0.67965686
0.6845282 0.6845282 0.6845282
0.69797796 0.69797796 0.69797796
0.7151043 0.7151043 0.7151043
0.7401961 0.7401961 0.7401961
0.7752758 0.7752758 0.7752758
0.8130515 0.8130515 0.8130515
0.8534926 0.8534926 0.8534926
0.890196 0.890196 0.890196
0.8210784 0.8210784 0.8210784
0.8237899 0.8237899 0.8237899
0.83094364 0.83094364 0.83094364
0.84486824 0.84486824 0.84486824
0.860049 0.860049 0.860049
0.87924325 0.87924325 0.87924325
0.90407467 0.90407467 0.90407467
0.92768073 0.92768073 0.92768073
0.95392156 0.95392156 0.95392156
0.917647 0.917647 0.917647
0.9147059 0.9147059 0.9147059
0.92156863 0.92156863 0.92156863
0.92598045 0.92598045 0.92598045
0.9338236 0.9338236 0.9338236
0.952451 0.952451 0.952451
0.9617647 0.9617647 0.9617647
0.9770833 0.9770833 0.9770833
0.9960785 0.9960785 0.9960785
0.0 0.0 0.0
0.03897059 0.03897059 0.03897059
0.09779412 0.09779412 0.09779412
0.16023284 0.16023284 0.16023284
0.25686276 0.25686276 0.25686276
0.35091916 0.35091916 0.35091916
0.44178924 0.44178924 0.44178924
0.5235294 0.5235294 0.5235294
0.6034314 0.6034314 0.6034314
0.072426476 0.072426476 0.072426476
0.090625 0.090625 0.090625
0.12576593 0.12576593 0.12576593
0.19125308 0.19125308 0.19125308
0.28039217 0.28039217 0.28039217
0.36703432 0.36703432 0.36703432
0.44797796 0.44797796 0.44797796
0.53081346 0.53081346 0.53081346
0.6117647 0.6117647 0.6117647
0.17389706 0.17389706 0.17389706
0.18169424 0.18169424 0.18169424
0.21124387 0.21124387 0.21124387
0.26829046 0.26829046 0.26829046
0.3380515 0.3380515 0.3380515
0.41262257 0.41262257 0.41262257
0.48219976 0.48219976 0.48219976
0.55736834 0.55736834 0.55736834
0.6381128 0.6381128 0.6381128
0.2938113 0.2938113 0.2938113
0.30716914 0.30716914 0.30716914
0.32755822 0.32755822 0.32755822
0.36911765 0.36911765 0.36911765
0.41841298 0.41841298 0.41841298
0.4761795 0.4761795 0.4761795
0.5394915 0.5394915 0.5394915
0.61209404 0.61209404 0.61209404
0.67996323 0.67996323 0.67996323
0.4296569 0.4296569 0.4296569
0.4383578 0.4383578 0.4383578
0.45061272 0.45061272 0.45061272
0.48134193 0.48134193 0.48134193
0.5176471 0.5176471 0.5176471
0.56390935 0.56390935 0.56390935
0.6188113 0.6188113 0.6188113
0.6812194 0.6812194 0.6812194
0.74730396 0.74730396 0.74730396
0.5612745 0.5612745 0.5612745
0.5647901 0.5647901 0.5647901
0.57927394 0.57927394 0.57927394
0.59797794 0.59797794 0.59797794
0.6286152 0.6286152 0.6286152
0.6666131 0.6666131 0.6666131
0.7159313 0.7159313 0.7159313
0.7678692 0.7678692 0.7678692
0.82205874 0.82205874 0.82205874
0.6824755 0.6824755 0.6824755
0.68678004 0.68678004 0.68678004
0.6964768 0.6964768 0.6964768
0.7169424 0.7169424 0.7169424
0.7400123 0.7400123 0.7400123
0.77401954 0.77401954 0.77401954
0.8131128 0.8131128 0.8131128
0.85556066 0.85556066 0.85556066
0.890196 0.890196 0.890196
0.8229167 0.8229167 0.8229167
0.8249005 0.8249005 0.8249005
0.8290594 0.8290594 0.8290594
0.84440094 0.84440094 0.84440094
0.8587316 0.8587316 0.8587316
0.8797181 0.8797181 0.8797181
0.90275735 0.90275735 0.90275735
0.92696846 0.92696846 0.92696846
0.95263475 0.95263475 0.95263475
0.9171568 0.9171568 0.9171568
0.9138481 0.9138481 0.9138481
0.92071086 0.92071086 0.92071086
0.92598045 0.92598045 0.92598045
0.9333334 0.9333334 0.9333334
0.951103 0.951103 0.951103
0.9647059 0.9647059 0.9647059
0.97677696 0.97677696 0.97677696
0.9960785 0.9960785 0.9960785
0.0 0.0 0.0
0.03406863 0.03406863 0.03406863
0.09754903 0.09754903 0.09754903
0.164951 0.164951 0.164951
0.25588238 0.25588238 0.25588238
0.35 0.35 0.35
0.43627456 0.43627456 0.43627456
0.5196079 0.5196079 0.5196079
0.6039216 0.6039216 0.6039216
0.071078435 0.071078435 0.071078435
0.091421574 0.091421574 0.091421574
0.12677696 0.12677696 0.12677696
0.19077821 0.19077821 0.19077821
0.28137255 0.28137255 0.28137255
0.36550248 0.36550248 0.36550248
0.45098042 0.45098042 0.45098042
0.53382355 0.53382355 0.53382355
0.610049 0.610049 0.610049
0.16960785 0.16960785 0.16960785
0.18106619 0.18106619 0.18106619
0.21519607 0.21519607 0.21519607
0.26887256 0.26887256 0.26887256
0.3375 0.3375 0.3375
0.40839458 0.40839458 0.40839458
0.4822304 0.4822304 0.4822304
0.55600494 0.55600494 0.55600494
0.6387255 0.6387255 0.6387255
0.2911765 0.2911765 0.2911765
0.3073836 0.3073836 0.3073836
0.3315564 0.3315564 0.3315564
0.36890322 0.36890322 0.36890322
0.4197304 0.4197304 0.4197304
0.4757047 0.4757047 0.4757047
0.54270834 0.54270834 0.54270834
0.61176467 0.61176467 0.61176467
0.68014705 0.68014705 0.68014705
0.43039215 0.43039215 0.43039215
0.4377451 0.4377451 0.4377451
0.45441175 0.45441175 0.45441175
0.48039216 0.48039216 0.48039216
0.51617646 0.51617646 0.51617646
0.5634804 0.5634804 0.5634804
0.6196079 0.6196079 0.6196079
0.68014705 0.68014705 0.68014705
0.74509805 0.74509805 0.74509805
0.5627451 0.5627451 0.5627451
0.56669736 0.56669736 0.56669736
0.5781863 0.5781863 0.5781863
0.5962622 0.5962622 0.5962622
0.6295343 0.6295343 0.6295343
0.6674939 0.6674939 0.6674939
0.71446085 0.71446085 0.71446085
0.76945466 0.76945466 0.76945466
0.82549024 0.82549024 0.82549024
0.6813725 0.6813725 0.6813725
0.6889706 0.6889706 0.6889706
0.6958333 0.6958333 0.6958333
0.71862745 0.71862745 0.71862745
0.7409314 0.7409314 0.7409314
0.77549016 0.77549016 0.77549016
0.8133579 0.8133579 0.8133579
0.8544118 0.8544118 0.8544118
0.8892157 0.8892157 0.8892157
0.82426476 0.82426476 0.82426476
0.82518387 0.82518387 0.82518387
0.8303309 0.8303309 0.8303309
0.84381133 0.84381133 0.84381133
0.85919124 0.85919124 0.85919124
0.879902 0.879902 0.879902
0.9056372 0.9056372 0.9056372
0.92791057 0.92791057 0.92791057
0.95171565 0.95171565 0.95171565
0.91568625 0.91568625 0.91568625
0.9161764 0.9161764 0.9161764
0.9205883 0.9205883 0.9205883
0.9257353 0.9257353 0.9257353
0.93529415 0.93529415 0.93529415
0.9485294 0.9485294 0.9485294
0.9617647 0.9617647 0.9617647
0.97892153 0.97892153 0.97892153
0.9960785 0.9960785 0.9960785
0.0 0.0 0.0
0.034987748 0.034987748 0.034987748
0.096078426 0.096078426 0.096078426
0.16066176 0.16066176 0.16066176
0.25857845 0.25857845 0.25857845
0.35085788 0.35085788 0.35085788
0.43897063 0.43897063 0.43897063
0.52254903 0.52254903 0.52254903
0.6039216 0.6039216 0.6039216
0.07040442 0.07040442 0.07040442
0.089345895 0.089345895 0.089345895
0.1271293 0.1271293 0.1271293
0.19182749 0.19182749 0.19182749
0.27996325 0.27996325 0.27996325
0.36472118 0.36472118 0.36472118
0.44764096 0.44764096 0.44764096
0.53045344 0.53045344 0.53045344
0.6117647 0.6117647 0.6117647
0.16544119 0.16544119 0.16544119
0.17942709 0.17942709 0.17942709
0.21969976 0.21969976 0.21969976
0.26803005 0.26803005 0.26803005
0.33768383 0.33768383 0.33768383
0.40874696 0.40874696 0.40874696
0.48265934 0.48265934 0.48265934
0.55819553 0.55819553 0.55819553
0.63750005 0.63750005 0.63750005
0.29460785 0.29460785 0.29460785
0.3060662 0.3060662 0.3060662
0.32817096 0.32817096 0.32817096
0.36616886 0.36616886 0.36616886
0.41819853 0.41819853 0.41819853
0.47543657 0.47543657 0.47543657
0.54217225 0.54217225 0.54217225
0.6120328 0.6120328 0.6120328
0.68082106 0.68082106 0.68082106
0.42745098 0.42745098 0.42745098
0.43504897 0.43504897 0.43504897
0.45453432 0.45453432 0.45453432
0.4798407 0.4798407 0.4798407
0.5158088 0.5158088 0.5158088
0.5649817 0.5649817 0.5649817
0.61856616 0.61856616 0.61856616
0.6821078 0.6821078 0.6821078
0.7468138 0.7468138 0.7468138
0.5637868 0.5637868 0.5637868
0.56550246 0.56550246 0.56550246
0.58060664 0.58060664 0.58060664
0.5995405 0.5995405 0.5995405
0.6301777 0.6301777 0.6301777
0.6675245 0.6675245 0.6675245
0.71478254 0.71478254 0.71478254
0.77097887 0.77097887 0.77097887
0.8250613 0.8250613 0.8250613
0.68198526 0.68198526 0.68198526
0.6859222 0.6859222 0.6859222
0.69834566 0.69834566 0.69834566
0.7158547 0.7158547 0.7158547
0.74013484 0.74013484 0.74013484
0.7735294 0.7735294 0.7735294
0.81663597 0.81663597 0.81663597
0.853079 0.853079 0.853079
0.8903186 0.8903186 0.8903186
0.8199143 0.8199143 0.8199143
0.82640177 0.82640177 0.82640177
0.8307445 0.8307445 0.8307445
0.8417892 0.8417892 0.8417892
0.8587316 0.8587316 0.8587316
0.8814338 0.8814338 0.8814338
0.9055453 0.9055453 0.9055453
0.9282552 0.9282552 0.9282552
0.95263475 0.95263475 0.95263475
0.9137255 0.9137255 0.9137255
0.9155024 0.9155024 0.9155024
0.92071086 0.92071086 0.92071086
0.9255515 0.9255515 0.9255515
0.93529415 0.93529415 0.93529415
0.9520221 0.9520221 0.9520221
0.9621323 0.9621323 0.9621323
0.97677696 0.97677696 0.97677696
0.9960785 0.9960785 0.9960785
0.0 0.0 0.0
0.03296569 0.03296569 0.03296569
0.09681372 0.09681372 0.09681372
0.1632353 0.1632353 0.1632353
0.25539213 0.25539213 0.25539213
0.3504902 0.3504902 0.3504902
0.4370098 0.4370098 0.4370098
0.52316177 0.52316177 0.52316177
0.6039216 0.6039216 0.6039216
0.07254902 0.07254902 0.07254902
0.090257354 0.090257354 0.090257354
0.12668505 0.12668505 0.12668505
0.1917739 0.1917739 0.1917739
0.27904412 0.27904412 0.27904412
0.36879596 0.36879596 0.36879596
0.45162383 0.45162383 0.45162383
0.53380823 0.53380823 0.53380823
0.6117647 0.6117647 0.6117647
0.16960785 0.16960785 0.16960785
0.17864583 0.17864583 0.17864583
0.21170343 0.21170343 0.21170343
0.26966912 0.26966912 0.26966912
0.33578432 0.33578432 0.33578432
0.40949756 0.40949756 0.40949756
0.48014703 0.48014703 0.48014703
0.5586091 0.5586091 0.5586091
0.63504905 0.63504905 0.63504905
0.29375002 0.29375002 0.29375002
0.30185357 0.30185357 0.30185357
0.32950372 0.32950372 0.32950372
0.36934742 0.36934742 0.36934742
0.41776958 0.41776958 0.41776958
0.47726715 0.47726715 0.47726715
0.5395834 0.5395834 0.5395834
0.6112285 0.6112285 0.6112285
0.67977947 0.67977947 0.67977947
0.4284314 0.4284314 0.4284314
0.4396446 0.4396446 0.4396446
0.45575982 0.45575982 0.45575982
0.48082107 0.48082107 0.48082107
0.5188726 0.5188726 0.5188726
0.56323534 0.56323534 0.56323534
0.6186275 0.6186275 0.6186275
0.6826593 0.6826593 0.6826593
0.7480392 0.7480392 0.7480392
0.5638481 0.5638481 0.5638481
0.5674939 0.5674939 0.5674939
0.5827513 0.5827513 0.5827513
0.59839153 0.59839153 0.59839153
0.63125 0.63125 0.63125
0.6666054 0.6666054 0.6666054
0.7142157 0.7142157 0.7142157
0.7704198 0.7704198 0.7704198
0.82573533 0.82573533 0.82573533
0.68235296 0.68235296 0.68235296
0.6862745 0.6862745 0.6862745
0.6974265 0.6974265 0.6974265
0.7160846 0.7160846 0.7160846
0.7409314 0.7409314 0.7409314
0.7740502 0.7740502 0.7740502
0.8126838 0.8126838 0.8126838
0.8556066 0.8556066 0.8556066
0.8882353 0.8882353 0.8882353
0.8210784 0.8210784 0.8210784
0.82398903 0.82398903 0.82398903
0.8324142 0.8324142 0.8324142
0.8429841 0.8429841 0.8429841
0.86023283 0.86023283 0.86023283
0.8797181 0.8797181 0.8797181
0.90444237 0.90444237 0.90444237
0.9280025 0.9280025 0.9280025
0.95465684 0.95465684 0.95465684
0.9137255 0.9137255 0.9137255
0.91727936 0.91727936 0.91727936
0.9205883 0.9205883 0.9205883
0.92512256 0.92512256 0.92512256
0.93529415 0.93529415 0.93529415
0.9459559 0.9459559 0.9459559
0.9617647 0.9617647 0.9617647
0.97830886 0.97830886 0.97830886
0.9960785 0.9960785 0.9960785
0.0 0.0 0.0
0.036580883 0.036580883 0.036580883
0.097181365 0.097181365 0.097181365
0.16292892 0.16292892 0.16292892
0.25759804 0.25759804 0.25759804
0.3541054 0.3541054 0.3541054
0.44031864 0.44031864 0.44031864
0.5223653 0.5223653 0.5223653
0.6014706 0.6014706 0.6014706
0.07310049 0.07310049 0.07310049
0.08984375 0.08984375 0.08984375
0.12558211 0.12558211 0.12558211
0.19284621 0.19284621 0.19284621
0.27873775 0.27873775 0.27873775
0.37045804 0.37045804 0.37045804
0.44938728 0.44938728 0.44938728
0.53215384 0.53215384 0.53215384
0.61078435 0.61078435 0.61078435
0.17034315 0.17034315 0.17034315
0.17962623 0.17962623 0.17962623
0.2141544 0.2141544 0.2141544
0.2705423 0.2705423 0.2705423
0.33786768 0.33786768 0.33786768
0.41222426 0.41222426 0.41222426
0.48103556 0.48103556 0.48103556
0.5599112 0.5599112 0.5599112
0.6378677 0.6378677 0.6378677
0.29656863 0.29656863 0.29656863
0.3077972 0.3077972 0.3077972
0.32941177 0.32941177 0.32941177
0.36967677 0.36967677 0.36967677
0.41871932 0.41871932 0.41871932
0.47752756 0.47752756 0.47752756
0.5427543 0.5427543 0.5427543
0.6118413 0.6118413 0.6118413
0.6806986 0.6806986 0.6806986
0.43333334 0.43333334 0.43333334
0.4405331 0.4405331 0.4405331
0.453125 0.453125 0.453125
0.4789522 0.4789522 0.4789522
0.5160539 0.5160539 0.5160539
0.5648897 0.5648897 0.5648897
0.61715686 0.61715686 0.61715686
0.6811274 0.6811274 0.6811274
0.74754906 0.74754906 0.74754906
0.5640932 0.5640932 0.5640932
0.56870407 0.56870407 0.56870407
0.5782935 0.5782935 0.5782935
0.598943 0.598943 0.598943
0.6280944 0.6280944 0.6280944
0.6675246 0.6675246 0.6675246
0.71582407 0.71582407 0.71582407
0.77070314 0.77070314 0.77070314
0.82549024 0.82549024 0.82549024
0.6841912 0.6841912 0.6841912
0.6851563 0.6851563 0.6851563
0.69561887 0.69561887 0.69561887
0.7174479 0.7174479 0.7174479
0.74013484 0.74013484 0.74013484
0.77480084 0.77480084 0.77480084
0.8125919 0.8125919 0.8125919
0.8534007 0.8534007 0.8534007
0.8883578 0.8883578 0.8883578
0.8189951 0.8189951 0.8189951
0.8247702 0.8247702 0.8247702
0.83025426 0.83025426 0.83025426
0.84345126 0.84345126 0.84345126
0.8598039 0.8598039 0.8598039
0.88059133 0.88059133 0.88059133
0.90407467 0.90407467 0.90407467
0.9274511 0.9274511 0.9274511
0.9530024 0.9530024 0.9530024
0.917647 0.917647 0.917647
0.91648287 0.91648287 0.91648287
0.92156863 0.92156863 0.92156863
0.92383575 0.92383575 0.92383575
0.93529415 0.93529415 0.93529415
0.9508579 0.9508579 0.9508579
0.96139705 0.96139705 0.96139705
0.97738975 0.97738975 0.97738975
0.9960785 0.9960785 0.9960785
0.0 0.0 0.0
0.037254903 0.037254903 0.037254903
0.09803922 0.09803922 0.09803922
0.1632353 0.1632353 0.1632353
0.2529412 0.2529412 0.2529412
0.34705883 0.34705883 0.34705883
0.4352941 0.4352941 0.4352941
0.5181373 0.5181373 0.5181373
0.6 0.6 0.6
0.07009804 0.07009804 0.07009804
0.08878677 0.08878677 0.08878677
0.12512255 0.12512255 0.12512255
0.18921569 0.18921569 0.18921569
0.27867648 0.27867648 0.27867648
0.36697304 0.36697304 0.36697304
0.45355394 0.45355394 0.45355394
0.53290445 0.53290445 0.53290445
0.61078435 0.61078435 0.61078435
0.16862746 0.16862746 0.16862746
0.18039216 0.18039216 0.18039216
0.21372549 0.21372549 0.21372549
0.26801473 0.26801473 0.26801473
0.33578432 0.33578432 0.33578432
0.4080882 0.4080882 0.4080882
0.4828431 0.4828431 0.4828431
0.5558824 0.5558824 0.5558824
0.63725495 0.63725495 0.63725495
0.29068628 0.29068628 0.29068628
0.31127453 0.31127453 0.31127453
0.32916668 0.32916668 0.32916668
0.36617652 0.36617652 0.36617652
0.41838235 0.41838235 0.41838235
0.47506124 0.47506124 0.47506124
0.5422795 0.5422795 0.5422795
0.6091912 0.6091912 0.6091912
0.68039215 0.68039215 0.68039215
0.42941177 0.42941177 0.42941177
0.4375 0.4375 0.4375
0.45441175 0.45441175 0.45441175
0.47794116 0.47794116 0.47794116
0.5156863 0.5156863 0.5156863
0.56348044 0.56348044 0.56348044
0.6186275 0.6186275 0.6186275
0.67990196 0.67990196 0.67990196
0.74705887 0.74705887 0.74705887
0.55784315 0.55784315 0.55784315
0.5663603 0.5663603 0.5663603
0.5786765 0.5786765 0.5786765
0.597549 0.597549 0.597549
0.62990195 0.62990195 0.62990195
0.6670956 0.6670956 0.6670956
0.714951 0.714951 0.714951
0.76911765 0.76911765 0.76911765
0.82549024 0.82549024 0.82549024
0.67941177 0.67941177 0.67941177
0.6879902 0.6879902 0.6879902
0.6982844 0.6982844 0.6982844
0.7166667 0.7166667 0.7166667
0.7406863 0.7406863 0.7406863
0.773652 0.773652 0.773652
0.81470585 0.81470585 0.81470585
0.8519608 0.8519608 0.8519608
0.88725495 0.88725495 0.88725495
0.8235295 0.8235295 0.8235295
0.8268382 0.8268382 0.8268382
0.83112746 0.83112746 0.83112746
0.8426471 0.8426471 0.8426471
0.86102945 0.86102945 0.86102945
0.8820466 0.8820466 0.8820466
0.90441173 0.90441173 0.90441173
0.9274511 0.9274511 0.9274511
0.9514707 0.9514707 0.9514707
0.9137255 0.9137255 0.9137255
0.9137255 0.9137255 0.9137255
0.9205883 0.9205883 0.9205883
0.92598045 0.92598045 0.92598045
0.93529415 0.93529415 0.93529415
0.9490196 0.9490196 0.9490196
0.9617647 0.9617647 0.9617647
0.9764706 0.9764706 0.9764706
0.9960785 0.9960785 0.9960785
