assets/luts/LUTs/LEICA/LEICA SEL.cube
#Generated by PennL1 - 闲鱼号：LOOK胶片感 公众号：胶片感
TITLE LEICA SEL
LUT_3D_SIZE 9
0.023529412 0.023529412 0.023529412
0.055392157 0.067156866 0.08676471
0.12352942 0.12352942 0.1627451
0.20245099 0.19460784 0.24558824
0.26862746 0.26078433 0.31176472
0.34656864 0.3387255 0.3897059
0.41470587 0.40686274 0.45784315
0.49754903 0.4897059 0.5406863
0.5647059 0.5568628 0.6117647
0.09362745 0.09362745 0.13284314
0.11770833 0.11770833 0.15692402
0.16090687 0.15870099 0.20686275
0.22420342 0.21697305 0.2676471
0.28725493 0.2794118 0.33039218
0.3615809 0.35373777 0.40471816
0.4327206 0.42487746 0.4776961
0.50931376 0.5014706 0.5558211
0.5740196 0.57156867 0.62352943
0.19901961 0.19117647 0.24215686
0.21556371 0.20772058 0.258701
0.24142157 0.23357843 0.28455883
0.28296572 0.26997548 0.32352942
0.33186275 0.3240196 0.375
0.39485294 0.39215687 0.44056374
0.46397057 0.45612743 0.51004905
0.5279412 0.52132356 0.5738971
0.59607846 0.5921569 0.64705884
0.29754904 0.2897059 0.3406863
0.31176472 0.30392158 0.35490197
0.32965687 0.32254905 0.37316176
0.35827208 0.35042894 0.40140933
0.4009804 0.39656863 0.44607845
0.45588234 0.4480392 0.49950984
0.51409316 0.5079657 0.56102943
0.5704044 0.56893384 0.61893386
0.6367647 0.6362745 0.6843138
0.4137255 0.40588236 0.45686275
0.42107844 0.4132353 0.46544117
0.4343137 0.42941177 0.47892156
0.46004903 0.4522059 0.5034314
0.4911765 0.4852941 0.5352942
0.5340687 0.52671576 0.5791667
0.58480394 0.5803922 0.6308824
0.6343137 0.63235295 0.6833334
0.6882353 0.6882353 0.7352941
0.53382355 0.5259804 0.5808824
0.5406863 0.5328432 0.5856005
0.54301476 0.5420343 0.58958334
0.563174 0.55833334 0.6127451
0.59093136 0.58725494 0.6382353
0.6210172 0.6205883 0.66850495
0.65968144 0.6591912 0.70723045
0.707353 0.707353 0.7544118
0.7588235 0.7588235 0.8058824
0.63431376 0.6333333 0.6843138
0.63933825 0.63933825 0.6863971
0.644853 0.64093137 0.69779414
0.66041666 0.660049 0.70784307
0.6838235 0.6838235 0.7308824
0.7096814 0.7096814 0.7567402
0.7468138 0.74485296 0.7928922
0.7900735 0.7841912 0.8341912
0.8235294 0.8352941 0.87058824
0.7504902 0.7490196 0.79901963
0.7583333 0.75778186 0.8059436
0.7676471 0.7676471 0.8147059
0.7773897 0.7773897 0.8244485
0.7919117 0.7943628 0.84142154
0.81752455 0.8181373 0.86090684
0.83480394 0.84411764 0.8867647
0.86813724 0.87898284 0.91703427
0.9049019 0.91813725 0.95343137
0.8509804 0.86274505 0.8980392
0.85588235 0.8637255 0.9107843
0.85784316 0.8656863 0.9127451
0.86715686 0.8784314 0.91519606
0.8764706 0.8901961 0.92549026
0.90147066 0.9132353 0.9485294
0.92156863 0.9343137 0.9696079
0.94754905 0.9632353 0.975
0.9764706 0.9764706 0.98431367
0.024509804 0.024509804 0.029411767
0.056311276 0.068075985 0.09552696
0.12757353 0.12757353 0.16678922
0.2009804 0.19313726 0.24411765
0.26936275 0.2639706 0.3137255
0.34368873 0.3358456 0.38682598
0.41948527 0.41164216 0.4637255
0.4988358 0.4920956 0.5434437
0.5686275 0.56078434 0.6156863
0.095710784 0.095710784 0.13492648
0.11747855 0.11747855 0.15669425
0.16205576 0.15984988 0.2061734
0.22312348 0.21551012 0.26637563
0.2889706 0.28112745 0.33210784
0.36024052 0.35239738 0.40425092
0.43218443 0.4243413 0.4760723
0.5072457 0.5006664 0.55314034
0.5709559 0.5685049 0.6204657
0.20183824 0.1939951 0.24497549
0.21533394 0.20772058 0.25906864
0.24025735 0.23241422 0.28339463
0.2813113 0.27153802 0.32348347
0.33327207 0.32542893 0.37726718
0.39606312 0.38821998 0.44113052
0.46455267 0.45670953 0.5087929
0.5302543 0.524709 0.57616425
0.59681374 0.5950981 0.6455882
0.29558825 0.28774512 0.3387255
0.3075521 0.29984683 0.34666055
0.32415748 0.323269 0.37077206
0.3595512 0.35170805 0.40268844
0.4020527 0.39420956 0.44518998
0.45588234 0.4480392 0.49947155
0.51550245 0.507981 0.56130517
0.57530636 0.5716835 0.6243796
0.6367647 0.6362745 0.6843138
0.41617647 0.40833333 0.45931372
0.42181373 0.4139706 0.46571693
0.436826 0.42898285 0.48088235
0.45900735 0.45147058 0.50248164
0.48958334 0.48308825 0.53566176
0.5332721 0.5284314 0.58155644
0.5841299 0.5806373 0.6313113
0.63406867 0.6337929 0.6846201
0.68578434 0.68504906 0.73357844
0.53290445 0.5250613 0.57996327
0.5383042 0.5304611 0.5835861
0.5467065 0.54047185 0.5920956
0.5646063 0.5589614 0.6129825
0.58893996 0.58682597 0.6381128
0.62394303 0.6234299 0.67166823
0.6623775 0.65931374 0.71250004
0.70853245 0.70880055 0.75608915
0.7550858 0.7550858 0.80214465
0.6333333 0.63235295 0.68333334
0.6405178 0.6380208 0.6888327
0.6468444 0.6432905 0.69837624
0.6595435 0.6566023 0.71276045
0.6800245 0.6800245 0.7270833
0.7094976 0.7088389 0.7572151
0.7463542 0.7451287 0.79280025
0.7868873 0.78826594 0.83455884
0.82205886 0.8328432 0.87107843
0.75441176 0.7529412 0.8029412
0.75962013 0.7602405 0.80598956
0.7683824 0.7683824 0.8154412
0.77640164 0.77640164 0.8234605
0.7937807 0.7937807 0.8408395
0.8139782 0.82121634 0.86126685
0.83823526 0.8493873 0.8865196
0.8675628 0.8763251 0.9206265
0.90637255 0.91813725 0.95343137
0.8509804 0.86274505 0.8980392
0.85042894 0.8582721 0.9053309
0.8541667 0.86200976 0.90906864
0.8666667 0.87714463 0.91629905
0.8752451 0.8877451 0.92671573
0.9004902 0.9127451 0.94803923
0.91997546 0.93210787 0.967402
0.9469976 0.9626838 0.97444856
0.9764706 0.9764706 0.9764706
0.025490196 0.025490196 0.033333335
0.0564951 0.068259805 0.095710784
0.12696078 0.12696078 0.16617647
0.20318627 0.19705883 0.24718137
0.27009806 0.26225492 0.3132353
0.3447304 0.33688727 0.38786766
0.42083335 0.4129902 0.46568626
0.49865198 0.49448532 0.5446079
0.5686275 0.56078434 0.6156863
0.09387255 0.09387255 0.13308823
0.11862745 0.11862745 0.15857843
0.1596201 0.1596201 0.20300245
0.22545956 0.21954656 0.26956192
0.2891544 0.28314954 0.33376226
0.35902268 0.35117954 0.4023897
0.43345588 0.42561275 0.4779718
0.5091759 0.5026808 0.5563879
0.5740196 0.57009804 0.625
0.2004902 0.19460785 0.24460785
0.2139093 0.20606618 0.25704655
0.23958334 0.23174019 0.28272063
0.2799939 0.27215075 0.32313114
0.33296567 0.32512254 0.37610292
0.39387256 0.3860294 0.43893996
0.46348038 0.4567402 0.5072304
0.5301777 0.52472425 0.5758885
0.6002451 0.59926474 0.6482843
0.29754904 0.2897059 0.3406863
0.3066483 0.29880518 0.3446385
0.3244179 0.32215077 0.37034315
0.35810357 0.35036767 0.40145528
0.40294117 0.39509803 0.44779414
0.45352328 0.45018384 0.49981618
0.5144608 0.50661767 0.5605699
0.5730392 0.5695772 0.6226716
0.6367647 0.6362745 0.6843138
0.41470587 0.40686274 0.45784312
0.42230392 0.4150735 0.46813726
0.43357843 0.4279412 0.47818625
0.45729166 0.44981617 0.5007353
0.49142158 0.48553923 0.53700984
0.5327206 0.5275123 0.5804535
0.5833334 0.57953435 0.6294118
0.63529414 0.6334559 0.68235296
0.6867647 0.68529415 0.7352941
0.53039217 0.52254903 0.57732844
0.53835785 0.5305147 0.5851869
0.54785544 0.54687506 0.594516
0.5640931 0.559038 0.6134038
0.58995104 0.5849265 0.6387868
0.62277883 0.6212776 0.67124695
0.6643076 0.66326594 0.7124081
0.7082721 0.7082721 0.75533086
0.75625 0.75625 0.80330884
0.63480395 0.6338236 0.68480396
0.63707113 0.6360907 0.68511033
0.64748776 0.6438113 0.6996937
0.6647365 0.6638174 0.71326596
0.6817402 0.6817402 0.72879905
0.709375 0.7084253 0.7586704
0.7456495 0.74368876 0.79172796
0.79022676 0.7887562 0.8365503
0.82279414 0.83357847 0.8718137
0.7518382 0.7507353 0.8
0.75660235 0.75660235 0.80407476
0.7651042 0.76482844 0.8124387
0.7784926 0.7784926 0.8255515
0.794853 0.794853 0.8419118
0.8135723 0.82092524 0.8606311
0.8373774 0.8491422 0.88443625
0.8690564 0.8779259 0.92190564
0.9049019 0.91813725 0.95343137
0.8509804 0.86274505 0.8980392
0.84816176 0.8560049 0.9030638
0.85343134 0.8634804 0.9039216
0.8666667 0.87806374 0.9144608
0.8740197 0.8877451 0.9230392
0.9004902 0.9127451 0.94803923
0.92156863 0.9343137 0.9696079
0.9460785 0.9617647 0.97352946
0.9764706 0.9764706 0.9764706
0.023529412 0.023529412 0.023529412
0.06041667 0.06832108 0.097058825
0.12536766 0.12536766 0.16458334
0.19816177 0.19117647 0.24172793
0.27034315 0.26250002 0.3134804
0.34656864 0.3387255 0.3897059
0.42144608 0.41360295 0.46470588
0.49730393 0.49007356 0.5407476
0.5681373 0.56029415 0.6151961
0.09491422 0.09491422 0.13412991
0.1169807 0.1169807 0.1561964
0.16061582 0.16061582 0.20767462
0.22634804 0.21858148 0.26952362
0.29022673 0.2845282 0.3344363
0.36188728 0.35404414 0.40518537
0.43206188 0.42421874 0.47596508
0.50896907 0.50112593 0.55524665
0.5753064 0.5728554 0.6248162
0.20196079 0.19607843 0.24607845
0.21346506 0.20553003 0.25655636
0.23955269 0.23170954 0.28268996
0.2795803 0.27238053 0.32303923
0.33339462 0.32555148 0.37653187
0.39675245 0.393413 0.4421875
0.46335784 0.4555147 0.5067096
0.53121936 0.5242954 0.5780484
0.59693635 0.5950981 0.64730394
0.29466912 0.28682598 0.33780637
0.30902267 0.30117953 0.35258883
0.3220282 0.3189032 0.3675245
0.35992652 0.352834 0.40607387
0.40291056 0.3980699 0.44800857
0.4563036 0.45372245 0.5025123
0.5124694 0.50484073 0.5586551
0.57358307 0.57088697 0.6217449
0.6367647 0.6362745 0.6843138
0.4139706 0.40612745 0.45710784
0.42215073 0.4143076 0.46675858
0.43578434 0.42794117 0.48020834
0.45931372 0.45193017 0.5029412
0.49129903 0.48443627 0.5392157
0.5344976 0.53036153 0.5815258
0.5813726 0.577451 0.62818635
0.6366116 0.6345895 0.6856924
0.68995094 0.68995094 0.7370098
0.5307598 0.5229167 0.57781863
0.5355545 0.5277114 0.58212316
0.5459712 0.5393076 0.5933517
0.5639246 0.56079966 0.61917895
0.58924633 0.5870405 0.63851106
0.6205117 0.61709565 0.67101717
0.66227025 0.6592218 0.7123775
0.707353 0.707353 0.7544118
0.7558211 0.7558211 0.80202204
0.6334559 0.6324755 0.6834559
0.63682604 0.6358456 0.6865809
0.6460172 0.64295346 0.69638485
0.6634038 0.66067713 0.7141391
0.6833946 0.6833946 0.7304535
0.70963544 0.7087776 0.7575521
0.74509805 0.7431373 0.7911765
0.7889247 0.7890779 0.8361367
0.82009804 0.8308824 0.8691176
0.75624996 0.7547794 0.8047794
0.7547871 0.755959 0.80306375
0.7646293 0.7646293 0.81168807
0.7775352 0.7775352 0.824594
0.79157484 0.79157484 0.8383272
0.8127451 0.82009804 0.8598039
0.83538604 0.846538 0.88367033
0.8689415 0.8767846 0.92384344
0.9049019 0.91813725 0.95343137
0.8519608 0.8637254 0.8990196
0.8509804 0.85882354 0.90588236
0.85784316 0.86605394 0.91200984
0.86623776 0.87757355 0.9081495
0.8764706 0.8884804 0.92892164
0.9009192 0.91268384 0.94797796
0.922549 0.9343137 0.9696079
0.9473652 0.9630515 0.9748162
0.9764706 0.9764706 0.9696079
0.021568628 0.021568628 0.021568628
0.058088236 0.06838235 0.087990195
0.125 0.125 0.16421568
0.19852942 0.19411764 0.24338235
0.27058825 0.2627451 0.3137255
0.34485295 0.34044117 0.3897059
0.41960782 0.4117647 0.4627451
0.49803925 0.4901961 0.54240197
0.57058823 0.5627451 0.61764705
0.09485294 0.09485294 0.13406864
0.11862745 0.11862745 0.15931374
0.15980393 0.15980393 0.20686275
0.22395834 0.21611519 0.26709563
0.28725493 0.28063726 0.33100492
0.3609375 0.3530944 0.40416667
0.43370098 0.42585784 0.47683823
0.50747555 0.49764097 0.55272675
0.5740196 0.57279414 0.62230396
0.1995098 0.19166666 0.24264705
0.21415439 0.20692402 0.25759804
0.24129903 0.23345587 0.2855392
0.28143385 0.2713848 0.32346815
0.33112746 0.32328433 0.375
0.39712012 0.38927698 0.44025737
0.46433824 0.4564951 0.51053923
0.529228 0.5217525 0.57383585
0.59411764 0.59411764 0.64117646
0.29607844 0.2882353 0.3392157
0.31081498 0.30297184 0.35395223
0.32800245 0.32015932 0.3711397
0.35925248 0.35140932 0.40281862
0.40208334 0.39595586 0.44607848
0.45588234 0.4480392 0.49950984
0.51617646 0.5083333 0.563174
0.5743566 0.5719976 0.6237745
0.6365196 0.6360294 0.6840687
0.41470587 0.40686274 0.45980394
0.42181373 0.4139706 0.46617648
0.43553925 0.42916667 0.47941178
0.45955884 0.4519608 0.50306374
0.49215686 0.48480392 0.5382353
0.53492653 0.5291667 0.5811275
0.58406866 0.579902 0.6303922
0.63517153 0.6332108 0.6841912
0.6862745 0.68529415 0.7343137
0.532598 0.5247549 0.57965684
0.5384804 0.53063726 0.5837623
0.54448533 0.5400735 0.5895834
0.56338847 0.5589767 0.6164216
0.5910539 0.5881128 0.6389706
0.6243566 0.6237745 0.6721201
0.65962017 0.6567402 0.70955884
0.7071079 0.70701593 0.75425863
0.7539216 0.7539216 0.8009804
0.6338236 0.63284314 0.6838235
0.64142156 0.6389706 0.6909314
0.64681375 0.64338243 0.6982844
0.6620711 0.66170347 0.7098652
0.68308824 0.68308824 0.7301471
0.7126226 0.7125613 0.7597427
0.74497557 0.7430147 0.791054
0.78860295 0.78694856 0.83455884
0.8210784 0.8318628 0.870098
0.7539216 0.7531863 0.80171573
0.7588235 0.75965077 0.8053309
0.763603 0.7630515 0.81121325
0.7759498 0.7759498 0.8230086
0.79558825 0.79558825 0.8426471
0.8163296 0.8232231 0.86338854
0.8364583 0.84791666 0.8841299
0.86691177 0.8759804 0.9193628
0.90416664 0.91740197 0.9526961
0.8509804 0.86274505 0.8980392
0.8509804 0.85882354 0.90588236
0.85490197 0.86274505 0.9098039
0.8629902 0.8747549 0.90661764
0.87745106 0.8892157 0.9303922
0.9004903 0.9125 0.94779414
0.92156863 0.9343137 0.9696079
0.95 0.9656863 0.97745097
0.9764706 0.9764706 0.9764706
0.019607844 0.019607844 0.02745098
0.057230394 0.06844363 0.08921569
0.12610295 0.12610295 0.16531864
0.19944853 0.19160539 0.24258578
0.26740196 0.25955883 0.31053922
0.34356618 0.33572304 0.38670343
0.4202206 0.41237748 0.4633578
0.4959559 0.4959559 0.54301476
0.5686275 0.56078434 0.6156863
0.093504906 0.093504906 0.13272059
0.11636795 0.11636795 0.15558365
0.1631434 0.16121323 0.20494792
0.22336091 0.21551776 0.26649818
0.2880515 0.28020835 0.33118874
0.36018687 0.35234377 0.4063266
0.4343597 0.42651656 0.4775735
0.50927544 0.5014323 0.55492496
0.5731618 0.5681373 0.6226716
0.19889706 0.19129902 0.24215686
0.21363357 0.20579043 0.25677082
0.24102329 0.23318014 0.28416055
0.2818321 0.273989 0.32496938
0.33192402 0.32408088 0.37506127
0.3950674 0.39172798 0.44090074
0.4638174 0.45597425 0.5071691
0.5316024 0.52400434 0.57732844
0.597304 0.5954657 0.6476716
0.29840687 0.29056373 0.34154412
0.3070619 0.29921877 0.35023746
0.32648593 0.31950063 0.3700521
0.36067712 0.3529412 0.40387562
0.4023897 0.39503676 0.44598654
0.45588234 0.4480392 0.49950218
0.5165441 0.50945157 0.5616575
0.5779641 0.57508427 0.625651
0.6359069 0.6354167 0.6834559
0.41176468 0.40392154 0.45490196
0.42156863 0.4137255 0.46485907
0.4343137 0.42904413 0.4793505
0.4608456 0.4538603 0.5044118
0.49129903 0.483701 0.53492653
0.53275126 0.5281863 0.57977945
0.58278185 0.5814951 0.62984073
0.63489586 0.63293505 0.6839155
0.68480396 0.68480396 0.7318628
0.53039217 0.52254903 0.577451
0.5394378 0.53159463 0.58488053
0.54854476 0.54155946 0.59558827
0.56295955 0.5596201 0.6129672
0.5907169 0.58719367 0.6382353
0.620887 0.6204198 0.6684437
0.6623775 0.6594363 0.7123775
0.70547646 0.70547646 0.7525352
0.7544731 0.7544731 0.800674
0.63774514 0.6376226 0.6851716
0.6381894 0.6346354 0.6905178
0.6497856 0.64598656 0.7023591
0.6606771 0.65998775 0.7098039
0.6803309 0.6790441 0.73125
0.71208644 0.71110606 0.76012564
0.7471508 0.74519 0.79322916
0.7901501 0.78661156 0.83463544
0.8234069 0.8341912 0.87242645
0.7511029 0.74963236 0.7996324
0.75869334 0.7582108 0.8060968
0.7695925 0.76862746 0.8176164
0.7737592 0.7737592 0.820818
0.7933824 0.7933824 0.84044117
0.813197 0.8197457 0.8602558
0.8355239 0.8472886 0.8825827
0.8676547 0.8754978 0.92255664
0.90275735 0.9159926 0.95128673
0.8509804 0.86274505 0.8980392
0.84969366 0.8575368 0.9045956
0.8552696 0.8634803 0.9094363
0.8666667 0.87757355 0.9094362
0.8813726 0.894853 0.9308824
0.9009192 0.9127451 0.94803923
0.922549 0.9343137 0.9696079
0.9460785 0.9617647 0.97352946
0.9764706 0.9764706 0.9764706
0.02254902 0.02254902 0.024509804
0.056740195 0.06740196 0.09522059
0.12794119 0.12794119 0.16715688
0.20281862 0.19669117 0.24681373
0.27009806 0.26225492 0.3132353
0.3439951 0.34129906 0.3897059
0.42181373 0.4139706 0.46568626
0.49889708 0.4947304 0.5438726
0.5686275 0.56078434 0.6156863
0.09656863 0.09656863 0.13578431
0.11770833 0.11770833 0.15692402
0.16115196 0.16115196 0.2069853
0.22331494 0.2154718 0.26645222
0.28878677 0.28094363 0.33192402
0.3624081 0.35456496 0.4055913
0.43336397 0.42552084 0.47787988
0.5083793 0.50145525 0.5553003
0.5737745 0.5694853 0.62438726
0.19975491 0.19191177 0.24289216
0.21378675 0.20594363 0.256924
0.24093138 0.23308823 0.28406864
0.27981007 0.27196693 0.32294732
0.33284312 0.325 0.37598038
0.39620098 0.38835785 0.43958336
0.46348038 0.45563725 0.5071691
0.53030026 0.52392775 0.57625616
0.5950981 0.59950984 0.6487745
0.29816177 0.29105395 0.3416667
0.30511642 0.29727328 0.34825367
0.32748163 0.3239277 0.37276348
0.36067712 0.352834 0.40428925
0.4036152 0.3959559 0.44840688
0.45813417 0.45029107 0.50352335
0.5151348 0.5077206 0.56155026
0.57700676 0.5725184 0.6259804
0.6367647 0.6362745 0.6843138
0.4151961 0.40735295 0.4583333
0.41764706 0.41109067 0.46458334
0.4359069 0.42806372 0.47953433
0.4591912 0.45134807 0.5025123
0.49191177 0.48357844 0.5382353
0.5327819 0.52879906 0.58039224
0.5819853 0.58137256 0.6296569
0.6356618 0.63370097 0.6846814
0.68578434 0.68284315 0.73578435
0.5305147 0.5226716 0.577451
0.5372549 0.5294118 0.5785386
0.54770225 0.5454351 0.59375
0.5629749 0.558992 0.61302084
0.5891544 0.5863358 0.63645834
0.6212623 0.6205423 0.6691024
0.6623775 0.6613664 0.7104473
0.7104626 0.71038604 0.75759804
0.75870097 0.75870097 0.80575985
0.63553923 0.63480395 0.68480396
0.6369792 0.6359988 0.6850184
0.6450981 0.64117646 0.6971814
0.66384804 0.6616422 0.71366423
0.6819853 0.6819853 0.7290442
0.71200985 0.71167284 0.7594056
0.7457108 0.74375004 0.79178923
0.7900123 0.78854173 0.8351103
0.8213235 0.83235294 0.8698529
0.7558823 0.75441176 0.80441177
0.75727636 0.75727636 0.8047488
0.76559436 0.76559436 0.8126532
0.77841604 0.77841604 0.82547486
0.7929535 0.7929535 0.8400123
0.81119794 0.81778497 0.8584099
0.8369179 0.84806985 0.8852022
0.868367 0.8768229 0.9220435
0.9056372 0.9185049 0.953799
0.85882354 0.87058824 0.90588236
0.8509804 0.85882354 0.90588236
0.85490197 0.8656863 0.9039216
0.86409307 0.87328434 0.916299
0.87352943 0.88725483 0.922549
0.9009805 0.91286767 0.9481618
0.9210784 0.9328432 0.96813726
0.9464461 0.96213233 0.9738971
0.9764706 0.9764706 0.9764706
0.022058824 0.022058824 0.022058824
0.05723039 0.0689951 0.093504906
0.12536766 0.12536766 0.16458334
0.1973652 0.19381128 0.24264707
0.27009806 0.26225492 0.3132353
0.34675246 0.33890933 0.38988972
0.41875 0.41090688 0.46188724
0.49852943 0.49362746 0.5431373
0.5686275 0.56078434 0.6156863
0.09301471 0.09301471 0.1322304
0.118397675 0.11655944 0.15669425
0.15977329 0.15977329 0.20376837
0.22573529 0.21789216 0.2688726
0.28817403 0.28125 0.33253676
0.3634957 0.35565257 0.4075061
0.4334865 0.42564338 0.47685355
0.50981164 0.5053003 0.5560509
0.5745711 0.57120097 0.625
0.20085785 0.1949755 0.24497549
0.21403185 0.20695466 0.2575521
0.2379902 0.23014706 0.28112745
0.28011644 0.2754902 0.32486215
0.33327207 0.32542893 0.37640932
0.3976103 0.38976714 0.44074753
0.46344975 0.4556066 0.50768995
0.5302543 0.524709 0.5756128
0.5943628 0.59632355 0.64681375
0.29883578 0.29099265 0.34197304
0.3070619 0.29921877 0.35031405
0.32467833 0.3211244 0.3699602
0.35794273 0.35042128 0.401731
0.40306374 0.39650735 0.44708946
0.45775887 0.44991577 0.5013251
0.5155178 0.50767463 0.5607537
0.5735371 0.57060355 0.62352943
0.6365809 0.6360907 0.68412995
0.41495097 0.40710786 0.45931372
0.42126226 0.41341913 0.465625
0.43480393 0.4269608 0.47916666
0.4572917 0.44975492 0.5025429
0.49105394 0.48504904 0.53860295
0.533701 0.5280944 0.5794118
0.58339465 0.57824755 0.6311275
0.6350796 0.63311887 0.6840993
0.68578434 0.6845588 0.73406863
0.5302696 0.5224265 0.5770221
0.5337546 0.53062963 0.58246785
0.54794735 0.54139096 0.5941483
0.56403184 0.55919117 0.61339617
0.59117645 0.5879902 0.639277
0.62041974 0.61698836 0.67090994
0.6623315 0.6615962 0.7101256
0.70875466 0.70875466 0.7558135
0.75753677 0.75753677 0.80459565
0.6367647 0.6357843 0.6867647
0.6363664 0.635386 0.68563116
0.64730394 0.6433824 0.70024514
0.662837 0.6598959 0.7135723
0.6811274 0.68057597 0.7287378
0.7114124 0.7113664 0.75851715
0.74408704 0.7421263 0.7901655
0.78822 0.7870864 0.8354014
0.8214461 0.8325981 0.86973035
0.75232846 0.75085783 0.8008579
0.75768995 0.7579657 0.8050934
0.7654718 0.7654718 0.81253064
0.7784237 0.7784237 0.82548255
0.79390323 0.79390323 0.840962
0.8129289 0.8200904 0.8603707
0.83630514 0.8474572 0.88458943
0.8687117 0.87747395 0.92177546
0.9039828 0.91721815 0.95251226
0.8509804 0.86274505 0.8980392
0.8509804 0.85882354 0.90588236
0.85784316 0.8656863 0.9127451
0.86452204 0.873652 0.91685045
0.875 0.8887255 0.9240196
0.9009805 0.9127451 0.94803923
0.9214461 0.9332108 0.96850497
0.9490809 0.9647672 0.97653186
0.9789216 0.9740196 0.9764706
0.019607844 0.019607844 0.019607844
0.060784314 0.06813726 0.097058825
0.12941177 0.12941177 0.16862746
0.19460784 0.19362745 0.24117646
0.27058825 0.2627451 0.3137255
0.33970588 0.33186275 0.3828431
0.422549 0.41470587 0.46862745
0.49705884 0.4921569 0.5441177
0.57254905 0.5647059 0.61960787
0.094607845 0.094607845 0.13382354
0.11770834 0.11770834 0.1598652
0.1620098 0.1620098 0.20906863
0.22340687 0.21556371 0.26654413
0.2916667 0.28382355 0.33480394
0.3615809 0.35373777 0.40471816
0.43651962 0.4286765 0.48296568
0.5065564 0.4996324 0.552451
0.5740196 0.5740196 0.62107843
0.20294118 0.19509804 0.24607845
0.21372548 0.20588236 0.25784314
0.23872548 0.23088236 0.28186277
0.28002453 0.2721814 0.32316178
0.33186275 0.3240196 0.3764706
0.39289215 0.38504902 0.4372549
0.46593136 0.45808822 0.50980395
0.53063726 0.5227941 0.5767157
0.5892157 0.5950981 0.6421569
0.29705882 0.2901961 0.3406863
0.30784315 0.3 0.3509804
0.32953435 0.32340688 0.37352943
0.35735297 0.35036767 0.40392157
0.40441176 0.39656863 0.4477941
0.45588234 0.4480392 0.49950984
0.5170343 0.50919116 0.5615196
0.5748775 0.57359076 0.62322307
0.6362745 0.6357843 0.6838235
0.41568628 0.40784314 0.46078432
0.42107844 0.41470587 0.46617648
0.43676472 0.42892155 0.48137254
0.45735294 0.4495098 0.5007353
0.4921569 0.4862745 0.5382353
0.53382355 0.5296569 0.5791667
0.58382356 0.579902 0.63186276
0.6348039 0.63284314 0.6838236
0.6901961 0.6901961 0.73725486
0.53137255 0.5235294 0.5779412
0.5373775 0.52953434 0.5826593
0.5428922 0.54105395 0.59080887
0.563174 0.55833334 0.6128064
0.5894608 0.58725494 0.6382353
0.6238971 0.6231618 0.6719363
0.6618872 0.6591912 0.7116422
0.70704657 0.70704657 0.75410545
0.7588235 0.7588235 0.8058824
0.63235295 0.6313726 0.68235296
0.6405637 0.63958335 0.6886029
0.64705884 0.6441177 0.69705886
0.6607843 0.66041666 0.70821077
0.6818628 0.6818628 0.72892165
0.70980394 0.7096814 0.7572304
0.7490196 0.74705887 0.79509807
0.78811276 0.78811276 0.8339461
0.81960785 0.8303922 0.8686274
0.75441176 0.7529412 0.8029412
0.75661767 0.7582721 0.8036765
0.7666667 0.7666667 0.81372553
0.7794118 0.7794118 0.8264706
0.794853 0.794853 0.84191173
0.8132353 0.82058823 0.8602941
0.8377451 0.84950984 0.8848039
0.86813724 0.8759804 0.9230392
0.902451 0.9142157 0.94950974
0.8509804 0.86274505 0.8980392
0.8509804 0.85882354 0.90588236
0.85490197 0.86274505 0.9098039
0.86715686 0.87549025 0.92107844
0.87843144 0.89215684 0.927451
0.9009805 0.9127451 0.94803923
0.922549 0.9343137 0.9676471
0.94754905 0.9632353 0.975
0.9764706 0.9764706 0.9764706
