assets/luts/LUTs/LEICA/LEICA VIV.cube
#Generated by Pennl1
#闲鱼号：LOOK胶片感
#公众号：胶片感
TITLE LEICA VIV
LUT_3D_SIZE 33
0.0 0.0 0.015686275
0.0068627456 0.0 0.0153186275
0.039705884 0.0 0.011029412
0.06985295 0.0 0.007843138
0.10980392 0.0 0.009313726
0.14595589 0.0 0.008088236
0.19117647 0.0 0.008333333
0.22977942 0.0 0.011764706
0.26568627 0.0 0.00882353
0.3109069 0.0 0.014460786
0.3507353 0.0 0.012009803
0.38137254 0.0 0.011887255
0.41617647 0.0 0.014705883
0.45392156 0.0 0.007843138
0.48455882 0.0 0.007843138
0.5091912 0.0 0.009436275
0.5411765 0.0 0.013725491
0.57549024 0.0 0.011029413
0.6017157 0.0 0.007843138
0.6354167 0.0 0.010906863
0.6671569 0.0 0.011764706
0.68578434 0.0 0.011764706
0.7237746 0.0 0.012009803
0.76053923 0.0 0.015686275
0.787255 0.0 0.015686275
0.81727946 0.0 0.011642158
0.847304 0.0 0.0073529417
0.8731618 0.0 0.009681373
0.89705884 0.0 0.010294118
0.92561275 0.0 0.008946079
0.95882356 0.0 0.014215687
0.97892153 0.0 0.008578432
0.99215686 0.0 0.007843138
0.0 0.0018382354 0.003921569
0.0064606317 0.0018382354 0.003921569
0.0375 0.0018382354 0.0032552087
0.06479014 0.0018382354 0.0012637868
0.1122549 0.001976103 0.0023590687
0.14963236 0.0022058825 0.002033548
0.19660692 0.0019990809 0.0037147673
0.23405713 0.001596967 0.0037951905
0.2700674 0.0044117654 0.006311275
0.30764782 0.0023935356 0.004419424
0.34642312 0.0018382354 0.0005897672
0.3869447 0.0018382354 0.0071193324
0.40873164 0.0022824756 0.0065870103
0.44677162 0.004614737 0.0011450675
0.4722963 0.0017233456 0.003921569
0.50223273 0.0029143689 0.003921569
0.53314954 0.0034313728 0.002144608
0.56195617 0.0018382354 0.00036764707
0.5953355 0.001585478 0.00036764707
0.6347618 0.0014705883 0.00036764707
0.6629902 0.0017922795 0.00036764707
0.6856388 0.0018382354 0.00036764707
0.7192401 0.0021829044 0.0035768994
0.7535539 0.0018382354 0.0039790138
0.78492653 0.0018382354 0.005974265
0.8104167 0.0018382354 0.0072380514
0.84129906 0.0016773897 0.00016084561
0.8691177 0.0016659008 0.00036764707
0.89669126 0.0020680148 0.00036764707
0.92295504 0.0016773897 0.00010340075
0.95178455 0.0017693015 0.0031862748
0.97818625 0.0018382354 0.004254749
0.9925245 0.0011029412 0.0035539218
0.0 0.024019606 0.0031862748
0.0032398899 0.024157476 0.0032552087
0.03080576 0.025490196 0.003921569
0.060439643 0.025283394 0.0030254296
0.109865196 0.026501227 0.0019301472
0.14850645 0.029411767 0.0035768994
0.19469975 0.027205883 0.0018075983
0.23630515 0.022916667 0.00234375
0.27175248 0.025612745 0.0013480393
0.30236673 0.026960786 0.0034237136
0.3420037 0.025582109 0.0032322304
0.3697074 0.024754902 0.0008578432
0.40719977 0.024846815 0.004564951
0.44044116 0.025329351 0.003921569
0.46962315 0.023988971 0.003921569
0.50264245 0.022303924 0.0036228558
0.53137255 0.02389706 0.003921569
0.5601027 0.025490196 0.004220282
0.59312195 0.023805149 0.003921569
0.6278569 0.02189032 0.003921569
0.6564338 0.024356619 0.003921569
0.6854397 0.024754902 0.003921569
0.71646756 0.02778799 0.0009803922
0.7512408 0.025375307 0.004924939
0.78155637 0.02512255 0.005943628
0.8073453 0.025719976 0.0033088236
0.83774513 0.023682598 0.0021292893
0.86595434 0.024777882 0.003921569
0.89341295 0.028952207 0.003921569
0.9239813 0.024509804 0.0021599268
0.95171565 0.025490196 0.0040594367
0.9774509 0.025559133 0.0062117036
0.9960785 0.019117648 0.0014705883
0.0011029412 0.05526961 0.0011029412
0.007230393 0.05690104 0.00047104785
0.033494182 0.062009804 0.0048177084
0.063725494 0.061217066 0.003921569
0.100337006 0.06130515 0.003921569
0.14428233 0.06586244 0.0026003371
0.1921339 0.06420803 0.0020680148
0.2281633 0.060160078 0.0016927085
0.26007965 0.065533094 0.003216912
0.30323607 0.06857767 0.0048521757
0.3392157 0.061397057 0.0023820468
0.36750537 0.059156712 0.0029067097
0.40510112 0.05857843 0.005284927
0.43847656 0.0616345 0.0028186277
0.46786916 0.061174944 0.0031632967
0.49860984 0.06311274 0.0032245712
0.5308211 0.06311274 0.0044730394
0.5643421 0.06180301 0.0050666365
0.59446234 0.06360294 0.004679841
0.62536764 0.059562653 0.0041628373
0.6578585 0.06001838 0.0029564952
0.6855048 0.059225645 0.003887102
0.71868116 0.059367344 0.004097733
0.75458413 0.06174173 0.0056870407
0.78180146 0.061703436 0.0019607844
0.8094018 0.06361443 0.0061159628
0.83553916 0.06042433 0.0033011644
0.8660271 0.06441866 0.003921569
0.8948836 0.06723346 0.003921569
0.9212087 0.062802546 0.005947458
0.94832265 0.06409314 0.0067401966
0.97226566 0.064273134 0.0026309744
0.9949755 0.062009804 0.0056372555
0.0024509805 0.09803922 0.0024509805
0.009773285 0.101960786 0.0019301474
0.032567404 0.101685055 0.0059129903
0.061381746 0.101317406 0.003921569
0.10484068 0.102879904 0.0044730394
0.14673714 0.10425857 0.004702819
0.18538603 0.10327819 0.0025428925
0.22495404 0.10145527 0.0030790442
0.26335785 0.10416668 0.003921569
0.30142465 0.10572918 0.005989583
0.3376532 0.09852941 0.0049938727
0.3648897 0.10188419 4.595588e-05
0.40447307 0.09981618 0.0014705883
0.43492648 0.10217525 0.0014705883
0.4669424 0.10340074 0.00223652
0.5003523 0.10381434 0.00491728
0.53088236 0.10294117 0.004411765
0.56432295 0.100030646 0.0033241422
0.5933211 0.10174633 0.005606618
0.6235754 0.10036765 0.0044577206
0.65520835 0.10379902 0.0017769609
0.6825674 0.10346201 0.0038449757
0.7156863 0.101960786 0.0025428922
0.7491575 0.10234375 0.0035386032
0.7785539 0.10441177 0.0023284315
0.8083946 0.10356925 0.003216912
0.8321997 0.102604166 0.0017156864
0.86101407 0.10134804 0.0031403187
0.892647 0.10104167 0.0033700983
0.9191483 0.10019914 0.0028645834
0.94779414 0.100306384 0.0024509805
0.96982235 0.10626532 0.0060049025
0.99215686 0.101960786 0.0014705883
0.0018382354 0.14154412 0.0
0.009658395 0.14328279 0.0020833334
0.031571694 0.1402497 0.0020833334
0.06276042 0.143233 0.0020833334
0.107444845 0.14607844 0.0028645836
0.14522442 0.14362745 0.0031901044
0.18596049 0.14038756 0.0020833334
0.23102407 0.14164752 0.0020833334
0.2671875 0.14813113 0.0034620098
0.30232462 0.14632355 0.0023705577
0.3422871 0.1400812 0.00013020833
0.371381 0.14362745 6.510417e-05
0.40439644 0.14362745 0.0020833334
0.44289213 0.14317173 0.0024854476
0.47241879 0.14219517 0.0033471202
0.50209486 0.14203432 0.0020833334
0.5360907 0.1397059 0.0010416667
0.5679037 0.1397059 0.0012369793
0.593053 0.14257047 0.0020833334
0.62570083 0.14368106 0.0020833334
0.65719974 0.14362745 0.0020833334
0.67965686 0.1456457 0.0020833334
0.71557134 0.14362745 0.00013020834
0.74722356 0.14391468 0.0020833334
0.77594966 0.14500614 0.0015625001
0.80806905 0.14425935 0.0
0.8368337 0.14557292 0.0009114584
0.8613971 0.14558057 0.0009765625
0.88843447 0.14431679 0.0013020834
0.9177696 0.14494869 0.0005859376
0.94779414 0.14377299 0.0
0.9742646 0.14360447 0.001888021
0.9939952 0.14546569 0.0020833334
0.0017156864 0.18848039 0.0
0.010255822 0.19015779 0.0
0.037898287 0.18610603 0.0
0.06840533 0.19116881 0.0
0.10946691 0.1925858 0.0
0.1452742 0.19185816 0.0
0.18821998 0.18875614 0.0
0.23186274 0.18805912 0.0043428307
0.26721814 0.18976715 0.0062500006
0.30759805 0.19060968 0.0028186275
0.3484222 0.18907782 0.0042738975
0.37994024 0.1842065 0.0
0.4082721 0.18875614 0.0
0.44424787 0.19068629 0.0003753064
0.4728554 0.19068629 0.0011795345
0.5033548 0.19088541 0.0
0.53700984 0.18786764 0.0
0.5686275 0.18586856 0.0
0.5958793 0.18828127 0.0
0.63321847 0.19031097 0.0
0.66200984 0.19261643 0.0
0.6860831 0.19289216 0.0021369488
0.71778494 0.19261643 0.0
0.75022215 0.18909316 0.0
0.7814338 0.19197305 0.0005514706
0.81095284 0.1920343 0.0014476104
0.8421568 0.19192709 0.0
0.8667203 0.18939185 0.0
0.8928003 0.19050243 0.0
0.92218137 0.19350488 0.0
0.9522059 0.19819242 0.0017922795
0.97467834 0.19346662 0.00020680146
0.99828434 0.19240196 0.0
0.0 0.22708333 0.0
0.0101753995 0.23087853 0.0
0.035914525 0.22990963 0.0
0.063714005 0.2302811 0.0007238052
0.11064645 0.22990194 0.0035386034
0.14658779 0.2305147 0.0075597432
0.18811275 0.22698377 0.007398898
0.2310049 0.22497322 0.0061121327
0.2670037 0.22643995 0.0075367657
0.30542663 0.23256357 0.0023628983
0.34424022 0.23357843 0.0026118262
0.38251376 0.22439107 0.0024931068
0.4104167 0.22500002 0.0
0.44357762 0.22843136 0.0
0.47419575 0.2292356 0.0
0.5052045 0.23050705 0.0
0.5340074 0.22775735 0.0
0.5658663 0.22806372 0.0
0.5953432 0.23058364 0.0
0.6325483 0.23301548 0.0
0.65890014 0.23700982 0.0
0.68680686 0.23251379 0.0013059131
0.71960783 0.23218444 0.0001608456
0.75392157 0.2298675 0.0021714156
0.78529423 0.23100492 0.00033700984
0.81036305 0.23058364 0.00088465086
0.8404412 0.2297258 0.0
0.8681947 0.22965686 0.0
0.89333636 0.22889093 0.0
0.9223154 0.23125 0.0
0.9530637 0.23663451 0.0010952819
0.9747587 0.23517923 0.00012637867
0.99742657 0.23100492 0.0
0.0 0.2627451 0.0
0.010049021 0.2637255 0.0
0.03596814 0.2637255 0.0
0.066911764 0.26510417 0.00027573528
0.106862746 0.2689951 0.0013480393
0.14577207 0.2677696 0.005637255
0.18805148 0.2634804 0.007046569
0.22965686 0.2617647 0.0023284315
0.2644608 0.2647059 0.003921569
0.30382967 0.2673407 0.005729167
0.34289217 0.26764706 0.0031250003
0.37545958 0.26574755 0.0009497549
0.4084559 0.267402 0.0
0.43998164 0.26568627 0.0
0.4726103 0.26599264 0.0
0.50012255 0.2686581 0.0
0.53186274 0.26862746 0.0
0.5647672 0.2680147 0.0
0.594424 0.2716299 0.0
0.6291973 0.27101716 0.0
0.661152 0.26887256 0.0
0.6856005 0.2695772 0.0
0.7197917 0.26942402 6.12745e-05
0.75640327 0.26712623 0.00082720583
0.78602946 0.27034315 0.0
0.8113664 0.26917893 0.0
0.83774513 0.26703432 0.0
0.8660845 0.26942402 0.0
0.8910539 0.26789215 0.0
0.92270225 0.2693321 0.0
0.9498775 0.27040443 0.0
0.9690258 0.27058825 0.0
0.9960785 0.27254903 0.0
0.0 0.3036765 0.0
0.0067401966 0.3036765 0.0
0.033210784 0.30429688 0.0
0.06730239 0.30639935 0.0
0.111672804 0.30490196 0.0
0.15098423 0.30461475 0.0005744486
0.1903416 0.30208334 0.0027420342
0.22862285 0.30036765 0.0013480394
0.26786155 0.3033088 0.0054227947
0.30471048 0.30987287 0.0021637562
0.33979014 0.30470282 0.00065104174
0.37342602 0.30110294 0.0
0.40487134 0.30482537 0.0
0.44082034 0.30501303 0.0
0.4692555 0.30759805 0.0
0.49692097 0.3080959 0.0
0.52971816 0.30655637 0.0
0.56055075 0.30465305 0.0
0.59411764 0.30532324 0.0
0.63101643 0.30245098 0.0
0.6602635 0.30684742 0.0
0.6887638 0.30498624 0.0
0.7163374 0.3048637 0.0
0.7500958 0.30490196 0.0
0.77800244 0.30753678 0.0
0.80983835 0.30488282 0.0
0.83774513 0.3044807 0.0
0.86556375 0.3048637 0.0
0.8927543 0.30467218 0.0
0.91958106 0.30490196 0.0
0.948024 0.3102788 0.0
0.97315407 0.31151962 0.0
0.9960785 0.30882353 0.0
0.0 0.34289217 0.0
0.009459253 0.34323683 0.0
0.031908702 0.34592527 0.0
0.063357845 0.34306833 0.0
0.10906864 0.34289217 0.0
0.15000767 0.34116882 0.0017233457
0.19068629 0.33907783 0.0017463237
0.23084407 0.33414522 8.425245e-05
0.26678923 0.3373162 0.00036764704
0.30432752 0.34583336 7.659314e-05
0.3426624 0.33970588 0.0
0.3699602 0.33909315 0.0
0.40716913 0.34335172 0.0
0.43842673 0.34581804 0.0
0.47117034 0.34313726 0.0
0.5040441 0.34463084 0.0
0.53860295 0.34485298 0.0
0.5664676 0.34289217 0.0
0.592739 0.34289217 0.0
0.62781864 0.34557298 0.0
0.6593444 0.34353554 0.0
0.6822151 0.34646142 0.0
0.7193627 0.3426624 0.0
0.7530254 0.33982843 0.0
0.78290445 0.343076 0.0
0.8131128 0.34162837 0.0
0.8398131 0.34243262 0.0
0.8636106 0.34461552 0.0
0.8894608 0.34518996 0.0
0.92576593 0.34656867 0.0
0.9528492 0.34397978 0.0
0.9746094 0.34338236 0.0
0.9960785 0.34681374 0.0
0.0 0.3655637 0.0037990198
0.005893843 0.3694853 0.007364431
0.028186277 0.3701976 0.004633885
0.06050475 0.3733188 0.0077550556
0.105958946 0.37340686 0.0064185057
0.14203432 0.37518767 0.0057674637
0.1849801 0.37079504 0.00558364
0.22969516 0.3658088 0.0040824143
0.26678923 0.37150738 0.0069240197
0.30120635 0.37340686 0.004534314
0.3392157 0.37340686 0.003921569
0.3774472 0.3658088 0.004044118
0.4078585 0.37008274 0.003584559
0.4405101 0.37257585 0.00031403187
0.46858147 0.3696079 0.00012254903
0.50296414 0.3696079 0.0017156864
0.5352329 0.36954656 0.004044118
0.5629175 0.3694853 0.004044118
0.59129906 0.36695772 0.0039598653
0.6276425 0.36887258 0.0041130516
0.65611213 0.3696232 0.0007352941
0.67806375 0.37328815 0.00024509805
0.719378 0.36581647 0.0038143385
0.75271523 0.3670994 0.00031020222
0.78042287 0.37245712 0.0019301472
0.8118911 0.36825976 0.0064146756
0.8378677 0.36568624 0.004028799
0.8675743 0.36575133 0.004101563
0.8944394 0.36573222 0.003967525
0.9216568 0.36850488 0.0011029413
0.9485294 0.36652115 0.0
0.97415364 0.3692517 0.0034428618
0.99215686 0.3658088 0.00012254903
0.0 0.39656863 0.0004901961
0.009604781 0.4 0.0035232846
0.035876226 0.3999081 0.004411765
0.06752451 0.4008885 0.005514706
0.10863971 0.40422794 0.00814951
0.1422641 0.4039216 0.006234682
0.18333334 0.40364584 0.004411765
0.23008578 0.40375307 0.008593749
0.2702206 0.40355393 0.008578432
0.3073836 0.40384498 0.0053615198
0.3462929 0.4039216 0.004442402
0.38112745 0.40012255 0.008318015
0.40833336 0.40398282 0.008272059
0.44286153 0.40430453 0.009773284
0.46767768 0.4037684 0.004411765
0.5031863 0.4034314 0.0056066182
0.5328432 0.4019608 0.0073529417
0.5607537 0.40019915 0.0073529417
0.5879902 0.40269607 0.004993873
0.6295037 0.40621936 0.009283088
0.6623162 0.40471813 0.007781863
0.6865809 0.40346202 0.007827819
0.71225494 0.40410537 0.0071384804
0.7532323 0.40632665 0.009589462
0.7810049 0.40355393 0.0013480394
0.8078737 0.40257353 0.003753064
0.8406863 0.4 0.006433823
0.8648591 0.40208334 0.008731618
0.8892157 0.4014706 0.005208334
0.92023593 0.4024663 0.0014552698
0.9484375 0.40382966 0.00088848046
0.97115505 0.40347734 0.000536152
0.9926471 0.40294117 0.003921569
0.0 0.43345588 0.0030637258
0.0056372555 0.43345588 0.0005744486
0.03550092 0.43288144 0.006288297
0.06948147 0.43297717 0.007846967
0.11089154 0.4390778 0.0095435055
0.1443819 0.4382353 0.007896753
0.18638942 0.4355469 0.0069852946
0.22563574 0.43546644 0.0049747247
0.26678923 0.4348652 0.0062193633
0.3020489 0.43762255 0.009570313
0.34189647 0.43662685 0.0063725496
0.38026962 0.43443626 0.00914905
0.4074755 0.438511 0.007843138
0.44369256 0.43977097 0.0076554846
0.47159162 0.43642002 0.0069852946
0.5002642 0.43466222 0.005740656
0.5302696 0.43584558 0.003921569
0.56311274 0.43520984 0.0049402574
0.59195775 0.43583027 0.004457721
0.62757355 0.43479624 0.004591759
0.65663296 0.43967524 0.004028799
0.6913795 0.43533623 0.0077205887
0.71214765 0.4363281 0.00290288
0.7512485 0.43358994 0.0070963544
0.77843136 0.4352941 0.0032781865
0.8061044 0.43688726 0.0028684132
0.8351639 0.43468907 0.0008578432
0.8625001 0.43679917 0.0029411765
0.8900735 0.43578428 0.004779412
0.91862744 0.43493026 0.004779412
0.94795495 0.43696383 0.0065716915
0.97504205 0.43537837 0.004208793
0.99522066 0.42953432 0.0030637258
0.0 0.4647059 0.0012254902
0.0035692402 0.4647059 0.00011488971
0.031096814 0.4647059 0.0017310049
0.06475184 0.4647059 0.003921569
0.110508576 0.46672794 0.0064031864
0.14734988 0.47009805 0.007437194
0.18612134 0.46706495 0.0032322307
0.2280484 0.4647059 0.0035003065
0.264951 0.46764705 0.0048406865
0.30509347 0.46986824 0.005147059
0.3404412 0.463894 0.0014705883
0.37843138 0.4662607 0.002581189
0.40548408 0.4688419 0.006617647
0.44156712 0.46862742 0.006564032
0.47300857 0.4682445 0.005989583
0.5028493 0.46849722 0.005147059
0.53517157 0.46801475 0.005147059
0.56778497 0.46680453 0.007621017
0.59394914 0.4655484 0.0056066182
0.6278416 0.4668122 0.0069852946
0.65824145 0.46740192 0.004411765
0.6866881 0.4700138 0.0077205887
0.7131435 0.4647059 0.009221814
0.7491805 0.46512714 0.007000613
0.77843136 0.46807596 0.0031250003
0.80778944 0.46917126 0.004725797
0.84033394 0.46858147 0.004457721
0.8673637 0.47074905 0.0059283096
0.89436275 0.4681066 0.006617647
0.9229167 0.46899512 0.006617647
0.9497549 0.46790746 0.004427084
0.9779335 0.46984527 0.003921569
0.9933824 0.46078435 0.0
0.0 0.49264708 0.003921569
0.0073529417 0.49583334 0.0019607844
0.03070619 0.49583334 0.0055147065
0.06593137 0.4962814 0.0055147065
0.10882353 0.49742648 0.006387868
0.14838389 0.49667972 0.0060049025
0.1870864 0.49583334 0.0026118262
0.2276463 0.49583334 0.0031211704
0.26884192 0.49877456 0.0068627456
0.3068666 0.49644604 0.009187347
0.3430377 0.49365047 0.005759805
0.37644762 0.49355474 0.0062270225
0.40625006 0.49568015 0.0055147065
0.4405637 0.49940643 0.006533395
0.4734222 0.49743414 0.008946079
0.50483304 0.49583334 0.006897212
0.5384191 0.49779418 0.007046569
0.5655293 0.49742648 0.004867494
0.5924249 0.49692863 0.002826287
0.6277344 0.49742648 0.0041475184
0.65727633 0.49603248 0.0040134806
0.68772215 0.4973767 0.0061772363
0.7177697 0.49433976 0.004166667
0.7571002 0.49608228 0.0073452825
0.7776348 0.49702823 0.005055147
0.8090035 0.49528575 0.0049019614
0.8422718 0.4956342 0.0033471207
0.8697304 0.4978171 0.0034198842
0.89546573 0.49624693 0.0033241422
0.9240197 0.4967716 0.003921569
0.95215225 0.49613205 0.0026271446
0.97818625 0.49727714 0.005215993
0.9960785 0.4935049 0.0031862748
0.0 0.5254902 0.0019607844
0.007904412 0.5329657 0.002144608
0.032230392 0.52977943 0.003921569
0.06452206 0.531924 0.003921569
0.10735294 0.53406864 0.003921569
0.14319853 0.53345597 0.0030024513
0.18529414 0.5302696 0.0019607844
0.23161766 0.5294118 0.0019607844
0.26715687 0.532353 0.0034313728
0.30428922 0.53333336 0.005575981
0.34105393 0.5296569 0.004044118
0.37156865 0.52953434 0.002022059
0.4056373 0.53357846 0.003921569
0.43780637 0.53443635 0.003921569
0.47120097 0.53137255 0.0033088236
0.5044731 0.53137255 0.0027573532
0.53431374 0.532353 0.0029411765
0.56415445 0.5321691 0.0019607844
0.59203434 0.53137255 0.0006127452
0.62910545 0.53290445 0.0
0.6578431 0.53161764 0.0017156864
0.68167895 0.5332721 0.0019607844
0.7177696 0.52953434 0.0020833334
0.7523897 0.5319853 0.0033088236
0.77794117 0.5343138 0.0004901961
0.81078434 0.5300245 0.0012867649
0.84080887 0.5300245 0.0
0.8654412 0.53229165 0.0
0.89117646 0.5325981 0.0012254902
0.92254907 0.5347427 0.0019607844
0.95208323 0.53210783 0.00036764704
0.9764093 0.53492653 0.0035539218
0.99411774 0.53137255 0.003921569
0.0 0.56531864 0.0
0.0061274515 0.5679879 0.0
0.031862747 0.56372553 0.0
0.06442249 0.56625694 0.0
0.10966606 0.5660539 0.0
0.14579888 0.5666667 0.0
0.19092372 0.5636872 0.0
0.23180532 0.5645183 0.0
0.2637255 0.56825984 0.0
0.3056411 0.5705844 0.0
0.34154412 0.56566334 0.0
0.37804076 0.5631855 0.0
0.4079351 0.5691483 0.0
0.44152495 0.56866574 0.0
0.47072607 0.5692402 0.0
0.501348 0.5692402 0.0
0.5325368 0.5669118 0.0
0.5632889 0.56734836 0.0
0.5925169 0.5681449 0.0
0.6309858 0.5688917 0.0
0.6624847 0.56720287 0.0
0.68705964 0.5669118 0.0
0.71544117 0.5714231 0.0
0.7464423 0.56985295 0.0
0.7811581 0.5727635 0.0
0.81023675 0.57022065 0.0
0.83905476 0.5673254 0.0
0.86348045 0.5681488 0.0
0.89212626 0.5692402 0.0
0.92304313 0.5703853 0.0
0.9501225 0.5714308 0.0
0.97441405 0.5709023 0.0
0.9944853 0.57156867 0.0
0.0 0.5953432 0.0
0.0107613355 0.59278494 0.0
0.030177698 0.5938419 0.0
0.067256436 0.59381896 0.0
0.110232845 0.5972733 0.0
0.14297642 0.5974648 0.0
0.18803616 0.59681374 0.0
0.2269608 0.597618 0.0
0.26844364 0.5989584 0.0
0.30597427 0.59926474 0.0
0.34802392 0.5981158 0.0
0.37581956 0.59689033 0.0
0.4056373 0.59911156 0.0
0.44225648 0.5977175 0.0
0.47132352 0.5982537 0.0
0.49975494 0.60086554 0.0
0.53333336 0.59669125 0.0
0.56778497 0.59397215 0.0
0.5931066 0.59757966 0.0
0.6264247 0.60137105 0.0
0.66127455 0.6008885 0.0
0.69060206 0.5955117 0.0
0.71830577 0.6004136 0.0
0.751662 0.5994562 0.0
0.78370106 0.6011642 0.0
0.809015 0.6018383 0.0
0.84113055 0.5987286 0.0
0.8647442 0.6001226 0.0
0.89243263 0.60027575 0.0
0.92397374 0.59732693 0.0
0.95122546 0.5997549 0.0
0.9769608 0.601823 0.0
0.9960785 0.6031863 0.0
0.0 0.6284314 0.0
0.007314645 0.6279412 0.0
0.028837314 0.6319087 0.0
0.065073535 0.63159853 0.0
0.10854779 0.6273744 0.0
0.14014247 0.6307253 0.0
0.18370864 0.6306296 0.0
0.22450984 0.6292892 0.0
0.26139706 0.631587 0.0
0.3061849 0.62976795 0.0
0.3446921 0.6292892 0.0
0.37637484 0.629385 0.0
0.40441176 0.63197 0.0
0.44062883 0.6291016 0.0
0.4701746 0.6289675 0.0
0.50157404 0.6310432 0.0
0.53333336 0.63192403 0.0
0.56560206 0.6309858 0.0
0.58985144 0.6297105 0.0
0.6214461 0.63235295 0.0
0.6557598 0.6332108 0.0
0.6862745 0.63154876 0.0
0.7167356 0.6321615 0.0
0.75296414 0.6292892 0.0
0.77895224 0.6302696 0.0
0.80514705 0.63186276 0.0
0.8372625 0.6292892 0.0
0.864074 0.62974495 0.0
0.89090073 0.6276961 0.0
0.92364806 0.627811 0.0
0.94996166 0.634107 0.0
0.97234607 0.6306411 0.0
0.99301463 0.6301471 0.0
0.0 0.65588236 0.0
0.009191177 0.6596814 0.0
0.03146446 0.66268384 0.0
0.06421569 0.6598805 0.0
0.11348039 0.6602941 0.0
0.15231311 0.66136646 0.0
0.18976717 0.6595282 0.0
0.22794117 0.65931374 0.0
0.26740196 0.6596814 0.0
0.30508578 0.6651808 0.0
0.3429228 0.65974265 0.0
0.37720588 0.6560049 0.0
0.40441176 0.66017157 0.0
0.44269302 0.6612439 0.0
0.47478554 0.658027 0.0
0.50079656 0.6615503 0.0
0.53676474 0.6598039 0.0
0.56458336 0.6598039 0.0
0.5910846 0.6594669 0.0
0.6267004 0.6596967 0.0
0.6557598 0.6598039 0.0
0.68874085 0.6598039 0.0
0.72236526 0.6629902 0.0
0.7526961 0.65931374 0.0
0.7783088 0.6602941 0.0
0.8065411 0.6618873 0.0
0.8390319 0.66081494 0.0
0.8651195 0.66092217 0.0
0.89368874 0.6590074 0.0
0.92287076 0.6591759 0.0
0.95419735 0.6628983 0.0
0.9775736 0.6659467 0.0
0.99558836 0.6627451 0.0
0.0 0.6892157 0.0
0.006238512 0.6893498 0.0
0.031862747 0.68872553 0.0
0.06314721 0.6866077 0.0
0.10899203 0.6893842 0.0
0.15000767 0.6911841 0.0
0.19282323 0.6888634 0.0
0.23721662 0.68553925 0.0
0.274326 0.6883885 0.0
0.30549556 0.68954504 0.0
0.34289217 0.6893536 0.0
0.37720588 0.68553925 0.0
0.40488666 0.6893536 0.0
0.4443206 0.69023824 0.0
0.47264093 0.6930914 0.0
0.5051241 0.69321007 0.0
0.53535545 0.69123787 0.0
0.5652957 0.69159395 0.0
0.58999693 0.6905254 0.0
0.6297105 0.6923062 0.0
0.66300553 0.6898132 0.0
0.68577284 0.69301856 0.0
0.7161612 0.6932522 0.0
0.7532897 0.69373083 0.0
0.78412986 0.6960172 0.0
0.8169539 0.69060594 0.0
0.84207267 0.688917 0.0
0.8695925 0.6911765 0.0
0.8960172 0.68933827 0.0
0.92445624 0.6920688 0.0
0.9556143 0.69015014 0.0
0.97511107 0.68957186 0.0
0.9960785 0.6932598 0.0
0.0036764708 0.7112745 0.003921569
0.01039369 0.71485156 0.0038985908
0.038817402 0.7123009 0.0037683828
0.06927849 0.7146523 0.0050628064
0.115962006 0.7146753 0.0073529417
0.15161613 0.715671 0.0056295963
0.19411768 0.7116269 0.0036764708
0.22703739 0.7140931 0.003837316
0.27040443 0.71525747 0.003921569
0.30857843 0.71540296 0.0041283704
0.34656867 0.71544117 0.004166667
0.37722126 0.71175706 0.0040364587
0.4120098 0.7120098 0.0071384804
0.44450063 0.71544117 0.003117341
0.47230396 0.71544117 0.00016850492
0.5034314 0.7155408 0.0014935664
0.5332108 0.71372557 0.0037990198
0.56531864 0.7116192 0.0015931374
0.5953432 0.7115196 0.0025275736
0.6314951 0.7115196 0.009612438
0.65958947 0.71495104 0.008272059
0.68956804 0.71164215 0.004044118
0.7164063 0.7151809 0.00047487748
0.7546646 0.7155638 0.0044577206
0.78884804 0.7188113 0.006495099
0.8133578 0.7174479 0.0051011033
0.8416667 0.7153033 0.0075674024
0.8676624 0.71335787 0.0038066793
0.89332116 0.7113664 0.002389706
0.92679995 0.71462166 0.0063189343
0.9498622 0.7155331 0.004365809
0.9744868 0.71544117 0.0038985908
0.99975485 0.71495104 0.0036764708
0.0 0.7382353 0.0033088236
0.010163911 0.7427122 0.004166667
0.037400432 0.7435126 0.001853554
0.06958487 0.74921495 0.0053691794
0.11266851 0.7477636 0.0006127451
0.14975874 0.7463657 0.0006127451
0.18703277 0.74414074 0.0006127451
0.22571616 0.74392617 0.0023820465
0.26718754 0.7428309 0.0037683828
0.30419347 0.7449488 0.006713389
0.34285387 0.74546576 0.007804841
0.3755362 0.74476874 0.0033279723
0.41522673 0.74264705 0.003998162
0.44718137 0.74607843 0.004266238
0.4692402 0.74607843 0.0022748164
0.50011873 0.7474227 0.0002489277
0.5316789 0.74773294 0.0019607844
0.5652038 0.74375004 0.0017080271
0.59473044 0.74215686 0.00019148286
0.63136107 0.74215686 0.0025850185
0.6569087 0.74505216 0.006204044
0.6924403 0.74285394 0.0040058214
0.7229167 0.74191177 0.0038832724
0.75610065 0.73884803 0.00279182
0.78333336 0.7414828 0.0011335785
