assets/luts/LUTs/LEICA/LEICA SEP.cube
#Generated by PennL1 - 闲鱼号：LOOK胶片感 公众号：胶片感
TITLE LEICA SEP
LUT_3D_SIZE 33
0.003921569 0.003921569 0.0
0.012867647 0.012867647 0.0057598045
0.024264706 0.024264706 0.024264706
0.030759804 0.029656863 0.025245098
0.043627452 0.039705884 0.02401961
0.052818626 0.048897058 0.033210784
0.061519608 0.05759804 0.041911766
0.07181373 0.067892164 0.057352945
0.08039216 0.07647059 0.068627454
0.09227941 0.08835784 0.08051471
0.105147064 0.101225495 0.09338236
0.11421569 0.11029412 0.09485295
0.13186276 0.12696078 0.116666675
0.1507353 0.1389706 0.11151961
0.16053922 0.14877452 0.12132354
0.17181373 0.16004902 0.13259804
0.18235295 0.17058824 0.14313726
0.19522059 0.18345588 0.15134804
0.20539215 0.19362745 0.15833333
0.21703431 0.2052696 0.16997549
0.22647059 0.21470587 0.17941177
0.23504904 0.22328432 0.1879902
0.24803922 0.23627453 0.2009804
0.26335785 0.2522059 0.21507353
0.27254903 0.2627451 0.21666667
0.29154414 0.27855393 0.23406862
0.29926473 0.2879902 0.24264705
0.31213236 0.30061275 0.25539216
0.32254905 0.3147059 0.2676471
0.33394608 0.32610294 0.27904412
0.34362745 0.33259806 0.29509807
0.3522059 0.3404412 0.30514708
0.36078432 0.34509805 0.30980393
0.009681373 0.009313726 0.014950981
0.015372243 0.015337776 0.01864277
0.029725797 0.03291207 0.013671875
0.038518693 0.039705884 0.021672029
0.05369179 0.04977022 0.03481924
0.06171492 0.057793353 0.046174172
0.07238818 0.06846661 0.06020987
0.08112746 0.07720589 0.06862746
0.09237132 0.088449754 0.07987133
0.102148436 0.09822687 0.0836512
0.115150124 0.11019455 0.09485295
0.13123852 0.12635954 0.10579427
0.14428616 0.13252145 0.10516238
0.16004902 0.14828432 0.121568635
0.16973805 0.15797335 0.13102789
0.18090916 0.16914445 0.14139476
0.19148284 0.17971814 0.15508579
0.20183824 0.19007352 0.16899511
0.2133655 0.20160079 0.17074908
0.22883731 0.21707262 0.1817785
0.23586091 0.2240962 0.18880208
0.24435127 0.23258656 0.19729245
0.25735298 0.24558824 0.21029413
0.2739545 0.26213238 0.22672334
0.28606007 0.275 0.23621325
0.29693246 0.28908932 0.2420305
0.308701 0.30085787 0.25379905
0.31715688 0.30911842 0.26264554
0.32979473 0.32181373 0.27516854
0.3425245 0.33441713 0.28815106
0.35250458 0.34459254 0.29774052
0.36148515 0.35364202 0.3065832
0.3658088 0.3579657 0.3109069
0.031127451 0.027205883 0.011519608
0.038901657 0.03518689 0.019569548
0.046813726 0.04509804 0.030147059
0.0564951 0.05415901 0.041207112
0.068167895 0.06424633 0.056403186
0.07686121 0.07293964 0.065096505
0.0872549 0.08333333 0.071078435
0.09803156 0.09410999 0.078423716
0.106862746 0.10294118 0.087254904
0.11999082 0.11482843 0.09728094
0.13837317 0.12401961 0.10911459
0.1483073 0.13654259 0.10909161
0.15888481 0.1471201 0.12028187
0.1764706 0.16470589 0.14215687
0.1852788 0.1735141 0.14943321
0.19565718 0.18389247 0.15385264
0.2064951 0.1947304 0.16017157
0.21544117 0.20367648 0.16838236
0.22890624 0.21714154 0.18184742
0.23970588 0.22794117 0.19264704
0.2489277 0.237163 0.20186888
0.26139706 0.24963236 0.21433824
0.2738205 0.26269916 0.2252451
0.2914369 0.27866882 0.2407935
0.30459562 0.29197305 0.24730392
0.31213236 0.30428922 0.2572304
0.32189032 0.3140472 0.26698837
0.33075982 0.32122397 0.27924326
0.3411765 0.3321385 0.28866422
0.35204503 0.3419118 0.30172336
0.36470586 0.3550705 0.31040138
0.37757352 0.36825982 0.32193628
0.38014707 0.37083334 0.3245098
0.052573532 0.048651963 0.03517157
0.056966145 0.053837318 0.03862209
0.0627834 0.06731771 0.056655943
0.07156863 0.073724724 0.0632353
0.08402267 0.0801011 0.07005209
0.09304152 0.08911995 0.07855393
0.10232843 0.098406866 0.08408395
0.11591989 0.11055071 0.092313886
0.12622549 0.12009805 0.10110294
0.1437998 0.1329159 0.106786154
0.15507813 0.14331342 0.115862444
0.1666322 0.1548675 0.12741652
0.17843136 0.16666666 0.13851103
0.19068246 0.17891775 0.14582951
0.20100337 0.18923867 0.15722273
0.2115196 0.1997549 0.17009804
0.22150736 0.20974265 0.17726716
0.23214997 0.22038527 0.18509115
0.24311428 0.23134957 0.19605546
0.2542969 0.24339384 0.2055147
0.26678923 0.25612745 0.2175245
0.2785884 0.26792663 0.2293237
0.2889553 0.2807598 0.23387715
0.30666745 0.29406786 0.24938726
0.31617647 0.3080576 0.261826
0.3257238 0.31715688 0.27226946
0.33663452 0.32879138 0.28173256
0.34733072 0.33831573 0.29184285
0.35723042 0.34856007 0.30191484
0.36818704 0.35875845 0.31249237
0.37998623 0.36535695 0.32079506
0.39164752 0.37596124 0.33172104
0.4004902 0.38480392 0.34056374
0.07254902 0.068627454 0.057843138
0.07840074 0.07447917 0.059528187
0.08385417 0.0799326 0.071537994
0.09154412 0.08762255 0.07504596
0.10294118 0.09901961 0.08186275
0.11289828 0.10759804 0.0879136
0.1252451 0.11838236 0.09583333
0.13875613 0.12867647 0.10291054
0.15012255 0.13835785 0.11090687
0.16444546 0.15268075 0.1277114
0.1763174 0.16455269 0.13728555
0.18651961 0.1747549 0.1502451
0.19558823 0.18382353 0.15857843
0.20813419 0.1963695 0.16597734
0.21862745 0.20686275 0.17493874
0.2278033 0.2160386 0.18074448
0.23725492 0.22549018 0.19019608
0.24728861 0.23552391 0.20022978
0.2578738 0.24610908 0.21081495
0.27303922 0.26318935 0.22215073
0.2867647 0.27873775 0.23223038
0.29583335 0.2879902 0.24093139
0.30857843 0.3007353 0.25367647
0.32121632 0.31337318 0.26631436
0.33186275 0.32340688 0.2781863
0.34044117 0.3304841 0.28976718
0.35009193 0.3414216 0.2968444
0.36083028 0.35038298 0.30462623
0.37009805 0.35857844 0.31335786
0.38713235 0.37282473 0.32899818
0.40021446 0.3845282 0.33820468
0.40906867 0.39338237 0.34632355
0.41764703 0.4019608 0.35490197
0.09338236 0.08946079 0.07193628
0.097893685 0.09397212 0.07683823
0.103040755 0.09911919 0.08498009
0.1147327 0.109777115 0.09063266
0.12814033 0.12054229 0.097257964
0.13895911 0.12940794 0.1041705
0.14994639 0.13818169 0.1107307
0.16064262 0.14887792 0.12142694
0.17141545 0.15965074 0.13219976
0.18227252 0.17050782 0.14347044
0.19289981 0.1811351 0.15026808
0.20367646 0.19196922 0.16839768
0.2127451 0.20258884 0.16976103
0.2247549 0.2129902 0.17769608
0.23333333 0.22156864 0.18627451
0.24350491 0.2317402 0.19644609
0.2544118 0.24264705 0.20735294
0.2651731 0.25449985 0.21593139
0.2779412 0.26801473 0.22720587
0.2910003 0.28107384 0.24026501
0.30392158 0.29581803 0.24954045
0.3112094 0.30336627 0.25630745
0.32389706 0.31605393 0.2689951
0.336152 0.32830885 0.28125003
0.34518996 0.33642772 0.28982845
0.35451517 0.3435432 0.29983917
0.3634957 0.35287225 0.31013328
0.3762255 0.3647059 0.31850874
0.38779107 0.37366727 0.32791054
0.40287226 0.38718596 0.34353173
0.41691175 0.40122548 0.35490197
0.4245596 0.41053924 0.35848272
0.4384804 0.41911763 0.36838233
0.11911765 0.11078432 0.08676471
0.12226562 0.11393229 0.08991268
0.13275123 0.1244179 0.10039829
0.14251685 0.13321845 0.108233765
0.15579045 0.14402574 0.11657476
0.16567096 0.15390626 0.12645528
0.17450982 0.16274512 0.13529412
0.18421416 0.17244945 0.14210325
0.19172795 0.17996325 0.1481005
0.20161611 0.18985142 0.15509345
0.21214767 0.20038296 0.16508885
0.22090226 0.20912223 0.18126532
0.2318321 0.21963848 0.17984068
0.24191177 0.23014708 0.19485295
0.25117955 0.23941484 0.20412071
0.26286766 0.25110295 0.21580882
0.27487746 0.2642157 0.22561276
0.2865962 0.2780561 0.23308824
0.29774818 0.28990504 0.2428462
0.31030944 0.3024663 0.25540748
0.32135415 0.313511 0.2664522
0.328485 0.32064188 0.27358305
0.33883274 0.3309896 0.28393078
0.34901962 0.34117648 0.29411766
0.3585784 0.34987745 0.30269608
0.37102482 0.3594133 0.31279105
0.38287377 0.36911768 0.32501534
0.39663756 0.3809513 0.3357307
0.40916055 0.39347428 0.34641546
0.421201 0.40551472 0.35968906
0.43227634 0.41659006 0.36985293
0.4416207 0.42748928 0.37576592
0.45539215 0.43627453 0.38578433
0.14485295 0.13308825 0.10563725
0.1496362 0.13787149 0.1104205
0.15870099 0.14693628 0.119485304
0.16519608 0.15343137 0.12598039
0.17659314 0.16482843 0.13737746
0.18459712 0.17283243 0.14296876
0.19252451 0.18075982 0.14816178
0.20110294 0.18933824 0.1549709
0.20867033 0.19690564 0.16161153
0.2202206 0.20845588 0.17316177
0.23182443 0.21764705 0.18235293
0.23803231 0.22622548 0.1935432
0.24823837 0.23529412 0.19999999
0.2596316 0.24842986 0.21088389
0.2714461 0.26145068 0.21907935
0.28326824 0.27254903 0.2341184
0.2933211 0.28480393 0.23976715
0.3041016 0.29625845 0.2491996
0.3137255 0.30588236 0.25882354
0.3264208 0.31857768 0.27151886
0.33615196 0.32830882 0.28125
0.3447304 0.33688727 0.28982845
0.3560432 0.343053 0.2985677
0.36743644 0.35444626 0.30996096
0.3778799 0.36617646 0.3207108
0.3882353 0.37769607 0.330216
0.4019608 0.38627452 0.34056374
0.4133387 0.39765242 0.3512255
0.42438725 0.41030946 0.35842526
0.43763402 0.4226716 0.37344134
0.4480392 0.43444395 0.38111213
0.4578393 0.44239432 0.39461166
0.46654412 0.45085785 0.40379903
0.16470589 0.15294118 0.1254902
0.16936275 0.15759805 0.13014707
0.17775735 0.16599265 0.13854167
0.18581495 0.17405024 0.14494486
0.19509804 0.18333334 0.15
0.20321691 0.1914522 0.15995711
0.21127452 0.19950981 0.16678922
0.21985294 0.20808823 0.17279412
0.22843137 0.21666667 0.18137255
0.23783702 0.22607231 0.1907782
0.24748775 0.23480392 0.1995098
0.25514707 0.24338235 0.20808823
0.26458335 0.2531863 0.21678922
0.27938116 0.27077207 0.22579657
0.289951 0.2818015 0.23498775
0.3012255 0.29280025 0.24748774
0.31127453 0.3034314 0.25637257
0.32190564 0.3140625 0.2670037
0.33088237 0.32303923 0.2759804
0.3402267 0.33238357 0.28532475
0.3490196 0.33860296 0.29926473
0.35759807 0.34966302 0.30287993
0.3732843 0.35759804 0.31446078
0.38569242 0.37000614 0.3268689
0.39558822 0.38039213 0.3362745
0.40631127 0.39191175 0.34485292
0.41746324 0.40177697 0.35471815
0.4282169 0.41253063 0.3654718
0.43909314 0.4240196 0.37512255
0.45229778 0.43688726 0.38900122
0.4670343 0.44736522 0.39791667
0.47138482 0.45523897 0.4079044
0.47941178 0.4637255 0.4166667
0.18517157 0.17340687 0.13933824
0.18982843 0.17806374 0.1439951
0.19840686 0.18664216 0.15381435
0.2069853 0.19522059 0.16556373
0.21432291 0.2025582 0.16726409
0.22238435 0.21061964 0.17589998
0.23085938 0.21909466 0.1843367
0.2379902 0.2262255 0.19093138
0.24656865 0.23480392 0.1995098
0.2579389 0.24617419 0.21088004
0.26393232 0.2521676 0.21687347
0.27561274 0.26384804 0.22855392
0.28475797 0.27348346 0.23671874
0.29730394 0.2894608 0.24240196
0.30710787 0.29926473 0.2522059
0.31838238 0.31053925 0.26348042
0.32726717 0.31776962 0.27567405
0.33615196 0.32696465 0.28393844
0.34700522 0.33916208 0.29210326
0.35920265 0.3461895 0.29913068
0.36850488 0.353508 0.3109528
0.37708333 0.3626034 0.31891087
0.38733917 0.3716529 0.32851565
0.4032131 0.3875268 0.34438956
0.4147365 0.39905024 0.3549326
0.4237745 0.40808824 0.36102942
0.432621 0.41693476 0.36987594
0.44330195 0.42761564 0.38055682
0.45588237 0.4401961 0.39313728
0.4663718 0.4506855 0.40362668
0.47611827 0.4621247 0.40700063
0.48681447 0.47132355 0.4233341
0.49889708 0.48321077 0.43615195
0.20661765 0.19485295 0.15955883
0.21495098 0.20318627 0.16789216
0.22284007 0.2117647 0.17449449
0.22843139 0.21930912 0.17643996
0.23691791 0.2251532 0.18985908
0.24373469 0.23196998 0.19667587
0.25035232 0.23858763 0.20329352
0.25882354 0.24705884 0.21176471
0.26740196 0.25563726 0.22034314
0.27618718 0.2675245 0.22292432
0.28457415 0.27648592 0.22671568
0.3007353 0.29264706 0.24632353
0.30934438 0.3012868 0.25487134
0.31974572 0.31190258 0.26484376
0.33184743 0.32285538 0.27924326
0.3370328 0.32700676 0.28649664
0.34595588 0.3379902 0.29129905
0.354879 0.34257048 0.29799327
0.36259192 0.35245103 0.3065411
0.37603402 0.36206344 0.31787685
0.38627452 0.37058824 0.32742035
0.40197614 0.38628983 0.34315258
0.4108149 0.39512867 0.34831494
0.41989127 0.40420496 0.35739127
0.43051472 0.41482842 0.36795342
0.44460785 0.42892155 0.38186273
0.45318627 0.43910846 0.38722426
0.46189493 0.447932 0.39570314
0.475337 0.45505515 0.40799633
0.48412225 0.46636796 0.41930914
0.49465382 0.4821538 0.42553616
0.50081193 0.48549327 0.4373315
0.51299024 0.49730396 0.45024514
0.2202206 0.20845589 0.17316177
0.22830883 0.2165441 0.18125
0.23335631 0.2215916 0.18629749
0.24203432 0.23026963 0.1949755
0.25061274 0.23884806 0.20355393
0.2591912 0.24748392 0.21201746
0.2677696 0.25612745 0.22046567
0.2764285 0.26727942 0.22413833
0.29074755 0.27720588 0.23299634
0.2980201 0.28898975 0.24252452
0.30221355 0.2943704 0.24731159
0.31445697 0.30661383 0.259555
0.322932 0.31459865 0.26904106
0.3324487 0.32151502 0.2839729
0.3440334 0.33484223 0.29417893
0.35115275 0.3392655 0.3113243
0.359375 0.3493873 0.31194854
0.3699257 0.36183748 0.3149012
0.37863818 0.36532626 0.32091758
0.39328662 0.37760034 0.33443627
0.40355393 0.38786763 0.34462315
0.41201362 0.403688 0.3567479
0.42464 0.40895373 0.3618949
0.4376034 0.42191714 0.37485832
0.44938725 0.43370095 0.38664213
0.4580078 0.44232154 0.39526272
0.46666667 0.4509804 0.40392157
0.47726336 0.46157706 0.41458333
0.48762256 0.4719363 0.425
0.50465685 0.48333332 0.43630898
0.51037073 0.4933134 0.44595587
0.5211895 0.5087355 0.4510915
0.52634805 0.5142157 0.4555147
0.24215685 0.23039216 0.19509803
0.24644607 0.23468137 0.19938725
0.25211397 0.24034928 0.20505515
0.26361826 0.25199142 0.2162837
0.27254903 0.26127452 0.2245098
0.28089768 0.27123165 0.22964154
0.28921568 0.28137255 0.23431373
0.30004597 0.29220283 0.245144
0.30980393 0.3019608 0.25490198
0.31838235 0.31053922 0.2634804
0.32098654 0.3131434 0.26608458
0.3320006 0.32415748 0.27709866
0.33762258 0.3293505 0.2844363
0.34877452 0.3375 0.30759805
0.35857844 0.3462316 0.31204045
0.36985293 0.35514706 0.31151962
0.37867647 0.3634804 0.31985295
0.3895374 0.3738511 0.33022368
0.4022059 0.3865196 0.3405331
0.41507354 0.39938727 0.35500923
0.4249387 0.40925243 0.36262256
0.4302543 0.414568 0.3675092
0.43915442 0.42346814 0.37640932
0.45416668 0.4384804 0.3914216
0.46274507 0.44705883 0.4
0.47250307 0.45681682 0.409758
0.48354778 0.46786153 0.4208027
0.49266237 0.4769761 0.4320006
0.501777 0.4860907 0.44264707
0.51899517 0.4976716 0.4508732
0.5308824 0.5157169 0.45931372
0.5447917 0.5235601 0.46789217
0.5534314 0.53137255 0.4759804
0.2661765 0.25526962 0.21740195
0.27287838 0.26197153 0.22410385
0.2765089 0.26560205 0.22773437
0.286646 0.2766008 0.23614813
0.29742646 0.28958333 0.24252452
0.30416667 0.29632354 0.24926472
0.31066176 0.30281863 0.2557598
0.31867725 0.31027117 0.26602715
0.3269608 0.3182598 0.27549022
0.33626303 0.32828584 0.28189722
0.34704354 0.33920038 0.29214156
0.3526961 0.34485295 0.29779413
0.3609988 0.3529412 0.3059896
0.36764705 0.35808825 0.31188726
0.377451 0.36789218 0.3214231
0.388377 0.37881818 0.33175936
0.39840686 0.38578433 0.3387255
0.40894607 0.3932598 0.34620097
0.41963083 0.40394458 0.35688576
0.43290058 0.4172143 0.37015548
0.44445467 0.4287684 0.38170958
0.45330885 0.43762255 0.39056373
0.46194085 0.44625458 0.39919576
0.47132355 0.45563728 0.40857846
0.47990197 0.46421567 0.41715685
0.48877528 0.47308898 0.42603016
0.5000077 0.48357078 0.43651196
0.51244646 0.49641162 0.4496132
0.5239737 0.50914526 0.46066177
0.5427735 0.5216912 0.4682713
0.553508 0.53206956 0.4764706
0.55698913 0.5443628 0.48582646
0.56029415 0.54852945 0.4897059
0.28578433 0.2767157 0.23578432
0.29777116 0.28881744 0.24731158
0.29929534 0.2914522 0.2443934
0.3094133 0.30122548 0.25589
0.318413 0.30934435 0.268413
0.32496172 0.31646752 0.27266392
0.3314185 0.32357538 0.27651656
0.3376915 0.32807904 0.28986675
0.34442404 0.3338848 0.30030638
0.3560049 0.34774053 0.302788
0.36151963 0.3513787 0.30546877
0.36989123 0.36197153 0.314951
0.3799939 0.3690257 0.32352942
0.39119944 0.3755132 0.33210784
0.40157783 0.38589156 0.3406863
0.41091454 0.39522827 0.34816945
0.4192402 0.4035539 0.35649508
0.42916667 0.4134804 0.36642158
0.4377451 0.42205882 0.375
0.4514936 0.4358073 0.38874847
0.45916057 0.44347426 0.39641544
0.46740195 0.4517157 0.4046569
0.4762255 0.4606158 0.41332722
0.48886338 0.47382814 0.42366728
0.4995098 0.48137254 0.43370098
0.5085938 0.4917203 0.4417892
0.5210325 0.5042126 0.45347735
0.53190106 0.516345 0.4613128
0.53998166 0.52821696 0.46939337
0.55677086 0.53919274 0.482307
0.56400126 0.55072 0.49240196
0.5784544 0.5633579 0.505645
0.58112746 0.5656863 0.5080883
0.30833334 0.29816177 0.2627451
0.3129902 0.3028876 0.26712623
0.32083333 0.31139705 0.27230394
0.32688037 0.3172373 0.27917817
0.33566177 0.3254902 0.29007354
0.342536 0.3334559 0.29258198
0.34885877 0.34101564 0.29395682
0.35607 0.34822688 0.30116805
0.36344978 0.35560662 0.3085478
0.3747549 0.36422336 0.31850874
0.3817632 0.36636797 0.3230852
0.39026886 0.37909392 0.33210784
0.40110296 0.38541666 0.3406863
0.41019073 0.39450446 0.3492647
0.42009038 0.4044041 0.35734528
0.42822075 0.41253448 0.36547565
0.43774512 0.42205882 0.375
0.4463235 0.43063724 0.38357842
0.45490196 0.4392157 0.39215687
0.4652995 0.4496132 0.4025544
0.47578126 0.460095 0.41303614
0.48610216 0.47195926 0.42027038
0.4935815 0.47784162 0.43014705
0.50980014 0.49216452 0.43652344
0.5228554 0.50012255 0.45229778
0.529339 0.5103018 0.45773593
0.54019606 0.52365196 0.46642157
0.5509804 0.5344363 0.47720587
0.5590227 0.5454657 0.4872396
0.57185966 0.55665976 0.5012714
0.58223045 0.56568635 0.5116422
0.60069317 0.5778187 0.5201096
0.6063726 0.5828432 0.5279412
0.33137256 0.32352942 0.2764706
0.33406863 0.32585785 0.28026962
0.3419118 0.33014706 0.2987745
0.34730393 0.33664218 0.30085784
0.35514706 0.34730393 0.3002451
0.36341912 0.35373774 0.30759805
0.37083334 0.35906863 0.3139706
0.37898284 0.36721814 0.32212013
0.3867647 0.375 0.32990196
0.39816177 0.38308823 0.3379902
0.40735295 0.3916667 0.34656864
0.4159314 0.40024507 0.35318625
0.42450982 0.40882355 0.36176473
0.43265933 0.41740197 0.3690564
0.43970588 0.42536765 0.37426472
0.44908088 0.4333946 0.3863358
0.45882356 0.44313726 0.39607844
0.46740195 0.45171568 0.40465686
0.47463232 0.4589461 0.41188726
0.4841299 0.46844363 0.4213848
0.49485296 0.4791667 0.43210784
0.50937504 0.49178922 0.4390319
0.5185049 0.49865198 0.44742647
0.5329044 0.50937504 0.4550858
0.5426471 0.5200981 0.46960783
0.551777 0.5308211 0.47977942
0.56507355 0.54154414 0.48664218
0.5757966 0.5522672 0.49736524
0.5828432 0.5629902 0.50686276
0.5984069 0.5765319 0.52389705
0.61029416 0.58676475 0.53578436
0.62420344 0.60067403 0.53903186
0.6294118 0.6058824 0.5470588
0.35441178 0.34191176 0.2971814
0.3572572 0.34504443 0.3005438
0.3629902 0.35355392 0.3112745
0.36969212 0.35939413 0.3164254
0.38161764 0.36911765 0.32438725
0.39019608 0.37620252 0.33112746
0.39746478 0.3817785 0.3363128
0.40502453 0.38933825 0.34387258
0.41066176 0.3949755 0.3495098
0.4215686 0.40588236 0.35907245
0.43075982 0.41507354 0.36801472
0.4370098 0.4213235 0.3742647
0.44558826 0.429902 0.38284317
0.4543275 0.43898973 0.3908854
0.46325064 0.4486596 0.39831495
0.47132352 0.45563725 0.40857843
0.47873774 0.46305147 0.41599265
0.48615196 0.4704657 0.42340687
0.49363512 0.47794884 0.43089
0.50659853 0.49273133 0.44021523
0.5206189 0.50114894 0.4532169
0.5328661 0.5094363 0.4623775
0.54313725 0.51960784 0.46470588
0.5524433 0.5289139 0.47401193
0.5647672 0.5412378 0.4863358
0.5749426 0.5514132 0.4965112
0.5866039 0.56307447 0.5081725
0.5959559 0.5724265 0.51752454
0.60782784 0.58429843 0.5293965
0.6229167 0.5993873 0.5411382
0.633701 0.6120634 0.5468291
0.64305687 0.61974573 0.5566445
0.65477943 0.63125 0.5685049
0.37156862 0.3612745 0.3154412
0.3736673 0.36309743 0.31740195
0.38334867 0.37011337 0.32575062
0.392379 0.37845436 0.333678
0.4036458 0.38795957 0.34313726
0.4105392 0.39485294 0.34987748
0.4184283 0.40274203 0.3556832
0.4264706 0.4107843 0.36372548
0.4341299 0.41844365 0.37138483
0.44116116 0.42547488 0.37841606
0.4495098 0.43382353 0.3867647
0.4542509 0.43856466 0.39150584
0.4651042 0.4494179 0.40235907
0.4715916 0.45590532 0.4088465
0.48074448 0.4650582 0.4179994
0.4884804 0.47279412 0.4257353
0.49779415 0.47941178 0.43235296
0.50870866 0.48763022 0.4405714
0.5183824 0.49730393 0.45024508
0.53098196 0.5108609 0.46092984
0.53811276 0.5221201 0.46752453
0.5437117 0.52827054 0.4731235
0.55507046 0.5396293 0.48203126
0.5678233 0.55111825 0.4939415
0.58498776 0.56145835 0.5065564
0.5934896 0.5699602 0.5132047
0.6043199 0.58079046 0.5204963
0.61580884 0.59227943 0.53198534
0.62699145 0.60514706 0.53979784
0.6397289 0.6169577 0.5526272
0.6519455 0.62941176 0.5636795
0.65991884 0.6365043 0.57341456
0.67083335 0.64730394 0.58455884
0.3979167 0.3839461 0.33995098
0.3987324 0.38460094 0.34039906
0.40808824 0.39240196 0.346201
0.4160463 0.40036002 0.35391775
0.42386642 0.40818015 0.361443
0.43382353 0.41813725 0.37153417
0.44067863 0.42499235 0.37793353
0.44590613 0.43021983 0.383161
0.45343137 0.4377451 0.39068627
0.461286 0.44559973 0.3985409
0.4697304 0.4540441 0.40698528
0.47738203 0.46169576 0.41463694
0.4837163 0.46803004 0.42097118
0.49154413 0.47585782 0.428799
0.5020374 0.48443627 0.43737745
0.51482844 0.49301472 0.4459559
0.5207721 0.5026961 0.45104167
0.52904415 0.5147059 0.4584559
0.53710943 0.5227712 0.46652114
0.5477941 0.5334559 0.4772059
0.5557292 0.5436428 0.48514092
0.5632621 0.5514974 0.4926739
0.5790441 0.55808824 0.50232846
0.5926586 0.57130057 0.5156748
0.6078125 0.5842831 0.52938116
0.6140932 0.59372324 0.535072
0.62572765 0.60736823 0.54289985
0.63706344 0.61353403 0.55078894
0.64843756 0.6254443 0.5610907
0.65772825 0.6344401 0.57097125
0.6663833 0.6503217 0.5850873
0.67789906 0.65523136 0.592199
0.68982846 0.66629905 0.60355395
0.41764706 0.40196082 0.3553922
0.42492342 0.40923712 0.36262253
0.42974877 0.4140625 0.36700368
0.43636644 0.42068014 0.3736213
0.44724265 0.43155637 0.38449755
0.45451897 0.43883273 0.3917739
0.45906863 0.44338235 0.39632353
0.4656097 0.44992343 0.4028646
0.4714461 0.4557598 0.40870097
0.47916666 0.46348038 0.41642156
0.49417895 0.47205883 0.425
0.49641547 0.4805147 0.43345588
0.5074142 0.48572305 0.43866423
0.5129902 0.49805456 0.4487439
0.5240196 0.5082414 0.4519608
0.5379902 0.5144608 0.4605392
0.54607844 0.5232843 0.46862745
0.5544577 0.53239894 0.47700673
0.55818015 0.5431986 0.48544732
0.5675245 0.5557598 0.4969363
0.5829657 0.56219363 0.5063726
0.592402 0.57034314 0.514951
0.6022059 0.57867646 0.5233456
0.614614 0.5910846 0.5303922
0.6247549 0.6012255 0.5446079
0.63553923 0.61251533 0.55024517
0.64754903 0.6248468 0.561826
0.6584559 0.6349265 0.5721814
0.6679535 0.6444241 0.581679
0.68030024 0.6567708 0.59402573
0.6897059 0.6673714 0.60422796
0.69872856 0.675337 0.61254597
0.71127456 0.6877451 0.625
0.43480393 0.41911766 0.37205884
0.4430147 0.42732844 0.38026962
0.44730395 0.43161765 0.38455883
0.45379904 0.43811277 0.39105394
0.46377146 0.4480852 0.40102637
0.46991804 0.45423177 0.40717295
0.4762255 0.46053922 0.4134804
0.48308823 0.46740198 0.42034316
0.48872548 0.47303924 0.4259804
0.49952894 0.48384267 0.43678385
0.5089308 0.49301472 0.4459559
0.521201 0.49790904 0.45085022
0.53356314 0.51006436 0.46205577
0.5420343 0.51877683 0.46403953
0.54950213 0.5262255 0.4712393
0.55718064 0.53365123 0.47874922
0.5623162 0.54448533 0.48768383
0.5651961 0.55306375 0.49436277
0.5788297 0.55911463 0.5029412
0.5927696 0.56960785 0.51458335
0.59909624 0.5756128 0.5206955
0.614591 0.5910616 0.52879906
0.62293965 0.6001226 0.54449296
0.6251034 0.61297107 0.5464652
0.63976717 0.62573534 0.5574755
0.65698534 0.635949 0.56572455
0.665671 0.6421416 0.5793965
0.672304 0.6548292 0.5900659
0.68386954 0.664614 0.60044426
0.6981617 0.6773629 0.6064262
0.7078431 0.6881128 0.61397064
0.7198645 0.6966912 0.63287765
0.7251226 0.7015931 0.63884807
0.45220593 0.43651962 0.3894608
0.45984986 0.4441636 0.39712775
0.46181065 0.4461244 0.39931068
0.4705193 0.45483306 0.40905333
0.47882965 0.46314338 0.42000613
0.48553157 0.4698453 0.4249847
0.492019 0.47633272 0.431587
0.50531554 0.48496476 0.43877143
0.51366425 0.49638483 0.4485907
0.51863515 0.50257355 0.45808822
0.5267157 0.51053923 0.46321997
0.5316024 0.51910233 0.46052387
0.54059434 0.5268076 0.4686581
0.5561428 0.5333487 0.4782016
0.56778497 0.54476106 0.48969057
0.5756127 0.5520833 0.4971814
0.5817402 0.5582108 0.50306374
0.5925245 0.5689951 0.513894
0.6 0.5764706 0.52123165
0.6136719 0.5901425 0.5290059
0.62380517 0.60027575 0.5439645
