assets/luts/LUTs/LEICA/LEICA BLE.cube
#Generated by PennL1 - 闲鱼号：LOOK胶片感 公众号：胶片感
TITLE LEICA BLE
LUT_3D_SIZE 5
0.078431375 0.09411765 0.10980392
0.2009804 0.10784314 0.11862746
0.3509804 0.12941177 0.1392157
0.4882353 0.15294118 0.15392157
0.6392157 0.16470589 0.18039216
0.10980392 0.25784314 0.13431373
0.3031863 0.3012255 0.1632353
0.47107846 0.3254902 0.18480393
0.64411765 0.35955882 0.21838236
0.8 0.39215687 0.24411765
0.13529412 0.45294118 0.18235295
0.34264708 0.5039216 0.20441177
0.5686275 0.5372549 0.23627451
0.7544118 0.5867647 0.28382355
0.927451 0.63725495 0.33333334
0.18039216 0.6519608 0.23235294
0.34632355 0.6877451 0.25931373
0.60833335 0.7357843 0.29705882
0.8129902 0.7710784 0.35343137
0.9852941 0.82549024 0.42058825
0.3254902 0.8509804 0.27058825
0.3607843 0.85 0.28921568
0.6039216 0.88235295 0.34509805
0.84411764 0.92352945 0.40980393
0.9960785 0.9607843 0.4862745
0.092156865 0.09803922 0.20490196
0.22401962 0.11348039 0.24044117
0.3779412 0.13137256 0.2627451
0.55980396 0.15294118 0.3029412
0.7607843 0.1754902 0.3607843
0.106862746 0.26936275 0.30857846
0.28553924 0.31164217 0.31960785
0.4704657 0.33210784 0.3389706
0.6534927 0.37003678 0.3680147
0.8426471 0.43137255 0.42794117
0.124019615 0.46666664 0.35588235
0.3314951 0.5229167 0.38112745
0.56911767 0.5536765 0.4031863
0.7644608 0.59877455 0.43762258
0.9436275 0.66176474 0.49313727
0.13308825 0.65906864 0.3987745
0.3550858 0.7172182 0.42414215
0.6229167 0.7547794 0.4550245
0.8174632 0.78223044 0.49246323
0.98823535 0.83946085 0.55171573
0.16862746 0.84313726 0.42549017
0.39656866 0.87279415 0.4343137
0.62205887 0.90588236 0.4754902
0.8522059 0.93357843 0.53455883
0.9882353 0.9656863 0.6029412
0.09411765 0.11176471 0.3019608
0.22303921 0.11960785 0.3485294
0.40490198 0.12843138 0.40490198
0.60539216 0.14460784 0.4622549
0.8509804 0.1627451 0.54901963
0.11127451 0.26029414 0.40931374
0.28517157 0.30441177 0.44595587
0.4875 0.31127453 0.4897059
0.69252455 0.34852943 0.5354167
0.9102942 0.4083333 0.61372554
0.116666675 0.46666667 0.54019606
0.30392158 0.5281863 0.5644608
0.5588236 0.5632353 0.5803922
0.76029414 0.6051471 0.604902
0.95686275 0.6843137 0.66078436
0.1254902 0.6686275 0.6019608
0.3344363 0.7308824 0.6193628
0.6193627 0.77843136 0.6387255
0.81519616 0.7973039 0.6567402
0.98774505 0.85882354 0.702451
0.111764714 0.845098 0.61960787
0.3387255 0.8882353 0.62205887
0.65588236 0.9284314 0.6421569
0.86715686 0.9568627 0.68284315
0.99215686 0.97450984 0.72745097
0.105882354 0.11862746 0.40980393
0.22107843 0.13259804 0.45563728
0.40931374 0.13627452 0.51911765
0.64191175 0.13333334 0.60171574
0.890196 0.13627452 0.7058823
0.1122549 0.23455882 0.47843134
0.24454658 0.25943628 0.5280637
0.4449755 0.25796568 0.5813726
0.69712013 0.25251228 0.6651961
0.93578434 0.2987745 0.7583333
0.11813726 0.41029412 0.6058824
0.26188728 0.45772058 0.6469363
0.50171566 0.49215686 0.6735294
0.7623775 0.4957108 0.7466912
0.96911764 0.56911767 0.8117647
0.105147064 0.66102946 0.74313736
0.30667892 0.7264094 0.7742647
0.579902 0.7735294 0.7882353
0.803125 0.79601717 0.7936887
0.98774505 0.8534314 0.8321079
0.08921569 0.8539216 0.78627455
0.31936276 0.90808827 0.7980392
0.64607847 0.9480392 0.8122549
0.87328434 0.9688726 0.8242647
0.9960785 0.9852941 0.85
0.10980392 0.13333334 0.49411765
0.22254902 0.1382353 0.5441177
0.40980393 0.14117648 0.60784316
0.6637255 0.13235295 0.70490193
0.8980392 0.11764707 0.8039216
0.11372549 0.22156863 0.54607844
0.21470588 0.22990197 0.58921576
0.40245098 0.21960784 0.64950985
0.68063724 0.2009804 0.744853
0.93235296 0.18627451 0.85
0.11960785 0.3509804 0.63529414
0.21666667 0.37058824 0.6656863
0.40882355 0.37156865 0.70980394
0.68088233 0.3539216 0.79656863
0.9686275 0.3490196 0.90196085
0.10882353 0.56372553 0.7764706
0.25343138 0.61838233 0.80049014
0.45931372 0.6308824 0.8240196
0.6963235 0.6392157 0.8379902
0.982353 0.64117646 0.92352945
0.08235294 0.8352942 0.90196085
0.30490196 0.9009805 0.9137255
0.6294118 0.9529412 0.92156863
0.8637255 0.97745097 0.92647064
0.99215686 0.99215686 0.93333334
