assets/luts/LUTs/LEICA/LEICA SLV.cube
#Generated by PennL1
#小红书号：PennL1
#公众号：胶片感
#闲鱼号：LOOK胶片感
TITLE LEICA SLV
LUT_3D_SIZE 9
0.011764706 0.0 0.015686275
0.2004902 0.0053921575 0.02254902
0.36176473 0.015686275 0.03137255
0.48137254 0.024509804 0.04019608
0.57450986 0.039215688 0.058823533
0.6529412 0.047058824 0.05784314
0.74803925 0.0627451 0.07254902
0.84362745 0.07156863 0.0754902
0.9294118 0.08627451 0.101960786
0.025 0.19264707 0.018627452
0.2052696 0.20355392 0.03425245
0.3605392 0.2007353 0.03897059
0.47224265 0.19558825 0.048897058
0.5642157 0.20318627 0.054656863
0.6526348 0.20968138 0.061948534
0.7480392 0.22058824 0.075
0.84178925 0.22898285 0.08719363
0.93039215 0.25 0.101960786
0.046078432 0.3647059 0.039215688
0.21237746 0.37352943 0.044362746
0.36642158 0.3737745 0.05245098
0.47879902 0.36335784 0.06151961
0.56568635 0.3529412 0.064705886
0.6525735 0.35612744 0.07058824
0.7458334 0.36642158 0.08063726
0.8376225 0.38100493 0.09387255
0.92647064 0.4009804 0.10882353
0.067156866 0.477451 0.0627451
0.22285539 0.48186272 0.07536765
0.37377453 0.48125 0.078799024
0.48529413 0.477451 0.08131128
0.57058823 0.4642157 0.08897059
0.6628064 0.45447308 0.09620098
0.7465687 0.45747548 0.099509805
0.8457721 0.46568626 0.11550246
0.94068635 0.48088235 0.1264706
0.09019608 0.5686275 0.0882353
0.23480392 0.57181376 0.0882353
0.3720588 0.57156867 0.09117647
0.47720587 0.57303923 0.09803922
0.57254905 0.57058823 0.101960786
0.6625 0.5593138 0.10784314
0.7495098 0.5539216 0.113235295
0.84387255 0.5553922 0.12156863
0.9392157 0.5666667 0.12941177
0.105882354 0.6642157 0.10490196
0.25306374 0.6621324 0.10030638
0.37916666 0.6637255 0.10735294
0.47095588 0.6688726 0.11072304
0.56936276 0.66813725 0.11764706
0.6645833 0.66813725 0.1283701
0.75085783 0.65931374 0.12450981
0.8511642 0.64748776 0.12794119
0.94754905 0.652451 0.14068627
0.12745099 0.75 0.12941177
0.27450982 0.7550245 0.13333336
0.39362746 0.7546569 0.1389706
0.4892157 0.754902 0.13639706
0.57058823 0.7563726 0.14362746
0.6680147 0.7588235 0.1454657
0.76642156 0.7612745 0.14436275
0.8647059 0.74509805 0.14779413
0.9529412 0.732353 0.15294118
0.14901961 0.85637254 0.1397059
0.29693627 0.86084557 0.13909315
0.41948527 0.86360294 0.1397059
0.5044118 0.8637255 0.14509805
0.58137256 0.8688725 0.14362746
0.66311276 0.8693015 0.14773285
0.7669118 0.8718137 0.15232843
0.87261033 0.8686887 0.15447305
0.97107846 0.8602941 0.16176471
0.15686275 0.9607843 0.15686275
0.3122549 0.9647059 0.1514706
0.43137255 0.9676471 0.14901961
0.5205883 0.9686275 0.15294118
0.59803927 0.97058827 0.16078432
0.6769608 0.9691177 0.15735295
0.7529412 0.9735294 0.15784314
0.8671569 0.9740196 0.16470589
0.98431367 0.98431367 0.17254902
0.073529415 0.08186275 0.26764706
0.2129902 0.028063728 0.22322303
0.3639706 0.025 0.20906864
0.4811887 0.029718138 0.20949756
0.57181376 0.040686276 0.2134804
0.6602941 0.04834559 0.21844363
0.7536765 0.05796569 0.23394608
0.84607846 0.0721201 0.24381128
0.9348039 0.08235294 0.26568627
0.099693626 0.2707108 0.27297795
0.20947458 0.20995711 0.21961552
0.3596201 0.20212929 0.21355699
0.4727405 0.19956341 0.20794271
0.5645527 0.19969362 0.20658702
0.6571615 0.20157017 0.2102788
0.74483764 0.21145833 0.21539523
0.8410846 0.22041206 0.23314187
0.9318628 0.22775736 0.23927698
0.1069853 0.40735295 0.25367647
0.2122549 0.36876532 0.20338541
0.3660233 0.37052697 0.21559437
0.47519916 0.36271447 0.2095435
0.5653799 0.35404414 0.21017157
0.6517923 0.35326287 0.21161152
0.74304533 0.35738358 0.21547182
0.84100795 0.37153798 0.2279565
0.93235296 0.383701 0.25208333
0.12616423 0.51176476 0.2712623
0.23228401 0.4831112 0.24227175
0.3707261 0.4810968 0.23468138
0.48198527 0.47889858 0.23637408
0.5722427 0.46574757 0.22935049
0.66090685 0.4577436 0.23311888
0.749663 0.4602941 0.24064033
0.8465993 0.4700521 0.25286457
0.93541664 0.4822304 0.26605394
0.14166668 0.59877455 0.28308824
0.23394608 0.57273287 0.23020834
0.36599267 0.5743873 0.23835784
0.4782782 0.57500005 0.23893997
0.57683825 0.5715686 0.24289218
0.6651348 0.5619792 0.2381434
0.7502451 0.5561887 0.23915441
0.8463542 0.56295955 0.25793505
0.9438726 0.5713235 0.27034315
0.15257354 0.6753064 0.28480393
0.24700522 0.661466 0.23792893
0.37084866 0.66478246 0.24183518
0.47928154 0.663894 0.24509038
0.5720282 0.6654412 0.25110295
0.6613051 0.666682 0.2523514
0.75635725 0.66170347 0.2535233
0.85234374 0.6578508 0.26089156
0.946875 0.6626226 0.26335785
0.1747549 0.7709559 0.3112745
0.266345 0.75958943 0.276394
0.39292282 0.7586704 0.27423406
0.49188113 0.7575521 0.27057293
0.5790441 0.7597426 0.2760417
0.6717831 0.76213235 0.27363667
0.7680453 0.764277 0.27889094
0.86490506 0.7572917 0.28613666
0.9604167 0.7459559 0.2839461
0.19362745 0.86286765 0.32610294
0.2785386 0.8591069 0.2728171
0.4053309 0.8640932 0.27284008
0.50288 0.8629289 0.27002913
0.5874694 0.864951 0.275337
0.6726639 0.86801475 0.27434132
0.7699755 0.8699755 0.28302696
0.8719746 0.8730699 0.28849572
0.97015935 0.8657476 0.29105392
0.20980392 0.9583333 0.35735294
0.29319856 0.96433824 0.27867648
0.41691178 0.9658088 0.28333336
0.51752454 0.97107846 0.28535542
0.60171574 0.969853 0.289951
0.6815564 0.9748775 0.29068628
0.7670343 0.97316176 0.29375002
0.8695466 0.9755515 0.29172796
0.9877451 0.9931373 0.31176472
0.1254902 0.15294118 0.45980394
0.24240196 0.084803924 0.41776958
0.3644608 0.034803923 0.3754902
0.4810049 0.03504902 0.36887255
0.56960785 0.04411765 0.35637257
0.65968144 0.05122549 0.3607843
0.7517157 0.06029412 0.36691177
0.8481618 0.0752451 0.37634805
0.9372549 0.08529412 0.39803925
0.14730392 0.30735296 0.45661765
0.23929228 0.24856004 0.40776655
0.36099875 0.203125 0.3697304
0.47830883 0.1977788 0.35931373
0.5678309 0.19791666 0.3545956
0.6564338 0.20026042 0.351731
0.74552697 0.20824142 0.35272673
0.84085476 0.22035846 0.3665135
0.9303922 0.22634804 0.3819853
0.1754902 0.4583333 0.45441177
0.25787377 0.405913 0.39647672
0.35925245 0.3711397 0.3569853
0.4755515 0.3633885 0.35778186
0.56568635 0.3584559 0.34803927
0.650429 0.35137868 0.34322917
0.74454665 0.35238972 0.34466913
0.8394915 0.36231616 0.3530944
0.9316176 0.37107843 0.3737745
0.18553922 0.53970593 0.44865197
0.2691636 0.5117188 0.41383272
0.3744179 0.48204654 0.38462013
0.48390013 0.47608763 0.38037685
0.5729167 0.46537992 0.37064952
0.6630668 0.45796567 0.36608458
0.7495711 0.45738357 0.36703432
0.84666055 0.46648282 0.37605697
0.9367647 0.47230393 0.3865196
0.18725489 0.6181373 0.4406863
0.26819855 0.594179 0.4007966
0.36875 0.5732843 0.3727941
0.48284313 0.5746937 0.3768995
0.5762255 0.57254905 0.3720588
0.6668505 0.56660545 0.36924022
0.7540442 0.5622549 0.37438726
0.84761035 0.5669118 0.3810049
0.9426471 0.57205886 0.39068627
0.1997549 0.69644606 0.43713236
0.2753217 0.6783395 0.39603245
0.3729167 0.6626226 0.36642158
0.47599572 0.66508883 0.3725337
0.57389706 0.6655025 0.37414214
0.6643076 0.6639093 0.37688416
0.75870097 0.66032475 0.3803615
0.84814644 0.6615962 0.382307
0.94963235 0.66813725 0.3944853
0.21862745 0.78063726 0.46029413
0.2969363 0.7663909 0.42726716
0.39056373 0.7565564 0.3925245
0.48946077 0.75677085 0.39034927
0.58382356 0.7585785 0.39669117
0.6758885 0.76400125 0.39905027
0.7706495 0.76384807 0.39914215
0.8678003 0.76210177 0.40628064
0.9610294 0.75735295 0.4134804
0.2322304 0.8745098 0.4754902
0.30842528 0.86488974 0.4250766
0.4000613 0.86268383 0.39632356
0.50133276 0.86539525 0.39557293
0.5918505 0.8668505 0.39417893
0.6794118 0.86622244 0.39647675
0.77398896 0.8713235 0.40738356
0.8767157 0.8735601 0.40965074
0.972549 0.8709559 0.4127451
0.25196078 0.972549 0.5029412
0.32659313 0.9689951 0.44705883
0.41421568 0.9676471 0.40955883
0.51629907 0.96973044 0.4090686
0.607353 0.96911764 0.40980393
0.691054 0.97291666 0.41017157
0.775 0.9757353 0.41446078
0.8796568 0.9779412 0.41740197
0.98725486 0.99215686 0.43333334
0.15686275 0.19656864 0.57843137
0.25955886 0.12806374 0.53872555
0.37291667 0.07536765 0.50551474
0.47745097 0.043627452 0.484375
0.5688726 0.045588236 0.46299016
0.65814954 0.05490196 0.45575982
0.752451 0.06678922 0.46139705
0.84950984 0.07714461 0.4675245
0.9372549 0.08676471 0.48088235
0.17224266 0.33811277 0.56274515
0.25503215 0.274709 0.53290445
0.36845896 0.23068322 0.5046263
0.4692402 0.20219822 0.47778034
0.56553316 0.2013174 0.46544117
0.65363824 0.2067785 0.459375
0.7427083 0.20818014 0.45813417
0.83992034 0.21881129 0.47117034
0.9317402 0.23265933 0.47990197
0.20208333 0.47242644 0.5666667
0.2796569 0.42159927 0.5223653
0.3740196 0.38376227 0.48955268
0.4735141 0.3622396 0.46917892
0.56593144 0.35539216 0.4610294
0.65312505 0.3528799 0.45315564
0.7443322 0.35413605 0.4512868
0.83933824 0.35845587 0.45802698
0.92916673 0.36960787 0.47401965
0.22371323 0.55600494 0.5685662
0.2954504 0.52946544 0.53923106
0.3884191 0.4957261 0.508364
0.48153338 0.47658545 0.48336396
0.56942403 0.46789217 0.4786152
0.6610371 0.45913756 0.47384346
0.7460325 0.4574755 0.4720435
0.84456956 0.46566328 0.47443324
0.9333946 0.46868873 0.47830883
0.2262255 0.6357843 0.56323534
0.29935664 0.6108149 0.52821696
0.3903799 0.5883578 0.5008579
0.48054534 0.5744792 0.48244488
0.5769608 0.57254905 0.48137257
0.6653186 0.56541055 0.47889093
0.75435054 0.56170344 0.4759804
0.84776354 0.5656863 0.48146445
0.9470588 0.57303923 0.4862745
0.22536765 0.711826 0.55049026
0.30615047 0.6920343 0.5151348
0.39175856 0.6775123 0.49574143
0.4779565 0.6654948 0.47698376
0.57607234 0.6650429 0.47806373
0.668076 0.6643306 0.4766927
0.7547947 0.6640625 0.47352946
0.8522748 0.6633961 0.48090532
0.95251226 0.67248774 0.49564952
0.24044117 0.7895833 0.55098045
0.32132354 0.77515316 0.5375613
0.40563726 0.76632965 0.51038605
0.49223346 0.75945157 0.49903497
0.583027 0.75955886 0.49577206
0.67651653 0.7616115 0.49632353
0.769761 0.76197916 0.49843752
0.8666973 0.76591605 0.5047948
0.9620098 0.7644608 0.5058824
0.2536765 0.8803921 0.56936276
0.3334329 0.873675 0.54083186
0.41732538 0.86507356 0.513649
0.4964997 0.86439955 0.4911152
0.592739 0.8657782 0.4991728
0.68129593 0.8687117 0.49863666
0.7759957 0.8704504 0.50376844
0.8779182 0.87470895 0.50821847
0.975 0.8730392 0.51029414
0.26372552 0.9691177 0.5833334
0.34577206 0.9686275 0.5529412
0.42867646 0.9686275 0.5264706
0.5098652 0.9686888 0.5053922
0.604902 0.97107846 0.50808823
0.69761026 0.97297794 0.514277
0.7876226 0.97659314 0.514951
0.8836397 0.98272055 0.5171569
0.9872549 0.9882353 0.52156866
0.17058824 0.21960784 0.6509804
0.27279413 0.16470589 0.6313726
0.38333333 0.11372549 0.6112745
0.47352946 0.07745098 0.5860294
0.5676471 0.052941177 0.57156867
0.65637255 0.058333337 0.56078434
0.74803925 0.06764706 0.5416667
0.84558827 0.08161765 0.54828435
0.9313726 0.09019608 0.56078434
0.19632353 0.35808825 0.65882355
0.2715993 0.29926473 0.62622553
0.37518382 0.25520834 0.6012255
0.46789217 0.22325368 0.580576
0.55980396 0.20367646 0.56580883
0.65251225 0.20533088 0.5562806
0.7430147 0.21323529 0.548223
0.8426471 0.22123162 0.5535846
0.9281863 0.22941175 0.5654412
0.21715686 0.47549018 0.6495098
0.2909314 0.43229166 0.61691177
0.3817402 0.40036765 0.59681374
0.47493875 0.37536764 0.5740196
0.5617647 0.35490197 0.55955887
0.6527574 0.35422796 0.55496323
0.74595594 0.3557598 0.5474265
0.8391544 0.35906863 0.55140936
0.93333334 0.37598038 0.56372553
0.23602942 0.5585785 0.65563726
0.31151962 0.5332721 0.63060665
0.39797795 0.50183827 0.6052696
0.4863971 0.47791058 0.5851716
0.56985295 0.46776962 0.577451
0.6619179 0.46155024 0.56743264
0.7520833 0.46115196 0.567402
0.8483763 0.4658088 0.56878066
0.93578434 0.46936274 0.57254905
0.25 0.6490196 0.6519608
0.32683825 0.62144613 0.627451
0.4117647 0.6004902 0.60465693
0.49203432 0.58406866 0.59080887
0.5735295 0.5710784 0.575
0.66593134 0.567402 0.5707108
0.754902 0.56593144 0.5710784
0.84950984 0.56495106 0.5729167
0.94411767 0.57058823 0.5764706
0.2509804 0.7220589 0.6338235
0.33210784 0.70735294 0.6215687
0.41390932 0.688848 0.5966912
0.49298406 0.674663 0.5860294
0.5776961 0.6683824 0.57034314
0.66660535 0.66835177 0.5691483
0.76004905 0.66764706 0.56917894
0.8544117 0.666636 0.57101715
0.9531863 0.67083335 0.5833334
0.27009803 0.79558825 0.6519608
0.34375 0.7898897 0.6308211
0.42475492 0.77365196 0.6132353
0.50735295 0.7660539 0.6009804
0.5855392 0.7605393 0.5882353
0.68057597 0.7620711 0.5928309
0.77316177 0.7651961 0.59387255
0.86556375 0.76617646 0.5911765
0.9656863 0.76862746 0.59852946
0.27549022 0.88725495 0.64632356
0.35143995 0.87913597 0.6297182
0.43406862 0.87230396 0.61366427
0.51038605 0.8694547 0.59675246
0.5926471 0.8672794 0.5888481
0.68342525 0.87025124 0.5885723
0.7810662 0.87261033 0.59405637
0.87604165 0.87763476 0.597304
0.97205883 0.87745094 0.59877455
0.28627452 0.97058827 0.6686275
0.35955885 0.97058827 0.6392157
0.44215685 0.97058827 0.62254906
0.52205884 0.97426474 0.6071079
0.6039216 0.97352946 0.6009804
0.69558823 0.9747549 0.6034314
0.7877451 0.97794116 0.602451
0.8860294 0.98431367 0.6044118
0.9882353 0.9882353 0.61372554
0.19656864 0.25049022 0.7318628
0.2933211 0.19558825 0.7161765
0.38860297 0.14595589 0.70257354
0.4743873 0.1127451 0.6877451
0.5664216 0.092156865 0.6843137
0.659375 0.0666054 0.6620711
0.75061274 0.071078435 0.6550245
0.8466912 0.084987745 0.6398897
0.9372549 0.09411765 0.64460784
0.21452206 0.37628675 0.73198533
0.2851716 0.32454813 0.7114584
0.38213846 0.2813113 0.6888634
0.47781098 0.25058976 0.68115807
0.5604167 0.23075981 0.6704657
0.65150887 0.21186428 0.6554611
0.7452513 0.21746324 0.6493873
0.83789825 0.22873774 0.64069396
0.9282476 0.23872548 0.64087015
0.23235296 0.48835784 0.721201
0.30579045 0.45182294 0.7091759
0.39160538 0.41565564 0.6844669
0.47962624 0.38636643 0.6728094
0.5640319 0.37389708 0.66023284
0.6511183 0.3543352 0.6428156
0.7435663 0.3568321 0.64218754
0.8438419 0.3644914 0.64341307
0.92855394 0.37610292 0.6477941
0.24797794 0.5701593 0.7348652
0.32394302 0.53894764 0.71629137
0.4083793 0.5073377 0.6971048
0.4860524 0.4880285 0.6830653
0.57441795 0.4735601 0.67362136
0.6598116 0.4591299 0.6612592
0.75332415 0.46155024 0.66165745
0.8478018 0.46599263 0.66454506
0.94417894 0.47352943 0.6620711
0.264951 0.6507353 0.73382354
0.3382966 0.62689954 0.71709555
0.4223652 0.6082721 0.69730395
0.4985907 0.5898591 0.68529415
0.57573533 0.5762255 0.6716912
0.6616422 0.5693934 0.66286767
0.7545956 0.5658089 0.6630514
0.85186887 0.5676471 0.6637255
0.9490196 0.57254905 0.67083335
0.2844363 0.73774517 0.73259807
0.35290292 0.71605396 0.7150506
0.43687195 0.7011949 0.69393384
0.51385576 0.68907785 0.688603
0.58716303 0.67815566 0.67368263
0.6681909 0.6688879 0.6668505
0.75727636 0.6677543 0.6637102
0.8539981 0.6722809 0.66590846
0.9533701 0.67248774 0.6720588
0.29007354 0.8040441 0.7370098
0.36257663 0.795527 0.72306985
0.4436581 0.7853248 0.7142157
0.52107847 0.7763174 0.7008578
0.59803927 0.77107847 0.6930147
0.67722124 0.76542586 0.68333334
0.7757047 0.7673713 0.6831189
0.86681986 0.7695466 0.68753064
0.9651961 0.77279407 0.68713236
0.2897059 0.88933825 0.7257966
0.366322 0.88823533 0.71518844
0.44754905 0.8781556 0.70329356
0.5259881 0.87572765 0.697909
0.6005515 0.8745098 0.68780637
0.68361676 0.8728554 0.6848805
0.7807598 0.87660843 0.6855392
0.8789752 0.87848496 0.68559283
0.9789216 0.8838235 0.69460785
0.30539218 0.972549 0.73921573
0.3745098 0.972549 0.71991426
0.45870098 0.9737745 0.70955884
0.5328432 0.972549 0.7109069
0.61299026 0.972549 0.702696
0.69552696 0.9764706 0.6921569
0.7921569 0.97843134 0.6908089
0.88609064 0.9828431 0.6960784
0.9911765 0.9955883 0.71176475
0.21960784 0.28039217 0.8186275
0.31176472 0.22267157 0.8041667
0.40784317 0.17034315 0.78553927
0.4857843 0.14669117 0.779902
0.5612745 0.1264706 0.7686275
0.65232843 0.10073529 0.76139706
0.7507353 0.08014706 0.7490196
0.84889704 0.087254904 0.7411765
0.9362745 0.09509804 0.7294118
0.23700981 0.40526962 0.8162991
0.30635726 0.3471201 0.8024969
0.4023897 0.30278802 0.786826
0.48711702 0.2780637 0.7751072
0.56464463 0.26121324 0.76648283
0.6480852 0.23483458 0.75995713
0.74488366 0.21920955 0.74871325
0.84522057 0.22950368 0.7453738
0.9313726 0.23958334 0.73174024
0.2529412 0.51593137 0.80980396
0.32205886 0.4659314 0.7932598
0.40294117 0.42751223 0.77579653
0.48688728 0.4043505 0.7657782
0.5681373 0.38639706 0.75906867
0.6535233 0.37126228 0.75085783
0.7388481 0.35980392 0.73749995
0.838174 0.36602327 0.73541665
0.9301471 0.37696078 0.73259807
0.2719363 0.5844363 0.8084559
0.33615196 0.5516851 0.79806983
0.4212929 0.5249694 0.79175866
0.49595588 0.5036612 0.77824754
0.57867646 0.48780638 0.7707721
0.6638021 0.47398898 0.76254594
0.74822307 0.4637561 0.7565564
0.8460478 0.46925554 0.75677085
0.94436276 0.47352943 0.7550245
0.28333336 0.654902 0.8142157
0.34797794 0.63419116 0.79803926
0.43210787 0.6172794 0.7882353
0.5060662 0.5977942 0.7780638
0.57965684 0.58676475 0.7651961
0.66740197 0.57346815 0.761152
0.7533088 0.5678922 0.7525736
0.8523284 0.5697304 0.75876224
0.94803923 0.5759804 0.7637255
0.29791665 0.73517156 0.8093138
0.36674327 0.7163144 0.796875
0.44231004 0.70569855 0.7866422
0.5193475 0.6920343 0.77904415
0.59111524 0.68670344 0.7656863
0.6721967 0.67628676 0.7613664
0.7612745 0.66636026 0.75701594
0.86168814 0.66867346 0.7605699
0.96115196 0.67757356 0.76911765
0.31936276 0.81102943 0.8242647
0.38376224 0.8006127 0.81492037
0.4635417 0.7905637 0.8047794
0.53768384 0.7855699 0.7996017
0.6089461 0.77732843 0.78811276
0.6881434 0.7736826 0.7875
0.7748774 0.76801467 0.7827206
0.872886 0.77104783 0.78602946
0.9659314 0.77156866 0.7877451
0.3214461 0.8982843 0.81715685
0.38786766 0.8899663 0.8051011
0.46727943 0.88327205 0.799663
0.54401046 0.880193 0.79459256
0.6166667 0.8782475 0.7874388
0.69534314 0.87619483 0.78494185
0.7835172 0.8784926 0.7795343
0.8850491 0.8831342 0.7869026
0.9789216 0.88664216 0.79289216
0.32254905 0.972549 0.81666666
0.39583334 0.97536767 0.8023284
0.4730392 0.97426474 0.8036765
0.54767156 0.9764706 0.7973039
0.625 0.9794118 0.80245095
0.70490193 0.97904414 0.79583335
0.79240197 0.9865196 0.7916667
0.8892157 0.9857843 0.7916667
0.99313724 0.9960785 0.8039216
0.24558824 0.3132353 0.89607847
0.33553922 0.25447306 0.88823533
0.43063727 0.20588236 0.87757355
0.5003677 0.18302697 0.8722426
0.57500005 0.1622549 0.86691177
0.65177697 0.1435049 0.86213243
0.74142164 0.12095589 0.85784316
0.8469976 0.09803922 0.8494485
0.9397059 0.104411766 0.8372549
0.26482844 0.4332721 0.89460784
0.32962626 0.3702206 0.8818551
0.4195619 0.3304994 0.87613356
0.5024663 0.3023744 0.86859685
0.5765625 0.28587624 0.86727947
0.65422034 0.27054995 0.86044735
0.7402727 0.25029105 0.8518842
0.8406863 0.23598346 0.848966
0.9348039 0.24442403 0.84154415
0.28125 0.5398285 0.88762254
0.34188113 0.48944548 0.8735754
0.415288 0.45 0.8651655
0.49958643 0.42504594 0.8621324
0.57818633 0.41090688 0.85202205
0.65695465 0.39468443 0.84935665
0.74200374 0.38265932 0.8406557
0.84214157 0.37041974 0.8371171
0.933701 0.38026962 0.84375
0.29325983 0.60459566 0.89424026
0.35557598 0.5745022 0.88317245
0.43120405 0.5414369 0.87745094
0.505959 0.5212164 0.8708946
0.5862439 0.5049633 0.8703738
0.67098653 0.4940334 0.86354166
0.7518229 0.48013175 0.8593903
0.8452206 0.47474724 0.85687804
0.94577205 0.4790441 0.8576593
0.3029412 0.6686275 0.88897055
0.36930147 0.64877456 0.8759804
0.44074753 0.6272672 0.8723039
0.5173407 0.6095589 0.8655331
0.5921569 0.5971814 0.8613971
0.67279416 0.5863664 0.86032474
0.75643384 0.57640934 0.85410535
0.85435045 0.5725797 0.858027
0.9509804 0.5769608 0.8627451
0.31685048 0.7371324 0.88958335
0.38069853 0.72322303 0.87464005
0.45327818 0.71004903 0.8664369
0.52954966 0.70165443 0.86322
0.6026042 0.6908701 0.86050856
0.6796799 0.6827359 0.86043197
0.7664829 0.6765931 0.8559129
0.85816485 0.6702436 0.85713845
0.9626226 0.6786152 0.86776966
0.33443627 0.8089461 0.89705884
0.4016391 0.80027574 0.8937194
0.47245714 0.7911152 0.8913603
0.5460478 0.7891391 0.88638175
0.61868876 0.7838848 0.8844975
0.6953125 0.77875304 0.8809589
0.7799939 0.77257967 0.8804841
0.87345284 0.7726716 0.8829657
0.9703432 0.7759804 0.8833333
0.34963235 0.89950985 0.9006128
0.41252297 0.8931143 0.8914522
0.48530945 0.8907323 0.89152884
0.55661 0.888197 0.8856924
0.62935054 0.88514096 0.8807905
0.709444 0.882552 0.8845741
0.78946084 0.88174015 0.88082105
0.88368565 0.8826976 0.88564646
0.9800858 0.88737744 0.8874388
0.3602941 0.9799019 0.91225487
0.4201593 0.9798407 0.8960172
0.4925245 0.9746323 0.8886029
0.56678927 0.97775733 0.89295346
0.6426471 0.98014706 0.8928922
0.7176471 0.9864583 0.8942402
0.80110294 0.9882353 0.8947304
0.89270836 0.9892157 0.8925858
0.98970586 0.99215686 0.9004902
0.26666668 0.34509805 0.9647059
0.35637257 0.2779412 0.9593137
0.45294115 0.22941177 0.9568627
0.5156863 0.20392157 0.9529412
0.58431375 0.19019608 0.9509804
0.64950985 0.16911766 0.9416667
0.7284314 0.15196079 0.94411767
0.8264706 0.13235295 0.9372549
0.94117653 0.11372549 0.9372549
0.28627452 0.45588237 0.9578431
0.3440564 0.39405638 0.9559436
0.43737745 0.35343137 0.95441175
0.5137255 0.32512257 0.9447917
0.58750004 0.30833334 0.94485295
0.658027 0.29497552 0.9374387
0.7341912 0.2769608 0.93933827
0.83339465 0.26268384 0.9421569
0.9348039 0.24313726 0.9372549
0.30784315 0.56372553 0.95882356
0.3625 0.51323533 0.9540441
0.4343137 0.47279412 0.9490196
0.51544124 0.44632354 0.94068635
0.5921569 0.43137255 0.9367647
0.66580886 0.42034316 0.9332108
0.7450981 0.40808824 0.93553925
0.833701 0.39375 0.93235296
0.93529415 0.38627452 0.93529415
0.31813726 0.6254902 0.9573529
0.37585783 0.5934437 0.94981617
0.4497549 0.55735296 0.9447304
0.5196692 0.5322917 0.95281863
0.59460783 0.5203432 0.95024514
0.67395836 0.5088236 0.9412991
0.7536765 0.49828434 0.9419118
0.84344363 0.49080884 0.93694854
0.94558823 0.4779412 0.9490196
0.32352942 0.68235296 0.9607843
0.3875 0.66519606 0.9522059
0.46078432 0.64754903 0.9529412
0.529902 0.625 0.952451
0.6039216 0.6107843 0.9480392
0.68235296 0.59828436 0.94509804
0.7647059 0.59460783 0.9485294
0.8566176 0.58382356 0.9522059
0.9529412 0.5803922 0.9588235
0.33284315 0.74019617 0.9573529
0.40275738 0.73020834 0.9558823
0.46764708 0.72352946 0.9533088
0.5431986 0.71813726 0.9528799
0.6063726 0.70661765 0.9531863
0.6908701 0.6947304 0.9512868
0.7729167 0.6904412 0.953799
0.8645221 0.68351716 0.9579657
0.9602941 0.68039215 0.9607843
0.3480392 0.80490196 0.9637255
0.4182598 0.80024505 0.96433824
0.48333335 0.79607844 0.9583333
0.5539216 0.79424024 0.9612745
0.62647057 0.7897059 0.9607843
0.701103 0.7852942 0.9637255
0.7887255 0.78382355 0.9669118
0.87536764 0.7778186 0.9686275
0.97058827 0.77549016 0.9696079
0.36960784 0.8995098 0.97352946
0.4314951 0.89276963 0.9700981
0.5029412 0.89031863 0.9721814
0.5717525 0.88982844 0.972549
0.6397059 0.8892157 0.96813726
0.7145221 0.8887255 0.97450984
0.79926467 0.8892157 0.9772059
0.88890934 0.8871936 0.97653186
0.9852941 0.8892157 0.9828431
0.3882353 0.98039216 0.98431367
0.4465686 0.9818627 0.9818627
0.5137255 0.9852941 0.98137254
0.58382356 0.9838235 0.97745097
0.6490196 0.9862745 0.98039216
0.72745097 0.9882353 0.98431367
0.8117647 0.9882353 0.98137254
0.9009804 0.9906863 0.9892157
0.9960785 0.9960785 0.9960785
