assets/luts/LUTs/LEICA/LEICA SLV.cube
#Generated by PennL1
#小红书号：PennL1
#公众号：胶片感
#闲鱼号：LOOK胶片感
TITLE LEICA SLV
LUT_3D_SIZE 5
0.011764706 0.0 0.015686275
0.36176473 0.015686275 0.03137255
0.57450986 0.039215688 0.058823533
0.74803925 0.0627451 0.07254902
0.9294118 0.08627451 0.101960786
0.046078432 0.3647059 0.039215688
0.36642158 0.3737745 0.05245098
0.56568635 0.3529412 0.064705886
0.7458334 0.36642158 0.08063726
0.92647064 0.4009804 0.10882353
0.09019608 0.5686275 0.0882353
0.3720588 0.57156867 0.09117647
0.57254905 0.57058823 0.101960786
0.7495098 0.5539216 0.113235295
0.9392157 0.5666667 0.12941177
0.12745099 0.75 0.12941177
0.39362746 0.7546569 0.1389706
0.57058823 0.7563726 0.14362746
0.76642156 0.7612745 0.14436275
0.9529412 0.732353 0.15294118
0.15686275 0.9607843 0.15686275
0.43137255 0.9676471 0.14901961
0.59803927 0.97058827 0.16078432
0.7529412 0.9735294 0.15784314
0.98431367 0.98431367 0.17254902
0.1254902 0.15294118 0.45980394
0.3644608 0.034803923 0.3754902
0.56960785 0.04411765 0.35637257
0.7517157 0.06029412 0.36691177
0.9372549 0.08529412 0.39803925
0.1754902 0.4583333 0.45441177
0.35925245 0.3711397 0.3569853
0.56568635 0.3584559 0.34803927
0.74454665 0.35238972 0.34466913
0.9316176 0.37107843 0.3737745
0.18725489 0.6181373 0.4406863
0.36875 0.5732843 0.3727941
0.5762255 0.57254905 0.3720588
0.7540442 0.5622549 0.37438726
0.9426471 0.57205886 0.39068627
0.21862745 0.78063726 0.46029413
0.39056373 0.7565564 0.3925245
0.58382356 0.7585785 0.39669117
0.7706495 0.76384807 0.39914215
0.9610294 0.75735295 0.4134804
0.25196078 0.972549 0.5029412
0.41421568 0.9676471 0.40955883
0.607353 0.96911764 0.40980393
0.775 0.9757353 0.41446078
0.98725486 0.99215686 0.43333334
0.17058824 0.21960784 0.6509804
0.38333333 0.11372549 0.6112745
0.5676471 0.052941177 0.57156867
0.74803925 0.06764706 0.5416667
0.9313726 0.09019608 0.56078434
0.21715686 0.47549018 0.6495098
0.3817402 0.40036765 0.59681374
0.5617647 0.35490197 0.55955887
0.74595594 0.3557598 0.5474265
0.93333334 0.37598038 0.56372553
0.25 0.6490196 0.6519608
0.4117647 0.6004902 0.60465693
0.5735295 0.5710784 0.575
0.754902 0.56593144 0.5710784
0.94411767 0.57058823 0.5764706
0.27009803 0.79558825 0.6519608
0.42475492 0.77365196 0.6132353
0.5855392 0.7605393 0.5882353
0.77316177 0.7651961 0.59387255
0.9656863 0.76862746 0.59852946
0.28627452 0.97058827 0.6686275
0.44215685 0.97058827 0.62254906
0.6039216 0.97352946 0.6009804
0.7877451 0.97794116 0.602451
0.9882353 0.9882353 0.61372554
0.21960784 0.28039217 0.8186275
0.40784317 0.17034315 0.78553927
0.5612745 0.1264706 0.7686275
0.7507353 0.08014706 0.7490196
0.9362745 0.09509804 0.7294118
0.2529412 0.51593137 0.80980396
0.40294117 0.42751223 0.77579653
0.5681373 0.38639706 0.75906867
0.7388481 0.35980392 0.73749995
0.9301471 0.37696078 0.73259807
0.28333336 0.654902 0.8142157
0.43210787 0.6172794 0.7882353
0.57965684 0.58676475 0.7651961
0.7533088 0.5678922 0.7525736
0.94803923 0.5759804 0.7637255
0.31936276 0.81102943 0.8242647
0.4635417 0.7905637 0.8047794
0.6089461 0.77732843 0.78811276
0.7748774 0.76801467 0.7827206
0.9659314 0.77156866 0.7877451
0.32254905 0.972549 0.81666666
0.4730392 0.97426474 0.8036765
0.625 0.9794118 0.80245095
0.79240197 0.9865196 0.7916667
0.99313724 0.9960785 0.8039216
0.26666668 0.34509805 0.9647059
0.45294115 0.22941177 0.9568627
0.58431375 0.19019608 0.9509804
0.7284314 0.15196079 0.94411767
0.94117653 0.11372549 0.9372549
0.30784315 0.56372553 0.95882356
0.4343137 0.47279412 0.9490196
0.5921569 0.43137255 0.9367647
0.7450981 0.40808824 0.93553925
0.93529415 0.38627452 0.93529415
0.32352942 0.68235296 0.9607843
0.46078432 0.64754903 0.9529412
0.6039216 0.6107843 0.9480392
0.7647059 0.59460783 0.9485294
0.9529412 0.5803922 0.9588235
0.3480392 0.80490196 0.9637255
0.48333335 0.79607844 0.9583333
0.62647057 0.7897059 0.9607843
0.7887255 0.78382355 0.9669118
0.97058827 0.77549016 0.9696079
0.3882353 0.98039216 0.98431367
0.5137255 0.9852941 0.98137254
0.6490196 0.9862745 0.98039216
0.8117647 0.9882353 0.98137254
0.9960785 0.9960785 0.9960785
