assets/luts/LUTs/LEICA/LEICA CLS.cube
#Generated by PennL1 - 闲鱼号：LOOK胶片感 公众号：胶片感
TITLE LEICA CLS
LUT_3D_SIZE 33
0.007843138 0.0 0.011764706
0.021078432 0.0 0.015318628
0.036764707 0.0007352942 0.011029412
0.048651963 0.0028186277 0.008946079
0.07156863 0.0 0.011764706
0.09362745 0.0 0.011764706
0.12181373 0.0022058825 0.009558824
0.15526961 0.0064950986 0.010416667
0.1764706 0.004901961 0.014705883
0.22009805 0.0072303927 0.012377451
0.27156866 0.004166667 0.015441177
0.30330884 0.011642157 0.015808824
0.3509804 0.0073529417 0.019117648
0.3990196 0.004779412 0.017401962
0.4382353 0.0066176476 0.019852942
0.48174024 0.007107843 0.014950981
0.5176471 0.007843138 0.015686275
0.5628677 0.0062500006 0.01642157
0.59656864 0.0051470594 0.014215687
0.63455886 0.003921569 0.014828432
0.6637255 0.003921569 0.015686275
0.6894608 0.003921569 0.023284314
0.722549 0.004166667 0.019607844
0.7415441 0.0066176476 0.018995099
0.7705883 0.0009803922 0.015686275
0.7949755 0.005269608 0.017034315
0.8147059 0.0061274515 0.02132353
0.83394605 0.003921569 0.017279413
0.8553921 0.003921569 0.016666668
0.8768382 0.0011029413 0.016789217
0.9014706 0.0031862748 0.015686275
0.9165441 0.003921569 0.015686275
0.9254902 0.007843138 0.019607844
0.0074754907 0.0053921575 0.022794118
0.017087929 0.009313726 0.019240197
0.03291207 0.009313726 0.01775429
0.050697 0.009210325 0.024613205
0.07522978 0.009083946 0.02043505
0.09539292 0.009141391 0.02110524
0.12781863 0.00915288 0.0154028805
0.15955882 0.006498928 0.012132353
0.19197305 0.0082414225 0.017738972
0.23241037 0.009003524 0.02198606
0.27455577 0.009290748 0.019784007
0.31067327 0.01261106 0.019385723
0.34537378 0.015609683 0.02389706
0.40563726 0.0125 0.024594057
0.43857232 0.0125 0.025972733
0.47355622 0.013943781 0.022384346
0.5146446 0.012500001 0.014644609
0.55507815 0.0131663615 0.015127146
0.5971967 0.013357843 0.022303922
0.6449717 0.009643076 0.023242189
0.6678922 0.01205576 0.013189338
0.6892042 0.013212317 0.019718904
0.71243113 0.009191177 0.019385723
0.7456534 0.012867647 0.015996478
0.7757353 0.011887255 0.016666668
0.7968099 0.009072457 0.018133426
0.8200521 0.008992035 0.017034315
0.83750004 0.008773744 0.017352177
0.8587163 0.011167279 0.015456496
0.87773436 0.010209866 0.013028493
0.8947993 0.012201287 0.014721202
0.9186619 0.0125344675 0.0124310665
0.9294118 0.0053921575 0.011764706
0.004656863 0.021813726 0.015686275
0.016559437 0.026470589 0.01997549
0.027665442 0.026608456 0.017018996
0.048314955 0.026102941 0.018918505
0.07506128 0.025030639 0.01596201
0.09558824 0.025758274 0.015923714
0.13031557 0.024249388 0.01675858
0.16237745 0.02178309 0.016168812
0.18835784 0.024877451 0.017156864
0.22489277 0.023161765 0.013265932
0.2614277 0.024157476 0.018474266
0.31076136 0.021813726 0.015984988
0.34739584 0.021813726 0.025153186
0.40208334 0.021974571 0.023973651
0.439231 0.02231924 0.022058824
0.48462775 0.021813726 0.024647672
0.5235294 0.021446079 0.022058826
0.55675554 0.021515014 0.018014707
0.6004596 0.019117648 0.022303922
0.64166665 0.020955883 0.020465687
0.6622549 0.021170344 0.014031863
0.68629754 0.027964154 0.022495406
0.7190104 0.021966912 0.019607844
0.74340534 0.024149816 0.01876532
0.7688113 0.023100492 0.015196079
0.78921574 0.02265625 0.015693935
0.8132353 0.021798408 0.012423407
0.83468133 0.020710785 0.014606312
0.85367644 0.022089463 0.013419119
0.87647057 0.023575367 0.014261643
0.8932445 0.024862133 0.013556985
0.91335785 0.021446079 0.015456496
0.92867655 0.021078432 0.011029412
0.008946079 0.03909314 0.016789217
0.018363206 0.044833794 0.023265166
0.03504902 0.046155028 0.020710785
0.047556683 0.047066484 0.021813726
0.06994486 0.047533702 0.024218751
0.09273131 0.047725186 0.016980698
0.12511489 0.04155944 0.013005516
0.15736443 0.042068783 0.016812194
0.17901349 0.04610907 0.01106005
0.22333027 0.04176624 0.01463312
0.26649052 0.03448989 0.013618261
0.3096967 0.037921265 0.015617342
0.34777883 0.035922185 0.013403799
0.40404797 0.037262563 0.01372549
0.43899357 0.037377454 0.016444547
0.48104322 0.034233302 0.016582415
0.5235294 0.03216912 0.017340686
0.56667054 0.031778496 0.017807905
0.60537684 0.030537684 0.02044271
0.6442479 0.031858917 0.01998315
0.670144 0.030974265 0.017677696
0.69178927 0.032421876 0.016333487
0.72064185 0.03236826 0.018435968
0.7518153 0.030319395 0.0164254
0.7723652 0.029074755 0.011856618
0.79567635 0.031885725 0.012622549
0.81607693 0.031992953 0.010531557
0.83741957 0.034489892 0.012649357
0.85796565 0.033532478 0.01573223
0.87838155 0.030449603 0.013970588
0.9003983 0.031050859 0.019240197
0.9179381 0.03081725 0.0151577825
0.9276961 0.029656863 0.008946079
0.013235294 0.06911765 0.02401961
0.022640932 0.07068015 0.020588236
0.039215688 0.07110907 0.02086397
0.05248162 0.07022059 0.022748163
0.08002451 0.0721201 0.023590688
0.10162377 0.07058824 0.015625
0.1241728 0.06976103 0.011642158
0.15655638 0.06750919 0.0135723045
0.18137255 0.071078435 0.012132353
0.22970282 0.06634498 0.017555147
0.27083334 0.057383582 0.009895833
0.30585173 0.06338848 0.014062501
0.35680148 0.053615198 0.010110294
0.40612745 0.057797186 0.016222427
0.43890932 0.052818626 0.016911766
0.48333335 0.046875 0.016804535
0.52205884 0.047303922 0.017892158
0.56398594 0.043367036 0.0154871335
0.594087 0.0421875 0.015686275
0.63161767 0.04264706 0.017601104
0.6697917 0.0435049 0.013848039
0.69301474 0.041253068 0.008011643
0.72466296 0.03985907 0.018382354
0.75223655 0.042156864 0.015701594
0.77610296 0.041911766 0.020343138
0.8016544 0.041007966 0.017800245
0.81731004 0.04132966 0.018229168
0.83843446 0.04007353 0.019607844
0.86041665 0.038235296 0.018688727
0.8757659 0.03929228 0.018489584
0.9030025 0.037714463 0.025
0.91588545 0.041697305 0.014476104
0.9318628 0.036764707 0.011764706
0.019362746 0.11017157 0.029534314
0.024804687 0.11171492 0.020856312
0.03963695 0.10718444 0.018949144
0.056004904 0.110240504 0.02512255
0.079794735 0.11041667 0.024433212
0.1041705 0.11041667 0.022307752
0.12892157 0.10821079 0.018995099
0.16787301 0.10528876 0.0186466
0.19669119 0.10309437 0.01642157
0.2362324 0.09947151 0.020714615
0.27745867 0.09108456 0.015831802
0.3106771 0.096323535 0.011649816
0.35902268 0.08164829 0.0088082105
0.4071423 0.085696235 0.01384804
0.44289216 0.08272825 0.01262255
0.48844594 0.0748315 0.010772825
0.5242035 0.07457108 0.009926472
0.5668007 0.06812577 0.0103170965
0.59799325 0.06585478 0.012009805
0.63303465 0.06593137 0.013445926
0.66665137 0.0625 0.01384804
0.6839959 0.058448225 0.008030791
0.7235141 0.056020223 0.017769609
0.7511834 0.052860755 0.014418659
0.76875 0.05539216 0.015594363
0.79583335 0.05563726 0.013932292
0.8189951 0.053010114 0.012484682
0.8392195 0.054166667 0.0113932295
0.8572764 0.052328434 0.012101716
0.875 0.05382583 0.016325828
0.8981388 0.05441177 0.019906558
0.9147557 0.05441177 0.011125153
0.9294118 0.048406865 0.009926471
0.025735294 0.15269609 0.031862747
0.031824447 0.15878524 0.031747855
0.05088848 0.15431985 0.031188726
0.069370404 0.1560049 0.032958027
0.09157476 0.15235908 0.031556375
0.112676166 0.15408242 0.031862747
0.13722427 0.15539217 0.027175246
0.17561275 0.14820772 0.022081802
0.20845589 0.14699756 0.02334559
0.243413 0.13907017 0.016574755
0.29174328 0.14370406 0.019332109
0.32964155 0.1351486 0.009658395
0.36559436 0.12981007 0.012071079
0.41433057 0.12536 0.008318014
0.4520527 0.12631741 0.010539216
0.4938266 0.11898744 0.007843138
0.5327206 0.11446079 0.010049021
0.5756894 0.107314646 0.012254903
0.6040748 0.102405034 0.009221815
0.6426777 0.09876685 0.010906863
0.6774204 0.090992644 0.0136948535
0.68872553 0.0844899 0.0123085175
0.721538 0.08147979 0.009451593
0.75003064 0.071982235 0.008532476
0.7721814 0.07199755 0.011029413
0.7967142 0.07210478 0.006763174
0.8213235 0.07231924 0.0060661766
0.83809745 0.07223499 0.0040134806
0.8544118 0.069362745 0.00692402
0.8745022 0.06777727 0.009696691
0.89477634 0.06894915 0.008164829
0.908701 0.069362745 0.004289216
0.925 0.06985295 0.007843138
0.03259804 0.19558823 0.040441178
0.044611674 0.2020795 0.042899817
0.06177237 0.19989276 0.041536458
0.07658165 0.19605546 0.039338235
0.10026042 0.19739583 0.037025124
0.12069164 0.19885111 0.03666131
0.14703585 0.19887409 0.034466915
0.18167126 0.19056372 0.03125
0.21145833 0.18946078 0.028063726
0.24888174 0.18485755 0.025072765
0.29774818 0.18520221 0.024747243
0.34060585 0.17978325 0.015770528
0.37202817 0.17591912 0.02086397
0.42845818 0.17465916 0.011668965
0.46122092 0.1714614 0.011343444
0.49961704 0.16531098 0.009371171
0.5327206 0.16164216 0.007904412
0.57346433 0.15484452 0.011021752
0.6026808 0.15194547 0.0077205887
0.6451708 0.14401808 0.0143650435
0.68235296 0.12948836 0.013587623
0.69885874 0.12639017 0.015605853
0.72561276 0.11879596 0.010577513
0.7523629 0.10353477 0.013411459
0.7809743 0.1067402 0.015318628
0.7998239 0.10408625 0.012446385
0.8233073 0.09735754 0.010248162
0.84244025 0.08968674 0.009616269
0.8579504 0.08641238 0.008639706
0.8801585 0.07900965 0.008222274
0.89815414 0.07892157 0.005752145
0.91360676 0.07965687 0.008712469
0.9241422 0.0810049 0.0052696085
0.05 0.24117649 0.04901961
0.057352945 0.24454659 0.052849267
0.07193628 0.23884803 0.050857842
0.081250004 0.23918507 0.045802698
0.10759804 0.24558824 0.04509804
0.12873775 0.24482231 0.046017155
0.15508579 0.23952207 0.04264706
0.18982844 0.234375 0.038572304
0.21887255 0.23970589 0.03897059
0.26338848 0.23636642 0.035079658
0.30827206 0.22610295 0.03339461
0.34191176 0.23131128 0.028462011
0.3730392 0.22843137 0.028431375
0.43566176 0.22071078 0.020710785
0.46568632 0.2161152 0.018566176
0.50759804 0.21393996 0.023774508
0.5416667 0.20882353 0.017647058
0.5768995 0.20137867 0.011519609
0.61017156 0.20300245 0.013357844
0.64050245 0.19473039 0.011213236
0.68125004 0.17843138 0.011642157
0.70147055 0.17077206 0.012714461
0.7243873 0.16519609 0.009252451
0.7564032 0.15585172 0.015226716
0.7840687 0.14656863 0.012990196
0.80318624 0.14491422 0.012040442
0.82420343 0.13504902 0.01139706
0.8454351 0.124754906 0.0115808835
0.8627451 0.11617648 0.01004902
0.8833027 0.10425858 0.012898285
0.8973652 0.09981618 0.010539215
0.9159007 0.09466912 0.008915441
0.922549 0.09411765 0.0068627456
0.06151961 0.2939951 0.06421569
0.06391315 0.29149434 0.06151961
0.08298867 0.29400277 0.06253064
0.09598269 0.29517466 0.06318934
0.11841299 0.290288 0.052435663
0.1439951 0.29268155 0.05685892
0.17357537 0.29137564 0.05759804
0.20512791 0.2863626 0.05245098
0.23149508 0.29249388 0.05291054
0.26870787 0.2851984 0.0492379
0.31437656 0.27863052 0.04232537
0.33891317 0.2761221 0.04109222
0.37841603 0.2722733 0.035355393
0.43307677 0.26763558 0.039939493
0.46568632 0.26593137 0.034482233
0.5065028 0.26617265 0.021587776
0.54178923 0.26427698 0.02322304
0.58457035 0.25612363 0.028423715
0.6133272 0.25292587 0.012997856
0.6432943 0.24547718 0.0022173715
0.6759191 0.23858763 0.013342526
0.7012638 0.23668045 0.01507353
0.72352946 0.22275582 0.011228554
0.7561964 0.22015166 0.01228171
0.7801777 0.20784314 0.011764706
0.80520064 0.20047104 0.011554075
0.82289374 0.19465381 0.013135724
0.84419805 0.1807598 0.013277422
0.86455274 0.16827513 0.013602942
0.88688725 0.16392463 0.020270374
0.9052543 0.15137868 0.016429229
0.9167394 0.14778647 0.017516851
0.93149513 0.14767158 0.017769609
0.07009804 0.34607846 0.08872549
0.07859988 0.34918812 0.07009804
0.09191177 0.3461244 0.07087929
0.10898438 0.3472197 0.076056994
0.13710172 0.3480392 0.079166666
0.16115196 0.3459329 0.077175245
0.18728554 0.3438419 0.07314645
0.21495098 0.33949912 0.06719516
0.24068627 0.33584562 0.063174024
0.27324602 0.33753067 0.062048104
0.32207417 0.33431372 0.058103558
0.3535233 0.34082416 0.054036457
0.40468752 0.32941177 0.04960172
0.43133426 0.3267846 0.04520527
0.4730392 0.3238358 0.040226717
0.51783854 0.31570926 0.04469976
0.5522059 0.31850493 0.043750003
0.58933824 0.30994946 0.040908396
0.6146293 0.3092218 0.026056986
0.6556066 0.30991116 0.015563726
0.68327206 0.29993874 0.015563726
0.70501685 0.302091 0.012124694
0.73409927 0.28904718 0.0115349265
0.75910693 0.27112442 0.009237133
0.7784926 0.26819855 0.01452206
0.8042432 0.26410082 0.013028493
0.82783395 0.25332415 0.015548408
0.84731925 0.24666819 0.013602942
0.8624081 0.23437501 0.016513482
0.886466 0.22879902 0.011787684
0.91283697 0.21196386 0.017386643
0.9242647 0.20833334 0.016253065
0.9370098 0.19730392 0.012254902
0.07904412 0.37806374 0.086519614
0.091433056 0.38894764 0.093995094
0.10230546 0.38237593 0.09046416
0.12368643 0.38673022 0.09056373
0.14223348 0.38808212 0.09194241
0.16237745 0.3874502 0.09263174
0.19019607 0.38506436 0.09280791
0.21842447 0.37940794 0.08648131
0.24840687 0.3867341 0.08547794
0.28846127 0.3862745 0.08000537
0.32769608 0.37486213 0.07500766
0.36212856 0.37390473 0.07095206
0.4016391 0.37411153 0.072717525
0.44479933 0.37389708 0.059260115
0.4764323 0.3703355 0.05428156
0.5139706 0.36399356 0.043700214
0.54350495 0.36219364 0.03786765
0.57296646 0.3560279 0.027378218
0.61281407 0.34931067 0.018834254
0.6459023 0.3467448 0.01910233
0.6818781 0.33982846 0.0096660545
0.6976716 0.34620866 0.008092065
0.727068 0.32314646 0.011144302
0.7519608 0.32236138 1.9148285e-05
0.7715073 0.32034317 0.002022059
0.789951 0.31528035 0.006498928
0.8131128 0.2999464 0.0040594367
0.83633196 0.29356235 0.008088235
0.85595894 0.28316483 0.0067861523
0.8785003 0.27463236 0.0012446386
0.89571077 0.2695389 0.00024509805
0.9053577 0.26132047 0.0069087013
0.9214461 0.24877451 0.0037990198
0.1004902 0.43284315 0.097058825
0.10948223 0.43895528 0.10409007
0.12352942 0.42833948 0.10162377
0.14261644 0.4343137 0.10454963
0.16213235 0.43541664 0.10379902
0.18074448 0.43403798 0.10655637
0.20827205 0.43011642 0.10680147
0.23357843 0.435049 0.09200368
0.26188725 0.43700978 0.0939951
0.30337012 0.43345588 0.092432596
0.34381127 0.43008578 0.085692406
0.37107846 0.423269 0.080897674
0.40802693 0.42941177 0.08082108
0.45799634 0.42233455 0.075245105
0.48449758 0.421875 0.06804534
0.5195466 0.42075676 0.06429228
0.5566176 0.4125 0.059803925
0.589905 0.4091912 0.050658703
0.615288 0.41078433 0.043045346
0.6485294 0.40503985 0.03324142
0.6819853 0.39699757 0.023590688
0.698606 0.39512867 0.018275123
0.7299632 0.38039216 0.01709559
0.74888176 0.37388173 0.0020833334
0.77107847 0.37928924 0.0052696085
0.7939185 0.3771446 0.0072610294
0.81783086 0.36620712 0.008976717
0.83880204 0.35669425 0.0079963235
0.8580269 0.3471201 0.0038602944
0.876348 0.3394608 0.005637255
0.8922181 0.34322917 0.007046569
0.91193324 0.32372856 0.0015318628
0.9196078 0.31078434 0.0014705883
0.120220594 0.48174024 0.12107844
0.12937348 0.486646 0.12577742
0.14513634 0.48860294 0.125
0.16323148 0.49154797 0.12513788
0.18068321 0.49010417 0.12792586
0.20465687 0.48792124 0.12934284
0.23159468 0.48576897 0.119937204
0.25446156 0.48826212 0.11639859
0.28054535 0.4874081 0.11844363
0.31052774 0.482487 0.10966989
0.35137105 0.48461244 0.10922947
0.38303462 0.4832376 0.102424175
0.41671258 0.4866728 0.10462623
0.4593635 0.4777191 0.09792433
0.49752605 0.47725952 0.092064954
0.5314492 0.4780446 0.090054385
0.56776965 0.4699755 0.08382353
0.5926662 0.46838236 0.07344516
0.6181832 0.4676164 0.06438419
0.6533012 0.46549097 0.057663146
0.6811274 0.4602635 0.048575368
0.7052007 0.4544539 0.04232154
0.7277114 0.45062807 0.03827359
0.7531978 0.4404986 0.018838082
0.7813726 0.4339767 0.018351717
0.79539293 0.4324487 0.013185509
0.824372 0.42845434 0.01396293
0.8436811 0.42529488 0.007808671
0.8572763 0.4179994 0.00032169122
0.87463236 0.40747166 0.0044041052
0.89468443 0.4075138 0.001148897
0.9145872 0.39109606 0.007885264
0.9316177 0.383701 0.01004902
0.13553922 0.53382355 0.14068627
0.14411765 0.5375996 0.14594057
0.15467219 0.5340993 0.14483763
0.17546722 0.5348805 0.14286919
0.19485295 0.53483456 0.13887869
0.21576287 0.5345665 0.14163603
0.24656862 0.5331802 0.13950674
0.27064186 0.53205425 0.13811275
0.29846817 0.53719366 0.14080884
0.33107385 0.53363204 0.13657323
0.36014095 0.5325981 0.13048407
0.3962852 0.5274127 0.1262638
0.42429534 0.53247553 0.12699144
0.47512254 0.524326 0.12350644
0.5051471 0.529228 0.11764707
0.53298104 0.527811 0.10746017
0.5671569 0.52205884 0.10036765
0.597549 0.5216912 0.09240197
0.62346816 0.51334256 0.084987745
0.660118 0.51303613 0.07549019
0.6874081 0.5082108 0.0705576
0.7065794 0.5064032 0.0667739
0.7353707 0.50447303 0.056617647
0.75578284 0.49501377 0.044937193
0.78198534 0.49754903 0.038112745
0.7976333 0.49182752 0.024731925
0.82406557 0.48609072 0.017064951
0.84387255 0.47981006 0.012691483
0.8637868 0.47414216 0.006832108
0.88321084 0.4670803 0.0031403191
0.8972886 0.46446082 0.0014552696
0.92081034 0.4524663 0.008555453
0.9279412 0.44068626 0.0039215693
0.1569853 0.5719363 0.1632353
0.16556373 0.5741575 0.16330424
0.17531404 0.5720971 0.16440718
0.19338235 0.573449 0.16588542
0.21410845 0.5751226 0.16216299
0.23224187 0.5769608 0.15955883
0.26013327 0.57504594 0.16164216
0.2859222 0.57298183 0.16011412
0.31344977 0.57591915 0.16050859
0.34729245 0.57071847 0.15490963
0.38024664 0.56960785 0.15379903
0.41715685 0.5697304 0.15303692
0.44134498 0.5735294 0.15093444
0.48335248 0.5718405 0.14082797
0.5126302 0.56649816 0.13410693
0.5431028 0.5674173 0.12914751
0.57414216 0.56415445 0.12254902
0.60103405 0.5650391 0.1163871
0.63347125 0.56247705 0.115939036
0.6636872 0.5590495 0.10806909
0.69033396 0.5565564 0.0929228
0.7123775 0.55102634 0.07977559
0.74323684 0.54375005 0.070075065
0.7658127 0.5433862 0.06040518
0.78413 0.5412378 0.058517158
0.80178845 0.539591 0.046936277
0.8202589 0.53374696 0.028063726
0.842379 0.5272289 0.023586858
0.8641698 0.52037376 0.018627452
0.88496864 0.5166284 0.008903953
0.8998928 0.51642156 0.005652574
0.9205078 0.50642616 0.0084022675
0.93333334 0.49754903 0.003921569
0.18235295 0.6156863 0.18431373
0.18933824 0.6245711 0.18216911
0.20147058 0.6167892 0.1807598
0.21556373 0.6210172 0.18345588
0.2389706 0.61960787 0.18333334
0.25520834 0.62052697 0.1793505
0.28210786 0.61715686 0.18039215
0.3108456 0.6150123 0.17653187
0.33284312 0.6186275 0.17450981
0.36703432 0.6179534 0.17450981
0.40012255 0.61764705 0.17083335
0.43400735 0.611826 0.16862746
0.45931375 0.61372554 0.16715688
0.49534315 0.61415446 0.15686275
0.52414215 0.6138481 0.15563726
0.5566176 0.6113971 0.15453431
0.5862745 0.6107843 0.15
0.613603 0.60784316 0.14197305
0.6431373 0.60784316 0.13578433
0.6728554 0.60784316 0.13026962
0.6973039 0.60269606 0.115686275
0.7170956 0.60765934 0.11182599
0.74080884 0.5977942 0.095710784
0.7674632 0.5938113 0.08866422
0.7872549 0.59313726 0.07941177
0.808701 0.59270835 0.06905638
0.8258579 0.5862745 0.052328438
0.84387255 0.58314955 0.03860294
0.86348045 0.5779412 0.028186277
0.8841299 0.5750613 0.020404413
0.90453434 0.576103 0.020833336
0.9238358 0.5675858 0.021568628
0.92941177 0.5588236 0.01372549
0.20539215 0.6594363 0.20539215
0.21522288 0.66421574 0.20612743
0.2285003 0.6578432 0.20598957
0.2417471 0.6612362 0.20604703
0.26703432 0.6626379 0.20712316
0.28392312 0.66191024 0.205036
0.30844826 0.6585401 0.19986978
0.33198532 0.6578432 0.1967333
0.3504902 0.6578432 0.19375001
0.38284695 0.6624962 0.19680224
0.41534162 0.66335785 0.1945619
0.44860217 0.6540671 0.18669194
0.47786456 0.6582874 0.19065565
0.51199067 0.6567594 0.18119255
0.53885573 0.65712315 0.17818627
0.5710784 0.6539216 0.17009804
0.60189956 0.65275735 0.1704657
0.62806374 0.6497013 0.16479397
0.6528033 0.65000767 0.15577513
0.68202364 0.65198 0.15116039
0.7042739 0.6482537 0.14019608
0.72181374 0.65075827 0.13492647
0.7427467 0.6498009 0.12352942
0.7694776 0.646201 0.11765089
0.79096204 0.64270836 0.10554534
0.81335783 0.64051396 0.09896217
0.83480394 0.63603705 0.084888175
0.848786 0.6322304 0.069263175
0.86657476 0.632307 0.059574142
0.8896216 0.6261451 0.051187195
0.9048101 0.6245788 0.047074143
0.9180683 0.62554383 0.027167587
0.92781866 0.62009805 0.023529412
0.22254902 0.69754905 0.21985294
0.23735447 0.6958487 0.22377451
0.24367341 0.69284624 0.22303921
0.26357996 0.69208026 0.22171415
0.2847733 0.69923407 0.22647059
0.3002068 0.6975874 0.22463235
0.32382047 0.69485295 0.22048101
0.3464461 0.69308364 0.2169424
0.3750613 0.69417894 0.21703431
0.40758273 0.69133735 0.21512716
0.43546262 0.6932138 0.2121783
0.45723036 0.68586856 0.20437346
0.48823527 0.69558823 0.21014093
0.52399665 0.69183517 0.20359987
0.550383 0.68992037 0.19685969
0.57965684 0.6882353 0.19584866
0.6072304 0.6862745 0.19056372
0.63174784 0.6859146 0.18629748
0.6535386 0.6878524 0.18025428
0.682644 0.6882353 0.17205884
0.70955884 0.6860907 0.16712622
0.73030794 0.675337 0.16025582
0.7456802 0.6816177 0.15179229
0.7756281 0.68100494 0.14271599
0.79417896 0.67806375 0.1288603
0.8124311 0.6791667 0.13028494
0.83564645 0.6757353 0.1153799
0.8492954 0.67210484 0.10021447
0.8658395 0.6709559 0.09102329
0.8891391 0.6633349 0.07477788
0.9051011 0.6651655 0.06423101
0.92156863 0.6648438 0.04188879
0.93480396 0.66078436 0.02892157
0.24889708 0.73125 0.2449755
0.25405177 0.7301049 0.24583334
0.27266392 0.72700673 0.24509805
0.28688344 0.72547483 0.24325597
0.3068321 0.72742033 0.24669118
0.3233188 0.7308479 0.24485295
0.34534314 0.73039216 0.24276961
0.3685049 0.7278186 0.2416437
0.39022672 0.72711396 0.23939951
0.42355236 0.72329575 0.23812424
0.45660233 0.7262255 0.23718597
0.47787222 0.71889937 0.22943859
0.5021753 0.72683823 0.23242952
0.5315028 0.72321916 0.21972273
0.55463386 0.72063416 0.21489736
0.583927 0.7201555 0.21825214
0.61397064 0.7221201 0.2175245
0.63986677 0.71913683 0.20872012
0.65671724 0.7215916 0.20629595
0.68400353 0.72254896 0.20202589
0.7134651 0.71986824 0.1929381
0.73281634 0.7161612 0.19012715
0.7552926 0.7148974 0.17848499
0.7737515 0.7166782 0.1666322
0.795864 0.7109988 0.15750614
0.8150736 0.7126953 0.15485218
0.8364124 0.7152957 0.14812347
0.8558441 0.7116269 0.13328356
0.8714308 0.70856315 0.122656256
0.888603 0.70563346 0.10539599
0.90686274 0.70319396 0.09762561
0.92401963 0.7049403 0.079534315
0.9372549 0.7012255 0.065073535
0.27205884 0.7612745 0.26813728
0.276731 0.75811887 0.2678156
0.29148284 0.76014096 0.26525736
0.307981 0.7572151 0.26681986
0.3254902 0.75851715 0.2647059
0.34747243 0.7580576 0.26286766
0.37064952 0.75441176 0.26271448
0.39080885 0.75634193 0.26196387
0.41446078 0.7547794 0.25784317
0.43540135 0.753508 0.25396752
0.47086397 0.75389093 0.25343138
0.48993564 0.7497549 0.24571079
0.51568633 0.75686276 0.2488358
0.5461397 0.7534314 0.24401042
0.5757047 0.7541973 0.24347426
0.60234374 0.7536918 0.24253982
0.62598044 0.7517157 0.23725492
0.6429228 0.7509038 0.2305147
0.6659927 0.7498468 0.2265625
0.6944853 0.7473192 0.21706495
0.71250004 0.74914217 0.21942402
0.7427084 0.7495098 0.2167739
0.7582414 0.7454044 0.20716912
0.78098965 0.7419577 0.18901655
0.7969363 0.739951 0.18345588
0.81818324 0.74408704 0.17659315
0.83952206 0.7408701 0.17080271
0.85729164 0.7402574 0.15963542
0.8726103 0.7393383 0.14699756
0.8945007 0.7403493 0.1311581
0.91093755 0.73799026 0.1236826
0.9212316 0.74080884 0.11148897
0.9372549 0.73039216 0.09509804
0.29350492 0.783701 0.28958336
0.30197227 0.79047567 0.2892157
0.31142005 0.78439033 0.28568476
0.32762715 0.7873775 0.28254443
0.3488205 0.7859988 0.2785386
0.36733687 0.78180534 0.28382355
0.38658854 0.78393084 0.2839461
0.40714997 0.779856 0.28059512
0.4271446 0.7787378 0.2778493
0.4507736 0.7860677 0.28092068
0.48037684 0.7836933 0.28149512
0.5022097 0.77966076 0.26985678
0.5257047 0.78308827 0.27043507
0.5590802 0.78131896 0.2719899
0.57725185 0.78491884 0.26486674
0.60407096 0.7827666 0.26066178
0.63125 0.7814951 0.2563113
0.64918816 0.7757851 0.24519378
0.6671569 0.7757353 0.24410999
0.70189184 0.7786076 0.24022287
0.72317713 0.7728707 0.23869485
0.7407936 0.7829772 0.23860675
0.7507353 0.7756051 0.22692248
0.778194 0.7754711 0.2245481
0.80845594 0.77637875 0.21381739
0.8198108 0.77675784 0.20551854
0.83876383 0.77329963 0.19535846
0.85972357 0.7713963 0.18493412
0.87919736 0.7654412 0.17562807
0.89914215 0.7667892 0.17240733
0.90605855 0.7677925 0.1587546
0.9270068 0.7644378 0.13833487
0.9372549 0.7599265 0.12843138
