assets/luts/LUTs/LEICA/LEICA IA.cube
#Generated by PennL1 - 闲鱼号：LOOK胶片感 公众号：胶片感
TITLE LEICA IA
LUT_3D_SIZE 5
0.0 0.0 0.0
0.11372549 0.11372549 0.11372549
0.25490198 0.25490198 0.25490198
0.43137252 0.43137252 0.43137252
0.50980395 0.50980395 0.50980395
0.20784314 0.20784314 0.20784314
0.23137255 0.23137255 0.23137255
0.3254902 0.3254902 0.3254902
0.46666667 0.46666667 0.46666667
0.54509807 0.54509807 0.54509807
0.45098042 0.45098042 0.45098042
0.4588235 0.4588235 0.4588235
0.5137255 0.5137255 0.5137255
0.62352943 0.62352943 0.62352943
0.6862745 0.6862745 0.6862745
0.64705884 0.64705884 0.64705884
0.6901961 0.6901961 0.6901961
0.74117655 0.74117655 0.74117655
0.827451 0.827451 0.827451
0.8392157 0.8392157 0.8392157
0.8392157 0.8392157 0.8392157
0.8352942 0.8352942 0.8352942
0.8509804 0.8509804 0.8509804
0.90588236 0.90588236 0.90588236
0.94509804 0.94509804 0.94509804
0.050980393 0.050980393 0.050980393
0.13725491 0.13725491 0.13725491
0.27058825 0.27058825 0.27058825
0.43137252 0.43137252 0.43137252
0.49803925 0.49803925 0.49803925
0.20784314 0.20784314 0.20784314
0.23921567 0.23921567 0.23921567
0.3254902 0.3254902 0.3254902
0.4745098 0.4745098 0.4745098
0.54901963 0.54901963 0.54901963
0.44705883 0.44705883 0.44705883
0.4745098 0.4745098 0.4745098
0.5176471 0.5176471 0.5176471
0.62352943 0.62352943 0.62352943
0.6862745 0.6862745 0.6862745
0.6627451 0.6627451 0.6627451
0.69411767 0.69411767 0.69411767
0.75686276 0.7607843 0.7607843
0.82352936 0.82352936 0.82352936
0.84705883 0.84705883 0.84705883
0.81960785 0.8156863 0.81960785
0.8392157 0.8392157 0.8392157
0.85882354 0.85882354 0.85882354
0.90588236 0.90588236 0.90588236
0.94509804 0.94509804 0.94509804
0.13333334 0.13333334 0.13333334
0.19215685 0.19607843 0.19607843
0.2901961 0.2901961 0.2901961
0.45098042 0.45098042 0.45098042
0.5176471 0.5176471 0.52156866
0.25490198 0.25490198 0.25490198
0.27450982 0.27450982 0.27450982
0.36862746 0.36862746 0.36862746
0.5058824 0.5058824 0.5058824
0.56078434 0.56078434 0.56078434
0.4588235 0.4588235 0.4588235
0.4862745 0.4862745 0.4862745
0.54509807 0.54509807 0.54509807
0.64705884 0.64705884 0.64705884
0.6862745 0.6901961 0.6901961
0.6784314 0.6784314 0.6784314
0.71372557 0.71372557 0.71372557
0.7686274 0.7686274 0.7686274
0.8392157 0.8392157 0.8392157
0.85882354 0.85882354 0.85882354
0.8392157 0.8392157 0.8392157
0.84313726 0.84313726 0.84313726
0.87058824 0.87058824 0.8666667
0.917647 0.917647 0.917647
0.9529412 0.9529412 0.9529412
0.2509804 0.2509804 0.2509804
0.28235295 0.28235295 0.28235295
0.36862746 0.36862746 0.36862746
0.49411765 0.49411765 0.49411765
0.5529412 0.5529412 0.5529412
0.3137255 0.3137255 0.3137255
0.34901962 0.34901962 0.34901962
0.43529412 0.43529412 0.43529412
0.54509807 0.54509807 0.54509807
0.6117647 0.6117647 0.60784316
0.49803925 0.49803925 0.49803925
0.5372549 0.5372549 0.5372549
0.6 0.6 0.6
0.6901961 0.6901961 0.6901961
0.72156864 0.72156864 0.72156864
0.6862745 0.6862745 0.6862745
0.7294117 0.7294117 0.7294117
0.7960784 0.7960784 0.7960784
0.86274505 0.86274505 0.86274505
0.8666667 0.8666667 0.8666667
0.8509804 0.8509804 0.8509804
0.85882354 0.85882354 0.85882354
0.890196 0.890196 0.89411765
0.9372549 0.9372549 0.9372549
0.972549 0.972549 0.972549
0.3529412 0.3529412 0.3529412
0.3764706 0.3764706 0.3764706
0.43137252 0.43137252 0.43137252
0.53333336 0.53333336 0.53333336
0.5882353 0.5882353 0.5882353
0.4 0.4 0.4
0.41568628 0.41568628 0.41568628
0.4862745 0.49019608 0.49019608
0.56078434 0.5647059 0.5647059
0.63529414 0.63529414 0.63529414
0.54901963 0.54901963 0.54901963
0.5647059 0.5647059 0.5647059
0.6156863 0.6156863 0.6156863
0.6901961 0.69411767 0.6901961
0.7254902 0.7254902 0.7254902
0.7294117 0.7294117 0.7294117
0.74117655 0.74117655 0.74117655
0.7921569 0.7921569 0.7921569
0.84705883 0.84705883 0.84705883
0.88235295 0.8784314 0.88235295
0.8784314 0.8784314 0.8784314
0.890196 0.890196 0.890196
0.90196085 0.90196085 0.90196085
0.94509804 0.94509804 0.94509804
0.99215686 0.99215686 0.99215686
