assets/luts/LUTs/LEICA/LEICA CHR.cube
#Generated by PennL1 - 闲鱼号：LOOK胶片感 公众号：胶片感
TITLE LEICA CHR
LUT_3D_SIZE 9
0.07058824 0.05490196 0.058823533
0.1367647 0.053431373 0.06421569
0.24215686 0.047058824 0.064705886
0.36911762 0.04264706 0.058823533
0.48431376 0.03137255 0.0627451
0.5892157 0.027941177 0.062254906
0.6598039 0.026470589 0.06568628
0.7235294 0.025 0.057352945
0.7647059 0.03137255 0.07450981
0.075980395 0.10294118 0.07205883
0.14368872 0.10784314 0.070159316
0.24325982 0.107230395 0.06973039
0.37414217 0.101164214 0.05618873
0.48627454 0.092156865 0.056127455
0.5957721 0.08449755 0.04822304
0.67941177 0.080882356 0.049387254
0.74883586 0.07738971 0.04944853
0.7794118 0.07892157 0.051960785
0.097058825 0.20980391 0.07254902
0.15808824 0.21482843 0.07794118
0.25514707 0.21715686 0.07303922
0.37377453 0.21213235 0.07193628
0.50196075 0.20637254 0.05245098
0.6183824 0.1992647 0.04877451
0.7107843 0.19779412 0.039705884
0.78161764 0.19387256 0.039215688
0.8215686 0.19411765 0.03627451
0.13480392 0.3137255 0.087254904
0.19577207 0.32481617 0.10183824
0.29178923 0.33308825 0.11200981
0.38878676 0.3372549 0.10680147
0.5093137 0.33308825 0.09068628
0.6245711 0.32775736 0.07303922
0.71997553 0.32843137 0.064705886
0.8014093 0.32389706 0.058700986
0.8480392 0.32205883 0.06666667
0.17843138 0.44509804 0.10392157
0.24117647 0.45367646 0.110049024
0.33774513 0.46274507 0.12205882
0.4389706 0.46887255 0.13602942
0.54509807 0.4666667 0.1254902
0.6502451 0.4612745 0.1254902
0.7455883 0.46029413 0.11176471
0.825 0.45612746 0.10563725
0.87647057 0.45490193 0.10392157
0.24509804 0.5735294 0.12843138
0.31029412 0.5808824 0.14203432
0.3997549 0.5882353 0.1517157
0.49515933 0.59344363 0.16464461
0.5882354 0.59117645 0.17156863
0.6723652 0.58884805 0.17291668
0.76274514 0.58480394 0.17500001
0.8414216 0.5854167 0.1728554
0.890196 0.5862745 0.17009804
0.3147059 0.67156863 0.17156863
0.36813724 0.6790441 0.18590686
0.45808822 0.6865196 0.19485293
0.54754907 0.6957108 0.21813725
0.63480395 0.70049024 0.23186275
0.71605396 0.69276965 0.23700981
0.7850491 0.6867647 0.24142158
0.8497549 0.6851716 0.24166666
0.8990196 0.68333334 0.2529412
0.40441176 0.7651961 0.22794119
0.4528799 0.7724265 0.24056372
0.5246324 0.7810049 0.25196078
0.6079657 0.78786767 0.2702206
0.68602943 0.79534316 0.2889706
0.76072305 0.79724264 0.30735296
0.8231617 0.79669124 0.31850493
0.86960787 0.7872549 0.3284314
0.9068628 0.7848039 0.3392157
0.4588235 0.8156863 0.27058825
0.5063726 0.81960785 0.28088236
0.577451 0.8303922 0.29705882
0.6416667 0.83676475 0.30735296
0.7156863 0.84901965 0.32941177
0.7897059 0.85833335 0.354902
0.84901965 0.85490197 0.36764705
0.8872549 0.84705883 0.39068627
0.9098039 0.8392157 0.4
0.06911765 0.0627451 0.11029412
0.1272059 0.06513481 0.1216299
0.23639706 0.057475492 0.12965687
0.36151966 0.050367646 0.11813726
0.48504904 0.041911766 0.12524511
0.59203434 0.03314951 0.12408089
0.6723039 0.032107845 0.122671574
0.7325368 0.02947304 0.111887254
0.77500004 0.025 0.11470588
0.072977945 0.12071078 0.12561275
0.13861828 0.1216299 0.13267463
0.24310662 0.120143995 0.13344057
0.36612284 0.108318016 0.12770374
0.49313727 0.098713234 0.11614584
0.6023131 0.089146756 0.10775123
0.68933827 0.08556986 0.10166973
0.76222426 0.08448223 0.09459253
0.8014093 0.07849265 0.092953436
0.09375 0.21580882 0.13357843
0.15424326 0.22510724 0.1362592
0.2541054 0.2285233 0.1388174
0.37611827 0.22466299 0.13227636
0.5053309 0.21329656 0.11752452
0.61822915 0.2028799 0.10128677
0.7182292 0.19987746 0.09304535
0.79126835 0.1967831 0.08941483
0.83480394 0.19816177 0.09117647
0.12812501 0.32990196 0.1488358
0.19079351 0.33805913 0.1657399
0.29350492 0.35072 0.17126226
0.39910388 0.35432753 0.16845895
0.5176471 0.346875 0.16231617
0.63252145 0.34100798 0.14377297
0.73523283 0.3325521 0.1338695
0.81873465 0.327788 0.12562041
0.86243874 0.3248162 0.114031866
0.17107844 0.45563728 0.16544119
0.23550858 0.46715686 0.17650123
0.33394608 0.48180148 0.19503677
0.43900123 0.4845895 0.2000919
0.546201 0.47990197 0.19754902
0.6518076 0.47346812 0.19102329
0.7500613 0.47199756 0.1740809
0.8310662 0.47254902 0.16832109
0.8833333 0.47009805 0.15833333
0.23596813 0.5828431 0.19276962
0.29259345 0.59086245 0.19582568
0.3878217 0.60144 0.21433824
0.48839614 0.60957414 0.2341299
0.588266 0.6072304 0.23795958
0.6758579 0.6004672 0.2377068
0.7621017 0.59822303 0.23481925
0.84093904 0.59381896 0.22835478
0.88756126 0.59558827 0.22408088
0.30625 0.68284315 0.22794119
0.3607996 0.6941176 0.24784008
0.44770223 0.70542276 0.26200983
0.5486673 0.70756733 0.27601105
0.6358456 0.71446085 0.29460785
0.7152574 0.70787376 0.29724267
0.78792894 0.70266545 0.31213236
0.8559896 0.69966304 0.3094669
0.9044118 0.6976716 0.30612746
0.3935662 0.77450985 0.28020835
0.4408318 0.7825214 0.29217985
0.51948535 0.7953125 0.31027883
0.5983916 0.7988205 0.32160693
0.68247545 0.80588233 0.34099266
0.756227 0.8057751 0.35464156
0.81700367 0.8061121 0.3695466
0.8675322 0.7984988 0.38630515
0.9064338 0.7959559 0.3873162
0.45490196 0.82892156 0.33137256
0.4976716 0.8346814 0.33449757
0.55845594 0.8397059 0.34215686
0.6413603 0.8521446 0.37126225
0.70857847 0.85514706 0.37720588
0.78253675 0.86274505 0.39699754
0.84338236 0.86237746 0.42156863
0.88841915 0.85392153 0.43547794
0.91274506 0.8519608 0.44460785
0.06176471 0.07745098 0.18921567
0.11482843 0.076348044 0.2009804
0.21348038 0.06911765 0.22254902
0.33811277 0.059191182 0.2209559
0.45980394 0.054901965 0.22352941
0.57659316 0.046936274 0.22659315
0.66789216 0.04142157 0.22058824
0.7401961 0.03786765 0.21384802
0.78431374 0.03529412 0.20686275
0.07671569 0.13357843 0.20870097
0.13465074 0.13540135 0.22276348
0.22527574 0.13780639 0.23048408
0.3482537 0.12847733 0.23201594
0.47720587 0.11893383 0.22898285
0.5945313 0.107674636 0.2165288
0.69083947 0.10003064 0.2060049
0.7691636 0.095511645 0.2096967
0.8088236 0.09620098 0.19644608
0.0882353 0.24068627 0.23235294
0.15220588 0.24322917 0.23281251
0.24932599 0.25183824 0.24148284
0.37245712 0.2472733 0.24500613
0.5040441 0.23370098 0.22941178
0.6234375 0.21988359 0.20891544
0.72132355 0.21121323 0.19522059
0.80263484 0.20912988 0.18878676
0.84926474 0.21029413 0.1882353
0.12377451 0.35539216 0.25943628
0.18607537 0.3624847 0.26539522
0.28449756 0.3736213 0.27754292
0.3977788 0.37830883 0.28298104
0.5237745 0.36936277 0.27763483
0.63982844 0.35225186 0.24705884
0.7436582 0.34607846 0.23756127
0.82446384 0.34476104 0.22141545
0.8796569 0.33566177 0.2077206
0.16666667 0.47941178 0.275
0.22585782 0.48835787 0.28284314
0.32463235 0.5004902 0.29901963
0.4333946 0.50594366 0.3072917
0.544853 0.50367653 0.30539218
0.6564338 0.49424022 0.2916054
0.7564951 0.49607843 0.27928925
0.83817405 0.48927698 0.267402
0.887745 0.4906863 0.25637257
0.22328432 0.59950984 0.2904412
0.2824755 0.608027 0.297212
0.3766544 0.6216912 0.3216299
0.479856 0.6272212 0.3385417
0.5827819 0.62469363 0.343076
0.67670035 0.6205423 0.3391238
0.7692402 0.6181373 0.33685663
0.84600186 0.61741734 0.3301011
0.90012264 0.61482847 0.32279414
0.29828432 0.70490193 0.32818627
0.34819242 0.71182597 0.34347427
0.43155637 0.7240809 0.36133575
0.534375 0.729902 0.37159926
0.6306373 0.7318628 0.3926471
0.71519613 0.7251226 0.40049022
0.7919117 0.7196079 0.41182598
0.8602022 0.72064954 0.41038603
0.90661764 0.71887255 0.39705884
0.38713235 0.7926471 0.37855393
0.42671567 0.79937196 0.38238358
0.5031251 0.8129289 0.40030637
0.58958334 0.8203584 0.41459864
0.6754289 0.8231618 0.4276348
0.7517617 0.8256894 0.44483763
0.8174633 0.8215993 0.45572916
0.8735754 0.8187194 0.47066483
0.9105392 0.816299 0.4743873
0.44803923 0.845098 0.41764706
0.48174018 0.8514706 0.42585784
0.5492647 0.8607843 0.4357843
0.62303925 0.86691177 0.45085785
0.70343137 0.87303925 0.46176472
0.7828431 0.8779412 0.48615196
0.84828436 0.88259804 0.50367653
0.88872546 0.8731618 0.5123775
0.9186274 0.87058824 0.52745104
0.06421569 0.09117647 0.2735294
0.116237745 0.08645833 0.29105392
0.19056372 0.083700985 0.31078434
0.29503676 0.07414216 0.33927697
0.42745098 0.07132353 0.33995098
0.5490809 0.060723044 0.33970588
0.64975494 0.0567402 0.33823532
0.7284927 0.055882353 0.33192402
0.77254903 0.051960785 0.32843137
0.07628677 0.15392157 0.29607844
0.13175553 0.15310968 0.31795344
0.21793811 0.15105699 0.32936582
0.32525277 0.14622396 0.34464616
0.45438114 0.1379902 0.34773287
0.5757583 0.1314185 0.3381204
0.6729933 0.12371324 0.33564645
0.75402117 0.12028953 0.33768383
0.7976716 0.11960784 0.31789216
0.091421574 0.26715687 0.3360294
0.15540749 0.2693321 0.34433213
0.24862134 0.26911765 0.35003066
0.36038604 0.2688113 0.3636642
0.48529413 0.26096815 0.360049
0.6114277 0.25514707 0.3398744
0.7089461 0.23884805 0.32947302
0.7942709 0.23803616 0.32297796
0.8416667 0.23284313 0.31360295
0.12089462 0.38180146 0.37775737
0.19508272 0.3910922 0.390288
0.28252146 0.3976869 0.3934896
0.40098038 0.3939568 0.39867494
0.5130208 0.3953125 0.39981622
0.64201134 0.37918198 0.3726869
0.7374694 0.36853555 0.35932907
0.82034314 0.3677696 0.3442938
0.871201 0.36176473 0.33125
0.16764706 0.5029412 0.39705884
0.2273897 0.5124388 0.40465686
0.32095587 0.5215074 0.4158701
0.43471202 0.5294424 0.43121934
0.54607844 0.5280638 0.4237745
0.6591299 0.5171262 0.41559434
0.75545347 0.50827205 0.39283088
0.8423407 0.50523895 0.37665442
0.8941177 0.5034314 0.36789218
0.23376226 0.6175858 0.42150736
0.28244486 0.62689954 0.4196461
0.3672641 0.6370098 0.4361826
0.47088695 0.64815414 0.4489277
0.5774816 0.6485907 0.45294118
0.676011 0.6434283 0.4617264
0.7699295 0.6370711 0.4421109
0.84707415 0.6350261 0.43510264
0.90238976 0.6359069 0.43180144
0.3047794 0.71789217 0.4476716
0.3487745 0.72642463 0.45493257
0.42827818 0.7386949 0.46559435
0.5247396 0.7479014 0.48978245
0.62009805 0.75441176 0.49644607
0.71083033 0.75128675 0.5043965
0.79234064 0.7463236 0.50977325
0.86176467 0.7425092 0.5053922
0.91164213 0.73590684 0.49338236
0.3915441 0.8131127 0.48504904
0.42641696 0.8136795 0.4876072
0.49174327 0.82640934 0.49603248
0.5710938 0.837477 0.51133585
0.6627145 0.84286153 0.5307905
0.7505821 0.8452666 0.53867954
0.8178462 0.83938414 0.55373776
0.8767004 0.8374771 0.5559743
0.9139093 0.8372549 0.5563726
0.45098042 0.8593137 0.5205883
0.48137254 0.8655637 0.52022064
0.536152 0.87585783 0.5375
0.6110907 0.88376224 0.54197305
0.68970585 0.89093137 0.5465687
0.7735294 0.90104175 0.5770221
0.84338236 0.89816177 0.59436274
0.8931373 0.88970584 0.6012868
0.922549 0.8838235 0.6029412
0.07058824 0.10392157 0.35882354
0.12377451 0.09926471 0.37573528
0.18382353 0.09803922 0.40637255
0.2767157 0.09019608 0.42205882
0.39215687 0.08529412 0.4401961
0.51250005 0.082598045 0.45637256
0.61764705 0.07745098 0.45931375
0.7051471 0.0752451 0.46053922
0.7529412 0.07254902 0.4470588
0.08455883 0.17009804 0.392402
0.13777575 0.17457108 0.40548408
0.2148897 0.16746324 0.42450982
0.30625004 0.16348039 0.44727328
0.4180147 0.15686275 0.46360296
0.53844976 0.15318628 0.46838236
0.64773285 0.14871323 0.47561273
0.73020834 0.14822304 0.46516544
0.77500004 0.14362746 0.45833334
0.09558824 0.28627452 0.43627453
0.16194853 0.29178923 0.4477941
0.2504902 0.29693627 0.45808825
0.34938726 0.29381126 0.46868873
0.45759803 0.28406864 0.4791667
0.5755515 0.2748162 0.4813113
0.6865196 0.2716912 0.47732845
0.77438724 0.26550245 0.46930146
0.8240196 0.26715687 0.46274513
0.12916666 0.40416667 0.48578432
0.19552696 0.41302085 0.5017463
0.29307598 0.421875 0.509375
0.39788604 0.42046568 0.5129596
0.5018382 0.41764706 0.52365196
0.6194546 0.40530026 0.5120711
0.7257966 0.39889705 0.5067402
0.8119792 0.39169732 0.48409927
0.8688725 0.38627452 0.47279412
0.17941177 0.5294118 0.52254903
0.23688725 0.5367647 0.5278187
0.32843137 0.5441176 0.5377451
0.43186274 0.5506128 0.54852945
0.54558825 0.54803926 0.5480392
0.6550245 0.54019606 0.5363971
0.7536765 0.5313726 0.52132356
0.83982843 0.52610296 0.5091912
0.88627446 0.52352947 0.48725492
0.24705882 0.6389706 0.5411765
0.29515934 0.64503676 0.5478248
0.37438723 0.65471816 0.5520834
0.46920955 0.6640012 0.5640012
0.57843137 0.6681373 0.571201
0.68039215 0.6657169 0.5645221
0.7697916 0.65796566 0.55575985
0.8558211 0.65076596 0.5394302
0.90563726 0.6480392 0.5259805
0.32205886 0.732353 0.5686275
0.36531863 0.74264705 0.5797181
0.42965686 0.7551471 0.5830883
0.5200981 0.7596201 0.5918505
0.6127451 0.769853 0.6034314
0.7078432 0.77181375 0.6088848
0.79375 0.7644608 0.61066175
0.8677083 0.7599877 0.59969366
0.9161765 0.7529412 0.5950981
0.40955883 0.81936276 0.58995104
0.44185048 0.8277267 0.59862137
0.49264705 0.8367034 0.59926474
0.5677084 0.84761035 0.6087316
0.6506128 0.85551465 0.6204657
0.73676467 0.8593137 0.6297182
0.81415445 0.85833335 0.64497554
0.8768076 0.85459554 0.6479473
0.91789216 0.8549019 0.6433824
0.46862745 0.8666667 0.6215687
0.4906863 0.8764706 0.6166667
0.5421569 0.8838235 0.6264706
0.6026961 0.89681375 0.6335784
0.6813725 0.90686274 0.6401961
0.7620098 0.91519606 0.6595589
0.8362745 0.91519606 0.6740196
0.89411765 0.9093137 0.6769608
0.92941177 0.9078431 0.6960784
0.07794118 0.12107843 0.44117647
0.13069853 0.11501226 0.45857844
0.18860292 0.113235295 0.48860297
0.2778799 0.111335784 0.5241422
0.36960787 0.10490196 0.5372549
0.48462012 0.09797794 0.5499388
0.5877451 0.09583333 0.5716912
0.68645835 0.0971201 0.57634807
0.74068636 0.10392157 0.57009804
0.09074755 0.19013481 0.46727943
0.14095435 0.19310662 0.483341
0.21790746 0.18915442 0.5130515
0.30536917 0.18036152 0.5367877
0.4012255 0.17588848 0.5550858
0.50769764 0.17225796 0.56884193
0.6154259 0.17238052 0.57841605
0.71056986 0.17547488 0.5854626
0.76047796 0.1786152 0.5744486
0.10257353 0.3077206 0.5216912
0.16836704 0.31171876 0.53269
0.25686276 0.3178309 0.5490502
0.3541054 0.31372553 0.56936276
0.44852942 0.30563727 0.57971823
0.5541207 0.29937196 0.5925092
0.65379906 0.30205274 0.5992341
0.7515319 0.29955578 0.600383
0.8040441 0.3029412 0.5925245
0.13143383 0.4283701 0.5786765
0.19552696 0.43606004 0.5889553
0.30258888 0.44155943 0.61121327
0.40428925 0.44816944 0.60757506
0.49816176 0.43679535 0.6223039
0.5960248 0.4304611 0.6301777
0.6995098 0.4278033 0.63210785
0.7896829 0.42768842 0.6252834
0.8456495 0.42224264 0.61145836
0.18848039 0.5522059 0.63259804
0.24442402 0.55560666 0.633364
0.3389706 0.56727946 0.6452206
0.4388174 0.5730393 0.6468443
0.54154414 0.56752455 0.65318626
0.6435355 0.5625 0.65392154
0.7395221 0.5569854 0.64454657
0.8243566 0.5520834 0.636489
0.8769608 0.5446079 0.6240196
0.25974268 0.6666667 0.66219366
0.31066942 0.66637564 0.6637331
0.39221814 0.6777727 0.66513485
0.47471663 0.6821538 0.67125463
0.57870716 0.6839767 0.67248774
0.67762715 0.6809666 0.672595
0.7653646 0.6809896 0.6663297
0.8477099 0.66896445 0.6522672
0.90196085 0.67310053 0.6460172
0.34203434 0.75208336 0.6778186
0.37846202 0.75919116 0.6887408
0.44846815 0.7676471 0.6993566
0.5253677 0.7738358 0.7016851
0.61231613 0.78302705 0.70349264
0.70384496 0.7855546 0.70595896
0.7888787 0.7855699 0.7091605
0.87008274 0.7774663 0.7021446
0.9169117 0.7727941 0.6875
0.43235293 0.826777 0.6936275
0.46252298 0.83404565 0.692739
0.5135417 0.8460325 0.7015319
0.5782246 0.85600483 0.70895374
0.6477635 0.8642157 0.7134498
0.73122704 0.8676088 0.7220435
0.8098039 0.8746477 0.72964156
0.881296 0.8707951 0.73105854
0.9268382 0.87058824 0.73357844
0.49705884 0.8784314 0.7151961
0.5188113 0.8784314 0.71525735
0.5583334 0.8955882 0.7171569
0.61666673 0.90245104 0.7239584
0.67990196 0.91519606 0.7272059
0.75085783 0.9223039 0.7385417
0.8290441 0.92806375 0.7572304
0.8903799 0.92579657 0.7607843
0.93284315 0.9245098 0.76274514
0.09019608 0.14509805 0.5058824
0.13161765 0.14779413 0.52879906
0.2002451 0.13700981 0.55833334
0.2879902 0.13125001 0.59607846
0.37303922 0.1259804 0.6196079
0.46911764 0.12512255 0.63676476
0.5664216 0.12230393 0.65294117
0.6604167 0.12806374 0.67132354
0.72156864 0.12843138 0.67156863
0.09754902 0.2180147 0.5422794
0.15254289 0.21741727 0.55635726
0.23094362 0.21372549 0.5808824
0.31113666 0.2088848 0.6151961
0.40349266 0.20073529 0.63462013
0.5000919 0.19436274 0.65674025
0.5905025 0.19800858 0.67092526
0.68360907 0.20327818 0.6852482
0.7345588 0.20796569 0.68897057
0.10931373 0.33627453 0.59681374
0.17594975 0.33700982 0.6012868
0.2672181 0.34129903 0.6248162
0.358364 0.34203434 0.64393383
0.44730392 0.33125 0.6602941
0.5401348 0.32634807 0.67821693
0.63412994 0.32855392 0.6911152
0.7221508 0.3294118 0.6991728
0.78137255 0.3345588 0.70416665
0.14289217 0.45526963 0.6627451
0.21338849 0.4545956 0.67117035
0.3060049 0.4710478 0.6759804
0.40753677 0.47028184 0.6817249
0.5004902 0.46323532 0.7079657
0.5973652 0.45476413 0.71717227
0.68177086 0.4508272 0.72677696
0.7679841 0.4522978 0.73259807
0.8234068 0.45441177 0.7305147
0.19705883 0.57500005 0.7132353
0.25251225 0.57990193 0.71458334
0.3457108 0.5867647 0.72377455
0.44626224 0.59430146 0.72567403
0.54632354 0.58897054 0.73063725
0.6351103 0.5837623 0.7435662
0.7171569 0.5783088 0.7422794
0.80355394 0.5793505 0.75140935
0.8593137 0.57549024 0.7465687
0.26838237 0.6839461 0.74215686
0.32435662 0.6853707 0.74788606
0.39675248 0.6939338 0.7525123
0.4874847 0.7020374 0.76214767
0.5844363 0.70079654 0.76047796
0.6725337 0.7015625 0.7727329
0.75965077 0.6936275 0.7605086
0.8390013 0.6953738 0.75860906
0.8819853 0.6920343 0.75477946
0.36029413 0.7732843 0.775
0.39871326 0.77889097 0.78281254
0.4636642 0.7865809 0.7857231
0.53878677 0.7921875 0.7879596
0.62438726 0.79301476 0.7935049
0.7063113 0.7950368 0.79568017
0.78449756 0.7980392 0.7971201
0.863174 0.79136026 0.7902574
0.9090686 0.79117644 0.78063726
0.45710784 0.84362745 0.7845589
0.4854473 0.8488358 0.78534013
0.5345282 0.85343134 0.792739
0.59575677 0.8641391 0.7919271
0.659375 0.871201 0.8034314
0.7313572 0.87731314 0.8042892
0.811489 0.8815564 0.8101716
0.8773897 0.885432 0.81086093
0.9276961 0.8832108 0.81213236
0.5196079 0.8872549 0.79607844
0.54178923 0.89117646 0.79718137
0.5830883 0.8987745 0.8026961
0.6340686 0.907598 0.8017156
0.6906862 0.9196079 0.8058824
0.75392157 0.9318628 0.8192402
0.82647055 0.9365196 0.8240196
0.88799024 0.93602943 0.82892156
0.9294118 0.94019616 0.83725494
0.09264706 0.18529412 0.5666667
0.15189952 0.1783701 0.58523285
0.21458332 0.17352942 0.6164216
0.29889706 0.16568628 0.6490196
0.3870098 0.16250001 0.6769608
0.47432595 0.16231619 0.7066789
0.5601716 0.16164216 0.7248774
0.6460172 0.16482843 0.7431373
0.6970588 0.16421568 0.7465686
0.11329657 0.25140932 0.5996324
0.16722581 0.25326288 0.61842066
0.24148284 0.24865197 0.6428309
0.32886797 0.24397211 0.67175245
0.41461396 0.2353554 0.70030636
0.5072304 0.23333333 0.72166055
0.5891544 0.23060662 0.7418964
0.6692019 0.23572303 0.75893843
0.7177696 0.24068627 0.7676471
0.12120098 0.36936274 0.6580882
0.18916973 0.3702512 0.66620713
0.28112748 0.37196693 0.68422186
0.3731924 0.37447917 0.70868564
0.45716912 0.365625 0.72432595
0.5460478 0.3603554 0.7464002
0.6260723 0.35505515 0.76029414
0.70896137 0.36150432 0.77608764
0.7588235 0.36531863 0.78590685
0.15919118 0.48125002 0.7195466
0.22405791 0.4858073 0.7287454
0.3223652 0.49149817 0.73529416
0.4214614 0.49466914 0.75157785
0.51081496 0.48973653 0.77322304
0.5911459 0.48596048 0.783004
0.6719669 0.47925857 0.7972733
0.75164676 0.48161766 0.8125154
0.8011642 0.48002452 0.81041664
0.2127451 0.59926474 0.7683824
0.27199757 0.6040748 0.7744486
0.35796568 0.60937506 0.7838235
0.4545956 0.6129289 0.79482234
0.55147064 0.61421573 0.8003677
0.6351716 0.61035544 0.81274515
0.7147672 0.6020833 0.8211397
0.7866422 0.6029412 0.8294424
0.83799016 0.6012255 0.83357847
0.29362747 0.7066789 0.8168505
0.33651194 0.7074602 0.8127834
0.4125153 0.71352637 0.81490505
0.49996176 0.7172641 0.8293965
0.58995104 0.71819854 0.83256745
0.6766851 0.7178079 0.83372396
0.75274205 0.7138174 0.84345895
0.8265549 0.71428466 0.84691334
0.8735295 0.7162377 0.8473039
0.37757352 0.79129905 0.8414216
0.41337317 0.79525125 0.84610903
0.48014706 0.7988051 0.85094976
0.5510111 0.80441177 0.85787374
0.63284314 0.80594367 0.8634191
0.7136949 0.8089155 0.8623009
0.7863052 0.81167287 0.8684743
0.8588695 0.80842525 0.8701593
0.9007353 0.80735296 0.86360294
0.47628677 0.8617034 0.85539216
0.50607383 0.8664446 0.86204046
0.55330884 0.86824447 0.86269915
0.6091069 0.8744868 0.86636794
0.67570466 0.8809743 0.87104785
0.7452053 0.8872473 0.8734911
0.8132813 0.88999695 0.87728244
0.87594974 0.8953202 0.87899053
0.9204044 0.89705884 0.87438726
0.54509807 0.9034314 0.86519605
0.5665441 0.90625 0.8693628
0.6041667 0.91017157 0.8659314
0.65202206 0.9186887 0.8731618
0.7056373 0.9252451 0.87328434
0.76525736 0.9315564 0.8853554
0.82904416 0.9405638 0.8878677
0.88664216 0.9481005 0.8955882
0.9284314 0.9490196 0.8946079
0.101960786 0.21176471 0.5921569
0.15343139 0.20392157 0.61715686
0.22941178 0.2 0.6490196
0.30735296 0.19558823 0.6789216
0.4019608 0.18627451 0.7156863
0.48088235 0.19117646 0.7372549
0.56372553 0.1882353 0.75980395
0.63186276 0.19068627 0.77745104
0.68235296 0.19215685 0.7882353
0.11372549 0.27401963 0.6279412
0.17450982 0.27996325 0.6499387
0.25367647 0.27303922 0.6768383
0.33566177 0.26893383 0.7002451
0.4269608 0.26004905 0.7313726
0.5091299 0.25637257 0.7553922
0.5927696 0.25857845 0.77794117
0.6618873 0.2591912 0.7981005
0.71274513 0.25833336 0.80833334
0.1392157 0.39313728 0.69509804
0.20355392 0.3985294 0.7019608
0.29852942 0.4014706 0.71250004
0.38357842 0.3990196 0.7415441
0.4735294 0.3897059 0.76274514
0.55539215 0.3879902 0.786152
0.63480395 0.38529414 0.81053925
0.7046569 0.38590688 0.8208333
0.7441177 0.3892157 0.8264706
0.16617647 0.49460784 0.7504902
0.23321079 0.5094976 0.7570466
0.3334559 0.5161765 0.7697303
0.42800245 0.51703435 0.7822917
0.5115196 0.50980395 0.7980392
0.60294116 0.5020221 0.81703436
0.6759804 0.5019608 0.826348
0.7357231 0.5026961 0.84889704
0.79313725 0.5014706 0.86274505
0.2235294 0.61764705 0.80980396
0.28284314 0.6203432 0.81053925
0.36862746 0.625 0.82009804
0.4612745 0.627451 0.82892156
0.5588236 0.6333333 0.8352941
0.6458334 0.6240196 0.8455882
0.7112745 0.62205887 0.85245097
0.78455883 0.62083334 0.87696075
0.8333334 0.62352943 0.88235295
0.3 0.71960783 0.84705883
0.34718138 0.720772 0.8491422
0.42254904 0.7225491 0.85857844
0.5082721 0.73382354 0.861397
0.6004902 0.73284316 0.8708334
0.6833334 0.73523283 0.8704657
0.7591912 0.7339461 0.8833333
0.8219363 0.7285539 0.88915443
0.86225486 0.73039216 0.9009805
0.38529414 0.8039216 0.87254906
0.42830884 0.8028186 0.8838235
0.4877451 0.80808824 0.8865196
0.554902 0.81470585 0.88909316
0.6333333 0.8181372 0.8995098
0.7177696 0.8199755 0.9030638
0.7914216 0.82279414 0.90906864
0.84950984 0.8181373 0.9099264
0.89411765 0.8088235 0.91568625
0.4921569 0.8740196 0.90196085
0.518076 0.88094366 0.90496325
0.5685049 0.8822304 0.9094362
0.62187505 0.8871324 0.9169118
0.685049 0.88823533 0.9115196
0.74981624 0.8946079 0.9155024
0.82218134 0.9011029 0.9235294
0.87346816 0.9018382 0.92738974
0.91519606 0.90294117 0.9254902
0.56078434 0.92156863 0.917647
0.5833334 0.9191176 0.9122549
0.6156863 0.9254902 0.9137255
0.6686275 0.9254902 0.9181372
0.71960783 0.9313726 0.92156863
0.77941185 0.9372549 0.93284315
0.83137256 0.9431373 0.92647064
0.88872546 0.9553921 0.9318628
0.9294118 0.9529412 0.9372549
