assets/luts/LUTs/LEICA/LEICA IA.cube
#Generated by PennL1 - 闲鱼号：LOOK胶片感 公众号：胶片感
TITLE LEICA IA
LUT_3D_SIZE 9
0.0 0.0 0.0
0.047058824 0.047058824 0.047058824
0.11372549 0.11372549 0.11372549
0.1882353 0.1882353 0.1882353
0.25490198 0.25490198 0.25490198
0.35686278 0.35686278 0.35686278
0.43137252 0.43137252 0.43137252
0.48235294 0.48235294 0.4862745
0.50980395 0.50980395 0.50980395
0.101960786 0.101960786 0.101960786
0.11372549 0.11372549 0.11372549
0.15686275 0.15686275 0.15686275
0.20392157 0.20392157 0.20392157
0.26666668 0.26666668 0.26666668
0.36862746 0.36862746 0.36862746
0.4392157 0.43529412 0.43529412
0.49803925 0.49803925 0.49803925
0.5294118 0.5294118 0.5294118
0.20784314 0.20784314 0.20784314
0.20784314 0.20784314 0.20784314
0.23137255 0.23137255 0.23137255
0.25882354 0.25882354 0.25882354
0.3254902 0.3254902 0.3254902
0.39215687 0.39215687 0.39215687
0.46666667 0.46666667 0.46666667
0.5254902 0.5254902 0.5254902
0.54509807 0.54509807 0.54509807
0.33333334 0.33333334 0.33333334
0.32941177 0.32941177 0.32941177
0.3372549 0.3372549 0.3372549
0.36470586 0.36470586 0.36470586
0.4039216 0.4039216 0.4039216
0.47843134 0.48235294 0.48235294
0.5411765 0.5411765 0.5411765
0.58431375 0.58431375 0.58431375
0.6039216 0.6039216 0.6
0.45098042 0.45098042 0.45098042
0.44313726 0.44313726 0.44313726
0.4588235 0.4588235 0.4588235
0.4745098 0.4745098 0.4745098
0.5137255 0.5137255 0.5137255
0.5686275 0.5686275 0.5686275
0.62352943 0.62352943 0.62352943
0.67058825 0.67058825 0.67058825
0.6862745 0.6862745 0.6862745
0.5529412 0.5529412 0.5529412
0.5764706 0.5764706 0.5764706
0.5882353 0.5882353 0.5882353
0.6156863 0.6156863 0.6156863
0.6509804 0.6509804 0.6509804
0.68235296 0.68235296 0.6862745
0.7372549 0.7372549 0.7372549
0.7607843 0.7607843 0.75686276
0.77254903 0.7764706 0.77254903
0.64705884 0.64705884 0.64705884
0.67058825 0.67058825 0.67058825
0.6901961 0.6901961 0.6901961
0.7176471 0.7176471 0.7176471
0.74117655 0.74117655 0.74117655
0.78431374 0.78431374 0.78431374
0.827451 0.827451 0.827451
0.8392157 0.8392157 0.8392157
0.8392157 0.8392157 0.8392157
0.7607843 0.7607843 0.75686276
0.7647059 0.7647059 0.7647059
0.7686274 0.7686274 0.7686274
0.8 0.7960784 0.7960784
0.83137256 0.83137256 0.83137256
0.85882354 0.85882354 0.85882354
0.88235295 0.88235295 0.88235295
0.890196 0.890196 0.890196
0.8980392 0.8980392 0.8980392
0.8392157 0.8392157 0.8392157
0.82352936 0.82352936 0.82352936
0.8352942 0.8352942 0.8352942
0.8509804 0.8509804 0.8509804
0.8509804 0.8509804 0.8509804
0.890196 0.890196 0.890196
0.90588236 0.90588236 0.90588236
0.9254902 0.9254902 0.9254902
0.94509804 0.94509804 0.94509804
0.011764706 0.011764706 0.011764706
0.05490196 0.05490196 0.05490196
0.12156863 0.12156863 0.12156863
0.18039216 0.18039216 0.18039216
0.25882354 0.2627451 0.2627451
0.34117648 0.34117648 0.34117648
0.43137252 0.43137252 0.43137252
0.47843134 0.47843134 0.47843134
0.5176471 0.5176471 0.5176471
0.101960786 0.101960786 0.101960786
0.1254902 0.1254902 0.1254902
0.15686275 0.15686275 0.15686275
0.22352941 0.21960784 0.22352941
0.26666668 0.26666668 0.26666668
0.3529412 0.3529412 0.3529412
0.42745098 0.42745098 0.42745098
0.48235294 0.48235294 0.48235294
0.5137255 0.5137255 0.5137255
0.21568626 0.21568626 0.21568626
0.21568626 0.21568626 0.21568626
0.23137255 0.23137255 0.23137255
0.27058825 0.27058825 0.27058825
0.32156864 0.32156864 0.32156864
0.39607844 0.39607844 0.39607844
0.47058827 0.47058827 0.47058827
0.5176471 0.5176471 0.5176471
0.5411765 0.5411765 0.5411765
0.3254902 0.3254902 0.3254902
0.32941177 0.32941177 0.32941177
0.34509805 0.34509805 0.34509805
0.36078432 0.36078432 0.36078432
0.41176468 0.41176468 0.41176468
0.46666667 0.46666667 0.46666667
0.53333336 0.53333336 0.5294118
0.58431375 0.5803922 0.58431375
0.62352943 0.62352943 0.62352943
0.44705883 0.44705883 0.44705883
0.44705883 0.44313726 0.44313726
0.4588235 0.4588235 0.4588235
0.47843134 0.47843134 0.47843134
0.52156866 0.52156866 0.52156866
0.57254905 0.57254905 0.57254905
0.6156863 0.6156863 0.6156863
0.6784314 0.6784314 0.6784314
0.68235296 0.68235296 0.68235296
0.5568628 0.5568628 0.5568628
0.57254905 0.57254905 0.57254905
0.5921569 0.5921569 0.5921569
0.6313726 0.627451 0.627451
0.654902 0.654902 0.654902
0.69411767 0.69411767 0.69411767
0.73333335 0.73333335 0.73333335
0.7647059 0.7647059 0.7647059
0.77254903 0.77254903 0.7764706
0.6509804 0.6509804 0.6509804
0.6784314 0.6784314 0.6784314
0.69411767 0.69411767 0.69411767
0.73333335 0.73333335 0.73333335
0.75686276 0.75686276 0.75686276
0.78431374 0.78431374 0.78431374
0.81960785 0.81960785 0.81960785
0.8392157 0.8392157 0.8392157
0.8352942 0.8352942 0.8352942
0.7529412 0.7529412 0.7529412
0.7529412 0.75686276 0.75686276
0.7803922 0.7803922 0.7803922
0.8039216 0.8039216 0.8
0.827451 0.827451 0.827451
0.8509804 0.8509804 0.8509804
0.8784314 0.8784314 0.8784314
0.8980392 0.89411765 0.89411765
0.8980392 0.8980392 0.8980392
0.84313726 0.84313726 0.84313726
0.83137256 0.83137256 0.83137256
0.84313726 0.84313726 0.84705883
0.85490197 0.85490197 0.85490197
0.8666667 0.8666667 0.8666667
0.890196 0.8862745 0.8862745
0.90588236 0.90588236 0.90588236
0.93333334 0.93333334 0.93333334
0.9490196 0.9490196 0.9490196
0.050980393 0.050980393 0.050980393
0.078431375 0.078431375 0.078431375
0.13725491 0.13725491 0.13725491
0.1882353 0.1882353 0.1882353
0.27058825 0.27058825 0.27058825
0.3529412 0.3529412 0.3529412
0.43137252 0.43137252 0.43137252
0.48235294 0.48235294 0.48235294
0.49803925 0.49803925 0.49803925
0.11764707 0.11764707 0.11764707
0.13725491 0.13725491 0.13725491
0.17254902 0.17254902 0.17254902
0.21960784 0.21960784 0.21960784
0.28235295 0.28235295 0.28235295
0.37254903 0.37254903 0.37254903
0.43137252 0.43137252 0.43137252
0.4862745 0.48235294 0.48235294
0.5294118 0.5254902 0.5294118
0.20784314 0.20784314 0.20784314
0.22745098 0.22745098 0.22745098
0.23921567 0.23921567 0.23921567
0.2784314 0.2784314 0.2784314
0.3254902 0.3254902 0.3254902
0.39607844 0.39607844 0.39607844
0.4745098 0.4745098 0.4745098
0.5254902 0.5294118 0.5294118
0.54901963 0.54901963 0.54901963
0.3372549 0.3372549 0.3372549
0.33333334 0.33333334 0.33333334
0.3529412 0.3529412 0.3529412
0.36862746 0.36862746 0.36862746
0.41960785 0.41960785 0.41960785
0.49411765 0.49411765 0.49411765
0.54509807 0.54509807 0.54901963
0.5882353 0.5882353 0.5882353
0.6156863 0.6156863 0.6156863
0.44705883 0.44705883 0.44705883
0.45098042 0.45098042 0.45490196
0.4745098 0.4745098 0.4745098
0.49019608 0.49019608 0.49019608
0.5176471 0.5176471 0.5176471
0.5803922 0.5803922 0.5803922
0.62352943 0.62352943 0.62352943
0.6627451 0.65882355 0.6627451
0.6862745 0.6862745 0.6862745
0.5529412 0.5529412 0.5529412
0.5686275 0.5686275 0.5686275
0.57254905 0.57254905 0.57254905
0.62352943 0.62352943 0.62352943
0.6509804 0.6509804 0.6509804
0.6901961 0.6901961 0.6862745
0.7372549 0.7372549 0.7372549
0.7529412 0.7529412 0.7529412
0.7803922 0.7803922 0.7803922
0.6627451 0.6627451 0.6627451
0.68235296 0.68235296 0.68235296
0.69411767 0.69411767 0.69411767
0.72156864 0.72156864 0.72156864
0.75686276 0.7607843 0.7607843
0.7960784 0.7960784 0.7960784
0.82352936 0.82352936 0.82352936
0.84705883 0.84705883 0.84705883
0.84705883 0.84705883 0.84705883
0.7490196 0.7490196 0.7490196
0.75686276 0.75686276 0.75686276
0.77254903 0.77254903 0.77254903
0.7960784 0.7960784 0.7960784
0.81960785 0.81960785 0.81960785
0.85882354 0.85882354 0.85882354
0.8862745 0.88235295 0.88235295
0.89411765 0.89411765 0.89411765
0.89411765 0.8980392 0.89411765
0.81960785 0.8156863 0.81960785
0.827451 0.827451 0.827451
0.8392157 0.8392157 0.8392157
0.8509804 0.8509804 0.8509804
0.85882354 0.85882354 0.85882354
0.89411765 0.89411765 0.890196
0.90588236 0.90588236 0.90588236
0.9294118 0.9294118 0.9294118
0.94509804 0.94509804 0.94509804
0.101960786 0.101960786 0.101960786
0.11372549 0.11372549 0.11372549
0.14901961 0.14901961 0.14901961
0.20392157 0.20392157 0.20392157
0.28627452 0.28627452 0.28627452
0.36470586 0.36470586 0.36470586
0.43529412 0.43529412 0.43529412
0.5019608 0.5019608 0.5019608
0.52156866 0.52156866 0.52156866
0.14117648 0.14117648 0.14117648
0.16470589 0.16470589 0.16470589
0.19215685 0.19215685 0.19215685
0.23137255 0.23137255 0.23137255
0.3019608 0.29803923 0.29803923
0.3843137 0.3843137 0.3843137
0.44705883 0.44705883 0.44705883
0.5058824 0.5058824 0.5058824
0.5372549 0.5372549 0.5372549
0.23137255 0.23137255 0.23137255
0.24313726 0.24313726 0.24313726
0.25882354 0.25882354 0.25882354
0.2901961 0.2901961 0.2901961
0.34901962 0.34901962 0.34901962
0.41568628 0.41568628 0.41568628
0.49019608 0.49019608 0.49019608
0.52156866 0.52156866 0.52156866
0.5529412 0.5529412 0.5529412
0.34901962 0.34901962 0.34901962
0.34509805 0.34117648 0.34117648
0.34901962 0.34901962 0.34901962
0.38039216 0.38039216 0.38039216
0.41568628 0.41568628 0.41568628
0.49019608 0.49411765 0.49019608
0.54901963 0.54901963 0.54901963
0.5921569 0.5921569 0.5921569
0.6156863 0.6156863 0.6156863
0.4392157 0.4392157 0.4392157
0.4627451 0.4627451 0.4627451
0.47843134 0.47843134 0.47843134
0.49411765 0.49411765 0.49411765
0.5372549 0.5372549 0.5372549
0.5803922 0.5803922 0.5803922
0.63529414 0.63529414 0.63529414
0.6745098 0.6745098 0.6745098
0.6862745 0.6862745 0.6862745
0.5647059 0.5647059 0.5647059
0.5803922 0.5803922 0.5803922
0.59607846 0.59607846 0.59607846
0.6313726 0.6313726 0.6313726
0.6509804 0.6509804 0.6509804
0.7058824 0.7058824 0.7058824
0.7372549 0.7372549 0.7372549
0.77254903 0.77254903 0.77254903
0.7803922 0.7803922 0.7803922
0.68235296 0.6784314 0.68235296
0.68235296 0.68235296 0.68235296
0.69411767 0.69411767 0.69411767
0.72156864 0.72156864 0.72156864
0.7607843 0.7607843 0.7607843
0.8078432 0.8078432 0.8078432
0.83137256 0.83137256 0.827451
0.84705883 0.84705883 0.84705883
0.84313726 0.84313726 0.84313726
0.75686276 0.75686276 0.75686276
0.7647059 0.7647059 0.7647059
0.7803922 0.7803922 0.7803922
0.8078432 0.8078432 0.8078432
0.81960785 0.82352936 0.82352936
0.85882354 0.85882354 0.85882354
0.88235295 0.88235295 0.88235295
0.90588236 0.90588236 0.90588236
0.9098039 0.9098039 0.9098039
0.8352942 0.8352942 0.8352942
0.83137256 0.83137256 0.83137256
0.8352942 0.8352942 0.8352942
0.84705883 0.84705883 0.84705883
0.87058824 0.87058824 0.87058824
0.890196 0.890196 0.8862745
0.9098039 0.9098039 0.9098039
0.93333334 0.9294118 0.93333334
0.9529412 0.9529412 0.9529412
0.13333334 0.13333334 0.13333334
0.15294118 0.15294118 0.15294118
0.19215685 0.19607843 0.19607843
0.24313726 0.24313726 0.24313726
0.2901961 0.2901961 0.2901961
0.38039216 0.38039216 0.38039216
0.45098042 0.45098042 0.45098042
0.49019608 0.49019608 0.49019608
0.5176471 0.5176471 0.52156866
0.18431373 0.18431373 0.18431373
0.19607843 0.19607843 0.19607843
0.22352941 0.22352941 0.22352941
0.25882354 0.25882354 0.25882354
0.3137255 0.3137255 0.3137255
0.40784314 0.40784314 0.40784314
0.46666667 0.46666667 0.46666667
0.5176471 0.5176471 0.5176471
0.53333336 0.53333336 0.53333336
0.25490198 0.25490198 0.25490198
0.26666668 0.26666668 0.26666668
0.27450982 0.27450982 0.27450982
0.3137255 0.3137255 0.3137255
0.36862746 0.36862746 0.36862746
0.44705883 0.44705883 0.44705883
0.5058824 0.5058824 0.5058824
0.5529412 0.5529412 0.5529412
0.56078434 0.56078434 0.56078434
0.35686278 0.35686278 0.35686278
0.35686278 0.3529412 0.3529412
0.36470586 0.36470586 0.36470586
0.39215687 0.3882353 0.39215687
0.42745098 0.42745098 0.42745098
0.49803925 0.5019608 0.5019608
0.5686275 0.5686275 0.5686275
0.6039216 0.6039216 0.6039216
0.6156863 0.6156863 0.6156863
0.4588235 0.4588235 0.4588235
0.4627451 0.4627451 0.4627451
0.4862745 0.4862745 0.4862745
0.5137255 0.5137255 0.5176471
0.54509807 0.54509807 0.54509807
0.60784316 0.6117647 0.60784316
0.64705884 0.64705884 0.64705884
0.6784314 0.6784314 0.6784314
0.6862745 0.6901961 0.6901961
0.5764706 0.5764706 0.5764706
0.5921569 0.5921569 0.5921569
0.6156863 0.6156863 0.6156863
0.63529414 0.63529414 0.63529414
0.6666667 0.6666667 0.6666667
0.71372557 0.71372557 0.71372557
0.75686276 0.75686276 0.75686276
0.77254903 0.7764706 0.7764706
0.7764706 0.7764706 0.7764706
0.6784314 0.6784314 0.6784314
0.6901961 0.6901961 0.6901961
0.71372557 0.71372557 0.71372557
0.7372549 0.7372549 0.7372549
0.7686274 0.7686274 0.7686274
0.8 0.8039216 0.8039216
0.8392157 0.8392157 0.8392157
0.85490197 0.85490197 0.85490197
0.85882354 0.85882354 0.85882354
0.7647059 0.7686274 0.7647059
0.77254903 0.77254903 0.77254903
0.7960784 0.7921569 0.7921569
0.8078432 0.8078432 0.8078432
0.83137256 0.83137256 0.83137256
0.87058824 0.87058824 0.87058824
0.89411765 0.89411765 0.89411765
0.917647 0.917647 0.917647
0.917647 0.917647 0.917647
0.8392157 0.8392157 0.8392157
0.83137256 0.8352942 0.8352942
0.84313726 0.84313726 0.84313726
0.85490197 0.85490197 0.85490197
0.87058824 0.87058824 0.8666667
0.90196085 0.90196085 0.90196085
0.917647 0.917647 0.917647
0.94117653 0.94117653 0.94117653
0.9529412 0.9529412 0.9529412
0.1882353 0.1882353 0.1882353
0.20392157 0.20392157 0.20392157
0.23921567 0.23921567 0.23921567
0.27450982 0.27450982 0.27450982
0.33333334 0.33333334 0.33333334
0.4 0.4 0.4
0.4745098 0.4745098 0.4745098
0.5254902 0.5254902 0.5254902
0.5529412 0.54901963 0.5529412
0.21960784 0.21960784 0.21960784
0.23529413 0.23529413 0.23529413
0.25490198 0.25882354 0.25882354
0.29803923 0.29803923 0.29803923
0.34117648 0.34117648 0.34117648
0.41960785 0.41960785 0.41960785
0.4862745 0.4862745 0.4862745
0.5411765 0.5411765 0.5411765
0.54509807 0.54509807 0.54509807
0.29411766 0.29411766 0.29411766
0.28627452 0.28627452 0.28627452
0.31764707 0.32156864 0.31764707
0.34901962 0.3529412 0.34901962
0.39215687 0.39215687 0.39215687
0.45098042 0.45098042 0.45098042
0.52156866 0.52156866 0.52156866
0.5764706 0.5764706 0.5764706
0.5921569 0.5921569 0.5921569
0.3882353 0.3882353 0.3882353
0.3764706 0.3764706 0.3764706
0.3882353 0.3882353 0.3882353
0.42745098 0.42745098 0.42745098
0.46666667 0.46666667 0.46666667
0.54509807 0.54509807 0.54509807
0.5882353 0.5882353 0.5882353
0.62352943 0.62352943 0.627451
0.62352943 0.62352943 0.62352943
0.49019608 0.49019608 0.49019608
0.5058824 0.5058824 0.5058824
0.49803925 0.49803925 0.49803925
0.53333336 0.53333336 0.53333336
0.57254905 0.57254905 0.57254905
0.61960787 0.61960787 0.61960787
0.6784314 0.6784314 0.6784314
0.69803923 0.69803923 0.69803923
0.71372557 0.71372557 0.71372557
0.58431375 0.58431375 0.58431375
0.6 0.6 0.6
0.61960787 0.6156863 0.61960787
0.64705884 0.64705884 0.64705884
0.6784314 0.6784314 0.6784314
0.72156864 0.72156864 0.72156864
0.77254903 0.77254903 0.77254903
0.7921569 0.7921569 0.7921569
0.7921569 0.7960784 0.7921569
0.69411767 0.69411767 0.69411767
0.69411767 0.69411767 0.69411767
0.7254902 0.72156864 0.7254902
0.75686276 0.7529412 0.75686276
0.7803922 0.7803922 0.7803922
0.8117647 0.8117647 0.8117647
0.84313726 0.84313726 0.84313726
0.85882354 0.85490197 0.85882354
0.86274505 0.86274505 0.86274505
0.7686274 0.7686274 0.7686274
0.7764706 0.7764706 0.7764706
0.8078432 0.8078432 0.8039216
0.8156863 0.8156863 0.8156863
0.84313726 0.84313726 0.84313726
0.87058824 0.87058824 0.87058824
0.8980392 0.8980392 0.8980392
0.917647 0.917647 0.917647
0.90588236 0.90588236 0.90588236
0.84313726 0.84313726 0.84313726
0.84705883 0.84705883 0.84705883
0.85882354 0.85882354 0.85882354
0.87058824 0.8666667 0.87058824
0.88235295 0.88235295 0.88235295
0.90588236 0.90588236 0.90588236
0.9254902 0.9254902 0.9254902
0.9490196 0.9490196 0.9490196
0.9647059 0.9647059 0.9647059
0.2509804 0.2509804 0.2509804
0.25490198 0.25490198 0.25490198
0.28235295 0.28235295 0.28235295
0.3137255 0.31764707 0.3137255
0.36862746 0.36862746 0.36862746
0.42352942 0.42352942 0.42352942
0.49411765 0.49411765 0.49411765
0.5411765 0.5411765 0.5411765
0.5529412 0.5529412 0.5529412
0.26666668 0.2627451 0.26666668
0.28627452 0.28627452 0.28627452
0.3019608 0.3019608 0.3019608
0.34509805 0.34509805 0.34509805
0.39215687 0.39215687 0.39215687
0.44705883 0.44705883 0.44705883
0.50980395 0.50980395 0.50980395
0.54901963 0.54509807 0.54509807
0.5686275 0.5686275 0.5686275
0.3137255 0.3137255 0.3137255
0.3372549 0.3372549 0.3372549
0.34901962 0.34901962 0.34901962
0.3843137 0.3843137 0.3843137
0.43529412 0.43529412 0.43529412
0.4862745 0.4862745 0.48235294
0.54509807 0.54509807 0.54509807
0.59607846 0.59607846 0.59607846
0.6117647 0.6117647 0.60784316
0.4039216 0.4 0.4
0.41176468 0.41176468 0.41176468
0.41960785 0.41960785 0.41960785
0.4627451 0.4627451 0.4627451
0.4862745 0.4862745 0.4862745
0.54509807 0.54509807 0.54509807
0.6117647 0.6117647 0.6117647
0.6313726 0.6313726 0.6313726
0.65882355 0.65882355 0.65882355
0.49803925 0.49803925 0.49803925
0.5176471 0.5176471 0.5176471
0.5372549 0.5372549 0.5372549
0.5568628 0.5568628 0.5568628
0.6 0.6 0.6
0.6431373 0.6431373 0.6431373
0.6901961 0.6901961 0.6901961
0.7254902 0.7254902 0.7254902
0.72156864 0.72156864 0.72156864
0.6 0.6 0.6039216
0.61960787 0.61960787 0.62352943
0.63529414 0.63529414 0.6313726
0.654902 0.654902 0.654902
0.69803923 0.69803923 0.69803923
0.7490196 0.7490196 0.7490196
0.78431374 0.78431374 0.78431374
0.7921569 0.7960784 0.7960784
0.8 0.8 0.8
0.6862745 0.6862745 0.6862745
0.71372557 0.71372557 0.71372557
0.7294117 0.7294117 0.7294117
0.7647059 0.7647059 0.7647059
0.7960784 0.7960784 0.7960784
0.82352936 0.82352936 0.82352936
0.86274505 0.86274505 0.86274505
0.8745099 0.8745099 0.8745099
0.8666667 0.8666667 0.8666667
0.7764706 0.7764706 0.7764706
0.7921569 0.7960784 0.7960784
0.8117647 0.8156863 0.8117647
0.83137256 0.83137256 0.83137256
0.85882354 0.85882354 0.85882354
0.88235295 0.88235295 0.88235295
0.9098039 0.9098039 0.9098039
0.93333334 0.93333334 0.93333334
0.9294118 0.9254902 0.9254902
0.8509804 0.8509804 0.8509804
0.86274505 0.86274505 0.86274505
0.85882354 0.85882354 0.85882354
0.8745099 0.8745099 0.8745099
0.890196 0.890196 0.89411765
0.917647 0.917647 0.917647
0.9372549 0.9372549 0.9372549
0.9529412 0.9529412 0.9568627
0.972549 0.972549 0.972549
0.28235295 0.28235295 0.28235295
0.29803923 0.29803923 0.29803923
0.31764707 0.31764707 0.31764707
0.36078432 0.36078432 0.36078432
0.4 0.4 0.4
0.4588235 0.4588235 0.45490196
0.52156866 0.52156866 0.52156866
0.56078434 0.56078434 0.56078434
0.58431375 0.58431375 0.58431375
0.30980393 0.30980393 0.30980393
0.3254902 0.3254902 0.3254902
0.35686278 0.35686278 0.3529412
0.3764706 0.3764706 0.3764706
0.42352942 0.42352942 0.42352942
0.47843134 0.47843134 0.47843134
0.5372549 0.53333336 0.5372549
0.56078434 0.56078434 0.56078434
0.5882353 0.5882353 0.5882353
0.36078432 0.36078432 0.36470586
0.36862746 0.36862746 0.36862746
0.39215687 0.39215687 0.39215687
0.42352942 0.42352942 0.42352942
0.4627451 0.4588235 0.4588235
0.5058824 0.5058824 0.5058824
0.54509807 0.54509807 0.54509807
0.60784316 0.60784316 0.60784316
0.61960787 0.61960787 0.61960787
0.43137252 0.43137252 0.43137252
0.44705883 0.44705883 0.44705883
0.45490196 0.45490196 0.45490196
0.4862745 0.4862745 0.4862745
0.5294118 0.5294118 0.5294118
0.57254905 0.57254905 0.57254905
0.627451 0.627451 0.627451
0.6431373 0.6431373 0.6431373
0.6666667 0.6666667 0.6666667
0.52156866 0.52156866 0.52156866
0.5254902 0.5254902 0.5254902
0.56078434 0.56078434 0.56078434
0.5764706 0.5764706 0.5764706
0.6117647 0.6117647 0.6117647
0.654902 0.654902 0.654902
0.70196074 0.70196074 0.70196074
0.7294117 0.7294117 0.7294117
0.7294117 0.7294117 0.7294117
0.62352943 0.62352943 0.62352943
0.6313726 0.6313726 0.6313726
0.64705884 0.6431373 0.64705884
0.6784314 0.6784314 0.6784314
0.71372557 0.71372557 0.71372557
0.7490196 0.7490196 0.7490196
0.78431374 0.78431374 0.78431374
0.78431374 0.78431374 0.78431374
0.8117647 0.8117647 0.8078432
0.6901961 0.6901961 0.6901961
0.7294117 0.7294117 0.7294117
0.74117655 0.74117655 0.74117655
0.7764706 0.77254903 0.77254903
0.8 0.7960784 0.7960784
0.827451 0.827451 0.827451
0.85882354 0.85882354 0.85882354
0.87058824 0.8666667 0.8666667
0.8784314 0.8784314 0.8784314
0.7960784 0.7960784 0.7921569
0.7960784 0.7960784 0.7921569
0.8156863 0.8156863 0.8156863
0.82352936 0.82352936 0.82352936
0.8666667 0.8666667 0.8666667
0.890196 0.890196 0.890196
0.917647 0.917647 0.917647
0.9294118 0.9294118 0.9294118
0.94117653 0.94117653 0.94117653
0.86274505 0.86274505 0.86274505
0.87058824 0.87058824 0.87058824
0.87058824 0.87058824 0.87058824
0.890196 0.890196 0.890196
0.89411765 0.89411765 0.89411765
0.92156863 0.92156863 0.92156863
0.94509804 0.94509804 0.94509804
0.9686275 0.9686275 0.9686275
0.98431367 0.98431367 0.98431367
0.3529412 0.3529412 0.3529412
0.34509805 0.34509805 0.34509805
0.3764706 0.3764706 0.3764706
0.39607844 0.39607844 0.39607844
0.43137252 0.43137252 0.43137252
0.47058827 0.47058827 0.47058827
0.53333336 0.53333336 0.53333336
0.5647059 0.56078434 0.5647059
0.5882353 0.5882353 0.5882353
0.35686278 0.36078432 0.36078432
0.35686278 0.35686278 0.35686278
0.3764706 0.3764706 0.3764706
0.41568628 0.41568628 0.41568628
0.44313726 0.44705883 0.44705883
0.4862745 0.4862745 0.4862745
0.5372549 0.5372549 0.5372549
0.5882353 0.5882353 0.5882353
0.6117647 0.6117647 0.60784316
0.4 0.4 0.4
0.4 0.4 0.4
0.41568628 0.41568628 0.41568628
0.45490196 0.45490196 0.45490196
0.4862745 0.49019608 0.49019608
0.5372549 0.5372549 0.5372549
0.56078434 0.5647059 0.5647059
0.61960787 0.61960787 0.61960787
0.63529414 0.63529414 0.63529414
0.4588235 0.4588235 0.4588235
0.49019608 0.49411765 0.49411765
0.48235294 0.48235294 0.48235294
0.50980395 0.50980395 0.50980395
0.5411765 0.54509807 0.5411765
0.5882353 0.5882353 0.5882353
0.6156863 0.6156863 0.6156863
0.6509804 0.6509804 0.64705884
0.68235296 0.68235296 0.68235296
0.54901963 0.54901963 0.54901963
0.56078434 0.56078434 0.56078434
0.5647059 0.5647059 0.5647059
0.59607846 0.59607846 0.59607846
0.6156863 0.6156863 0.6156863
0.6666667 0.6666667 0.6666667
0.6901961 0.69411767 0.6901961
0.72156864 0.72156864 0.72156864
0.7254902 0.7254902 0.7254902
0.6431373 0.6431373 0.6431373
0.64705884 0.64705884 0.64705884
0.6666667 0.6666667 0.6666667
0.6862745 0.6862745 0.6901961
0.7058824 0.7058824 0.7058824
0.74117655 0.74117655 0.74117655
0.7686274 0.7686274 0.7686274
0.7882353 0.7882353 0.7882353
0.8117647 0.8117647 0.8078432
0.7294117 0.7294117 0.7294117
0.74117655 0.74117655 0.74117655
0.74117655 0.74117655 0.74117655
0.77254903 0.7764706 0.77254903
0.7921569 0.7921569 0.7921569
0.827451 0.827451 0.827451
0.84705883 0.84705883 0.84705883
0.8666667 0.8666667 0.8666667
0.88235295 0.8784314 0.88235295
0.8039216 0.8039216 0.8039216
0.8156863 0.8156863 0.8156863
0.827451 0.83137256 0.827451
0.8392157 0.8392157 0.8392157
0.86274505 0.86274505 0.86274505
0.8784314 0.8784314 0.8784314
0.90196085 0.90196085 0.90196085
0.9254902 0.9254902 0.9254902
0.9372549 0.9372549 0.9372549
0.8784314 0.8784314 0.8784314
0.8784314 0.8784314 0.8784314
0.890196 0.890196 0.890196
0.89411765 0.89411765 0.89411765
0.90196085 0.90196085 0.90196085
0.9294118 0.9294118 0.9294118
0.94509804 0.94509804 0.94509804
0.972549 0.972549 0.972549
0.99215686 0.99215686 0.99215686
