assets/luts/LUTs/LEICA/LEICA BRS.cube
#Generated by PennL1 - 闲鱼号：LOOK胶片感 公众号：胶片感
TITLE LEICA BRS
LUT_3D_SIZE 33
0.03529412 0.0 0.047058824
0.05036765 0.0 0.062377453
0.08382353 0.0 0.057352945
0.09901961 0.0 0.053186275
0.13039216 0.0014705884 0.058823533
0.15428922 0.0020833334 0.056985296
0.17794117 0.0 0.050490197
0.20625 0.0025735295 0.052205883
0.22745098 0.003921569 0.051960785
0.26776963 0.0072303927 0.057598043
0.30759805 0.011519608 0.058823533
0.3384804 0.015686275 0.06286765
0.38186276 0.016176471 0.067156866
0.42389706 0.01875 0.06973039
0.45147058 0.015686275 0.06544118
0.4895833 0.017279413 0.0627451
0.53137255 0.01764706 0.068627454
0.58247554 0.011029413 0.06985295
0.6161765 0.013235295 0.069362745
0.65110296 0.012622549 0.067524515
0.6862745 0.015196079 0.07009804
0.7091912 0.019485295 0.07058824
0.75098044 0.019362746 0.07475491
0.78223044 0.015686275 0.07659314
0.8019608 0.016666668 0.07058824
0.8367647 0.019607844 0.0810049
0.85392153 0.017892158 0.07671569
0.87316173 0.015686275 0.07450981
0.89705884 0.020588236 0.08186275
0.9171569 0.017892158 0.08063726
0.9406863 0.022058824 0.087990195
0.94865197 0.023529412 0.079534315
0.9647059 0.019607844 0.08235294
0.03137255 0.009681373 0.054166667
0.041456036 0.013602941 0.043539368
0.066720285 0.014269302 0.048897058
0.09338236 0.017260265 0.053959865
0.12745099 0.01619179 0.051945467
0.15379903 0.01563649 0.0526731
0.1884038 0.017317709 0.052979473
0.21384421 0.015307139 0.04753753
0.23780638 0.019944854 0.051868875
0.27266392 0.024812348 0.05515472
0.3141391 0.022380516 0.05894608
0.3465686 0.028810509 0.06225491
0.3747549 0.026302084 0.068520226
0.41842446 0.03284314 0.06074602
0.4534084 0.031732537 0.067524515
0.49338236 0.029289216 0.07022059
0.53210783 0.027696079 0.07022059
0.5727252 0.030541515 0.06854703
0.6166897 0.030882353 0.07127757
0.66151583 0.029656863 0.07054994
0.6907629 0.029656863 0.07049633
0.7131013 0.033099726 0.07130055
0.74338245 0.033432905 0.06612285
0.7808747 0.035711553 0.06575904
0.8083946 0.03180147 0.07815564
0.82782245 0.03578432 0.07548254
0.85020685 0.03197764 0.071729474
0.8749043 0.030001532 0.074532785
0.90157783 0.030116422 0.07931986
0.9185815 0.032682292 0.0760838
0.9376379 0.03706342 0.07377452
0.95217144 0.037534468 0.070886955
0.9604167 0.03002451 0.077328436
0.03137255 0.031127451 0.04632353
0.043259807 0.035715383 0.04534314
0.0712163 0.03518689 0.0533701
0.09476104 0.036680456 0.054871324
0.12699142 0.039246324 0.048529413
0.15379903 0.039361216 0.05002298
0.19157475 0.03759191 0.05212929
0.22181374 0.040701594 0.052933518
0.24332108 0.045833334 0.053186275
0.27157632 0.047434133 0.05732231
0.3060815 0.049846817 0.061075367
0.35151654 0.046124388 0.05659467
0.3814032 0.048039217 0.06348039
0.4262255 0.051309742 0.06364124
0.4610754 0.050965074 0.064522065
0.50686276 0.0517693 0.06519608
0.53995097 0.053063728 0.06556373
0.571584 0.05625 0.07102481
0.61755514 0.05615809 0.063725494
0.65543044 0.055392157 0.06131281
0.68786764 0.055392157 0.06758579
0.71446085 0.055392157 0.075980395
0.7447611 0.055438116 0.06383272
0.7817555 0.05651042 0.070075065
0.81280637 0.05894608 0.07585785
0.8292739 0.058700982 0.0730622
0.8517923 0.059237134 0.06764706
0.8708027 0.059459254 0.074663
0.89469975 0.061029416 0.07696079
0.92084104 0.061151963 0.070618875
0.9369026 0.06582414 0.06813726
0.9558517 0.062270224 0.07169118
0.9598039 0.059313726 0.06813726
0.032475494 0.054779414 0.043137256
0.050528497 0.061358765 0.051405486
0.07729013 0.060332417 0.05487133
0.10197611 0.06262255 0.052565873
0.12982537 0.06285233 0.054212622
0.15672871 0.06294807 0.055418964
0.1879902 0.06420803 0.056349576
0.21616499 0.06544118 0.059914984
0.24273898 0.06838235 0.060814954
0.27989814 0.07267158 0.05392157
0.317716 0.07064186 0.055798102
0.34553465 0.067823224 0.060661767
0.38409927 0.07377452 0.06432292
0.43173638 0.07683058 0.06445696
0.46446082 0.07637102 0.066084564
0.5036765 0.07945389 0.060133275
0.5431373 0.07775736 0.060232848
0.587546 0.07671569 0.06666284
0.6209636 0.0810049 0.06386336
0.6520987 0.0822304 0.05930607
0.69402575 0.08319547 0.059788607
0.71979934 0.083333336 0.06431909
0.75080425 0.083509505 0.066352636
0.7818628 0.085883886 0.06357614
0.81020224 0.08584559 0.07331496
0.8332337 0.088346355 0.070611216
0.8534467 0.08772978 0.072434135
0.8786076 0.088507205 0.07264476
0.9014706 0.0924326 0.070174634
0.9155714 0.09338236 0.07102865
0.930216 0.093673415 0.07299326
0.9551547 0.087331496 0.07596125
0.9692402 0.08835784 0.07120098
0.03529412 0.083333336 0.044607844
0.052956495 0.08867954 0.04914216
0.07591912 0.088786766 0.04678309
0.103676476 0.09117647 0.05168505
0.14123775 0.088786766 0.05189951
0.16352636 0.087791055 0.053201593
0.18651962 0.09283088 0.051011033
0.22136948 0.09122243 0.05272672
0.24620098 0.09375 0.05367647
0.28606007 0.097166054 0.049295343
0.3234375 0.09617034 0.05680147
0.35715383 0.099065565 0.052175246
0.40049022 0.10061275 0.05851716
0.43394607 0.102328435 0.057766546
0.46933213 0.10539216 0.06305148
0.5095588 0.10539216 0.062331498
0.5468138 0.10416667 0.059558827
0.59309137 0.10526961 0.059696697
0.62264097 0.10854779 0.06265319
0.6607078 0.11046263 0.059895836
0.6979166 0.11164216 0.06354167
0.7185815 0.11461397 0.06041667
0.75382966 0.11470588 0.066084564
0.7859222 0.11554841 0.058425248
0.81299025 0.11936275 0.0627451
0.83887863 0.11597733 0.060692407
0.86354166 0.116942406 0.065625004
0.8810662 0.11925551 0.066436894
0.8985294 0.12193628 0.06819853
0.91492033 0.12591913 0.06665135
0.9395221 0.12328432 0.07086398
0.9525582 0.12610295 0.06806067
0.9637255 0.12401961 0.061274514
0.03161765 0.11642157 0.047058824
0.049854472 0.12019762 0.04468061
0.07745098 0.1175475 0.03950674
0.10019149 0.12190947 0.040291823
0.13602942 0.119117655 0.042478554
0.16214769 0.11850491 0.042535998
0.18774511 0.12293199 0.04143689
0.22701822 0.120653346 0.040337775
0.25738358 0.12162991 0.044025738
0.2890089 0.121120565 0.045465685
0.32868415 0.1223269 0.05258885
0.3620749 0.123039216 0.043520223
0.40669426 0.12657782 0.048483457
0.4453776 0.12601486 0.053362444
0.4818168 0.13051471 0.052902885
0.52120095 0.13051471 0.052316945
0.5538603 0.13143383 0.053431377
0.5944509 0.13468137 0.055637255
0.62830883 0.1375383 0.054534316
0.6648438 0.13830423 0.05618107
0.6999081 0.13814338 0.059022672
0.7227941 0.14393 0.059076287
0.75869334 0.145841 0.06259957
0.7898284 0.14534314 0.05771676
0.8140625 0.15045956 0.061366424
0.8387063 0.14667203 0.057379752
0.8659161 0.14964767 0.058157172
0.8808747 0.1518459 0.060175404
0.89661455 0.15280332 0.0641391
0.920301 0.15647979 0.06632583
0.946492 0.15602788 0.07159161
0.9565219 0.15919119 0.060343906
0.9723039 0.15955883 0.06066177
0.029656865 0.1504902 0.04264706
0.048491117 0.15469517 0.042815566
0.08186275 0.15301777 0.03897059
0.104672186 0.15392923 0.03516391
0.13737746 0.1512255 0.03504902
0.16292126 0.15164676 0.03830423
0.19411765 0.15366116 0.038250614
0.22928922 0.15269609 0.03492647
0.2557598 0.15104167 0.037806373
0.29031864 0.14718139 0.035493262
0.33466607 0.15598959 0.045833334
0.37062654 0.15110295 0.03481924
0.40732232 0.15462622 0.036764707
0.44951746 0.15441178 0.04668352
0.48455885 0.16053922 0.0446538
0.5228707 0.16143537 0.043137256
0.5604167 0.16470589 0.043995097
0.6004366 0.16768536 0.048491117
0.63386947 0.17107844 0.048284315
0.6714767 0.17268689 0.05146293
0.7064339 0.17429534 0.051194854
0.7271522 0.17617188 0.050505515
0.75896144 0.18003982 0.056755517
0.7941177 0.17862286 0.058478862
0.8188726 0.18033089 0.05759804
0.8428462 0.18311122 0.058601413
0.8668658 0.18702513 0.05683211
0.8865886 0.18928462 0.057881434
0.90386033 0.1916973 0.05906863
0.92535233 0.19397978 0.06053922
0.9472426 0.19590993 0.06691177
0.95873165 0.19787838 0.05816483
0.9742647 0.19803922 0.067156866
0.033946082 0.1762255 0.039215688
0.05221737 0.18418351 0.04265472
0.080629595 0.18481158 0.038219977
0.106495105 0.18272059 0.03738894
0.1410233 0.18318015 0.033226106
0.16629903 0.18400353 0.036481313
0.19840688 0.18331034 0.0406633
0.23188956 0.17765395 0.039215684
0.26262257 0.17784926 0.036948532
0.29672563 0.17983302 0.03436734
0.33745405 0.18381587 0.040150125
0.37982154 0.18010877 0.031575523
0.410432 0.17939645 0.038373165
0.4608839 0.18331034 0.041911766
0.49136797 0.18702511 0.042294733
0.52970666 0.19006588 0.042091757
0.5659927 0.19129902 0.040563725
0.60220593 0.19631587 0.042164523
0.6351026 0.20110294 0.04410233
0.6733801 0.20338158 0.047549024
0.7119026 0.20367648 0.04840686
0.7339882 0.20616958 0.04710095
0.76405483 0.21001072 0.057559744
0.79880893 0.20819162 0.057808675
0.8250919 0.21335785 0.052665442
0.8459559 0.21793428 0.055867035
0.8688495 0.21828277 0.058976717
0.8909314 0.21920191 0.056165747
0.9068628 0.22322303 0.057352945
0.9295343 0.22620252 0.06252298
0.9468137 0.22904411 0.06407016
0.9585708 0.23211168 0.05931756
0.9751226 0.23235294 0.06801471
0.03529412 0.20784312 0.03627451
0.053186275 0.21256128 0.042401962
0.07818627 0.21115196 0.035477944
0.105147064 0.2127451 0.03572304
0.13958333 0.21531862 0.034313727
0.16608456 0.21639094 0.035232846
0.19810049 0.2143995 0.03351716
0.23327206 0.20989582 0.034589462
0.26519608 0.2127451 0.035539217
0.30300248 0.21056984 0.030330883
0.34466913 0.20980391 0.03860294
0.38121936 0.20888479 0.028768383
0.4134804 0.21102941 0.038848042
0.46473652 0.21338847 0.03627451
0.49491423 0.21629903 0.035661764
0.53290445 0.21844363 0.0375
0.5725491 0.22009805 0.040686276
0.6057905 0.22175245 0.037469365
0.6380515 0.22726716 0.043014705
0.672212 0.23170955 0.044546567
0.72046566 0.23235293 0.049264707
0.7369179 0.23615196 0.052849263
0.77273285 0.23756129 0.056250002
0.8078125 0.24246325 0.06007966
0.8281863 0.24534316 0.051715687
0.8502451 0.2483456 0.054932598
0.8699755 0.24920344 0.054718137
0.89111525 0.25248164 0.056648284
0.9098039 0.25539216 0.059558827
0.9303615 0.25827205 0.058118872
0.9515931 0.26200983 0.061825983
0.9593444 0.26629904 0.06452206
0.97058827 0.26666668 0.063725494
0.03860294 0.24215686 0.03529412
0.047809437 0.246021 0.040023744
0.084803924 0.24620098 0.041291364
0.108042285 0.24938726 0.03674173
0.13756128 0.24736519 0.030744487
0.16752835 0.2465227 0.033329505
0.20168506 0.24973193 0.037913606
0.23916209 0.24702437 0.03818168
0.26305148 0.25134805 0.036121324
0.30315948 0.24389936 0.039843753
0.34967068 0.24215686 0.039307598
0.37494257 0.2388672 0.031127451
0.4175245 0.2398744 0.041620713
0.4680032 0.24362746 0.03384651
0.50122553 0.2466912 0.029518995
0.5393383 0.25097275 0.034807753
0.57450986 0.25557598 0.04117647
0.61411995 0.25392157 0.040196083
0.6461704 0.25931373 0.04669118
0.6834904 0.26224342 0.044718903
0.7217984 0.26527268 0.04710478
0.74331725 0.26627988 0.048265167
0.7745481 0.27320006 0.05166973
0.80801934 0.27745098 0.053565413
0.83256745 0.2776042 0.05775123
0.85329354 0.27920115 0.057073377
0.8663756 0.28453586 0.056081496
0.8929343 0.28541285 0.058574606
0.9182292 0.2888021 0.061121326
0.93342906 0.29534313 0.05931373
0.9558747 0.29425552 0.06458334
0.9637255 0.30030257 0.063610606
0.97855395 0.30759805 0.069362745
0.04656863 0.28014708 0.03897059
0.053822 0.28372398 0.035562195
0.088327214 0.2818168 0.03573836
0.110072 0.28902423 0.03643536
0.14920343 0.29010418 0.037254903
0.1752451 0.2877298 0.03514859
0.20773591 0.2859222 0.03760723
0.23904718 0.2841529 0.039215688
0.27009806 0.2844363 0.039031863
0.30168507 0.28393844 0.036282174
0.35001534 0.28037685 0.039001226
0.39215687 0.27990198 0.03518689
0.43376222 0.27993262 0.038020834
0.46587774 0.28180915 0.029442402
0.5035999 0.2865962 0.031433824
0.5472274 0.2813802 0.02421875
0.583701 0.28284314 0.028308826
0.62279415 0.2860524 0.036328126
0.6523744 0.29247856 0.042248774
0.6920879 0.2989507 0.043244485
0.7257046 0.29996938 0.04656863
0.75172335 0.30712318 0.043497246
0.78875613 0.30808824 0.06132047
0.81437653 0.31176472 0.052205883
0.83792895 0.31360295 0.057904415
0.86355704 0.31793812 0.056326594
0.87878376 0.31911767 0.058685664
0.8984298 0.32522213 0.05687041
0.9219057 0.32717526 0.059895836
0.9376226 0.3329121 0.06256894
0.96303624 0.3348499 0.068872556
0.9716912 0.33857998 0.066789225
0.9840686 0.3394608 0.0632353
0.043382354 0.3072304 0.0435049
0.06058518 0.31433827 0.04658012
0.08387715 0.31151962 0.043849573
0.11580883 0.3126034 0.046936274
0.14710478 0.31155026 0.048360907
0.17163374 0.31869256 0.048954505
0.20588236 0.31862748 0.04900429
0.23762254 0.3162148 0.048039213
0.26755515 0.32368264 0.052665442
0.31099114 0.3230775 0.06106771
0.34741116 0.31174174 0.04088542
0.38516387 0.31127068 0.043255974
0.4179534 0.31776962 0.04266238
0.4697993 0.31259575 0.041831344
0.50878525 0.3162148 0.048284315
0.5522557 0.31409317 0.04139859
0.58639705 0.31666666 0.037254903
0.6205385 0.31691176 0.03762255
0.6611444 0.31867343 0.04165901
0.7021791 0.32468596 0.045641854
0.7308364 0.3329963 0.043443628
0.75258124 0.33786383 0.046457566
0.7900812 0.3305224 0.05405944
0.8195887 0.33301166 0.048123468
0.84139097 0.34586397 0.053707108
0.858207 0.34599802 0.052531403
0.88370097 0.34779412 0.058455884
0.9067249 0.34798178 0.06677391
0.92395836 0.34865198 0.072441794
0.9424364 0.35849035 0.06584713
0.95559126 0.36196387 0.06264553
0.9744332 0.3653416 0.06961934
0.9882353 0.36200982 0.07022059
0.05147059 0.3539216 0.05490196
0.05994179 0.34963235 0.044071693
0.09301471 0.34681374 0.04353554
0.116865814 0.35096508 0.043275125
0.14852941 0.3552696 0.043811277
0.17411152 0.3564951 0.04365809
0.20658702 0.35441178 0.04120711
0.23843443 0.3569853 0.037454043
0.26568627 0.3627451 0.044362746
0.31292894 0.35594365 0.04664522
0.35735297 0.35441178 0.047487747
0.38592216 0.354519 0.047901347
0.41329658 0.35686272 0.043627452
0.4744179 0.35064337 0.043841913
0.50842524 0.35171568 0.041850492
0.5510876 0.3522059 0.03697917
0.5916667 0.35196078 0.03651961
0.6307905 0.3490962 0.03693321
0.6650429 0.35520834 0.034344364
0.7052544 0.35735294 0.026991421
0.74460787 0.3577819 0.03707108
0.7627911 0.36401656 0.033026963
0.79414827 0.36887252 0.042156864
0.8270833 0.37262562 0.04231005
0.8482843 0.37401962 0.04656863
0.8693321 0.37830883 0.057368264
0.88820463 0.38238358 0.060906865
0.90343136 0.38483456 0.061090685
0.9233456 0.3874387 0.054656863
0.94427085 0.39436275 0.059145223
0.9622549 0.4025429 0.058976717
0.97052705 0.40036765 0.061887257
0.9887255 0.4034314 0.05784314
0.05490196 0.39338234 0.053186275
0.07058441 0.3917471 0.04991575
0.09237132 0.38954502 0.04685968
0.12289753 0.39227557 0.042899817
0.1502451 0.39666054 0.046277575
0.17904413 0.40110296 0.046392463
0.2132353 0.39950216 0.04265472
0.24470742 0.401888 0.04340533
0.27190566 0.39898896 0.04564951
0.31024817 0.4002566 0.045063574
0.35065106 0.4007353 0.04898897
0.39203432 0.40159315 0.053852636
0.42005208 0.4005055 0.047916666
0.46616113 0.39259726 0.0494447
0.5130362 0.39005053 0.050536152
0.5569585 0.38925397 0.039686732
0.5993873 0.39442402 0.032230392
0.63323 0.39646524 0.03125
0.6668122 0.3956342 0.034773286
0.70782787 0.39509803 0.018841911
0.74492955 0.3985294 0.02892157
0.7777498 0.3977137 0.03943398
0.79516697 0.40313268 0.035240505
0.8307828 0.4067517 0.035259653
0.8521446 0.41155025 0.040134806
0.8711014 0.41549096 0.04399127
0.89522827 0.41900274 0.04734222
0.9133234 0.42182904 0.048598345
0.93417585 0.42496938 0.055836402
0.9504902 0.4318666 0.054668352
0.96445316 0.4375 0.052489277
0.98701364 0.43390396 0.055882357
0.9930147 0.43259805 0.05012255
0.05490196 0.42647058 0.047058824
0.068535544 0.43075216 0.04631587
0.092601106 0.43163297 0.04900429
0.11977635 0.4317402 0.039338235
0.15637255 0.436489 0.039001226
0.18517157 0.43786764 0.043711703
0.2200521 0.4366115 0.041467525
0.24803923 0.43886337 0.045166973
0.27542892 0.44172794 0.04534314
0.31867343 0.44343597 0.050980393
0.3523744 0.44362745 0.04255515
0.39142156 0.44632354 0.05101869
0.42058823 0.44515932 0.051746324
0.47313112 0.43765318 0.049923405
0.5138787 0.43903184 0.05321691
0.55222887 0.43651196 0.049509805
0.59203434 0.43517157 0.03651961
0.63125765 0.435432 0.028186277
0.667693 0.43147978 0.02581189
0.7173254 0.42845437 0.026348041
0.7442402 0.43376225 0.019270834
0.77411157 0.43978244 0.02478554
0.8005668 0.4373315 0.034895834
0.83522516 0.43932292 0.028883273
0.8619485 0.44417894 0.030637255
0.8820542 0.44737285 0.034244794
0.90376836 0.45343137 0.03236826
0.92333794 0.45277268 0.035539217
0.9385417 0.4551471 0.03875613
0.95409006 0.46478248 0.042624082
0.96426165 0.47058824 0.04318321
0.987454 0.46754748 0.042248778
0.9936275 0.46323532 0.042156864
0.05490196 0.46997547 0.047058824
0.074617036 0.46771598 0.04631204
0.09500613 0.4685432 0.04532782
0.1225069 0.4707912 0.04133732
0.15637255 0.47709867 0.041681986
0.18442479 0.48066023 0.043481924
0.2199755 0.4780637 0.043045346
0.25332415 0.47940412 0.044895068
0.28943017 0.4821998 0.04564951
0.321201 0.4832185 0.049394913
0.35639554 0.48482692 0.044378065
0.39367723 0.48656943 0.05105316
0.42478555 0.4876226 0.05283395
0.48038453 0.4831725 0.050340842
0.5200215 0.47999388 0.053308822
0.55581343 0.4807062 0.05460325
0.59607846 0.47591913 0.043198533
0.63125 0.4730239 0.030775124
0.6747626 0.47132355 0.03246783
0.72140783 0.46703434 0.03105086
0.74537385 0.4695006 0.02300858
0.7778225 0.4730622 0.019680608
0.8092142 0.4704197 0.026891852
0.8442364 0.47683442 0.021070773
0.86626834 0.4764706 0.026960786
0.88442093 0.48021218 0.03094746
0.9074219 0.4841529 0.025291055
0.92261416 0.48640856 0.021825215
0.93561584 0.49155945 0.024984684
0.95526963 0.49791667 0.027328432
0.97223496 0.5022059 0.03370098
0.9848728 0.5064951 0.03172871
0.9930147 0.5029412 0.03137255
0.05490196 0.5117647 0.043137256
0.07156863 0.5137255 0.03884804
0.10330883 0.5144608 0.035661764
0.12922794 0.5193015 0.037806377
0.16397059 0.52500004 0.038480394
0.18817402 0.52837014 0.03633579
0.22242647 0.52830887 0.0375
0.25974265 0.52616423 0.036642157
0.2901961 0.5284314 0.038235296
0.3175858 0.5310662 0.0408701
0.35833335 0.53137255 0.039338235
0.40073526 0.53333336 0.045159318
0.42990196 0.53333336 0.04754902
0.47965688 0.5337623 0.05012255
0.51458335 0.5334559 0.04767157
0.56213236 0.53020835 0.050612748
0.6019608 0.5254902 0.04803922
0.6394608 0.5231005 0.03964461
0.6813725 0.5227941 0.034558825
0.7221201 0.516973 0.025674019
0.75686276 0.51225495 0.018382354
0.7816789 0.51936275 0.01764706
0.81544113 0.51409316 0.015318628
0.8454657 0.51899517 0.010110294
0.87107843 0.51617646 0.012254903
0.8885417 0.5183211 0.013051471
0.9121324 0.5221814 0.010906864
0.9270221 0.5244485 0.008762255
0.9414216 0.5296569 0.009068628
0.9591912 0.5347427 0.012622549
0.97426474 0.5400736 0.016911766
0.9853554 0.5447304 0.022977943
1.0 0.5411765 0.025490198
0.057230394 0.56053925 0.03688726
0.07041208 0.5641736 0.03414905
0.110592835 0.5618337 0.031671263
0.13864124 0.56548333 0.03362056
0.17098652 0.5705729 0.03382353
0.19534314 0.57156867 0.032464
0.23346354 0.57156867 0.03370098
0.26710707 0.57205117 0.030644914
0.2897978 0.5734988 0.028492648
0.32182905 0.58247936 0.033582263
0.36303616 0.5782093 0.030078126
0.4124502 0.5733303 0.0485792
0.4393842 0.5787531 0.04954044
0.48482308 0.5810049 0.044956345
0.5197687 0.58211553 0.044362746
0.5643038 0.57876456 0.0498966
0.60784316 0.5762255 0.050551474
0.6462891 0.5709214 0.047495406
0.6840533 0.5688802 0.04450827
0.727271 0.5658931 0.03506817
0.7610754 0.55908394 0.02801777
0.7897557 0.56129754 0.027328432
0.8148284 0.55980396 0.020044424
0.8420382 0.55955505 0.013993567
0.872978 0.5582108 0.00569853
0.8917892 0.55875844 0.005997243
0.91495097 0.5605009 0.0058363974
0.9323759 0.5613971 0.0062500006
0.9492647 0.566299 0.0062500006
0.9677696 0.5709138 0.010213695
0.9809513 0.57415754 0.009872856
0.9904948 0.5783089 0.0087699145
0.9976716 0.58406866 0.01495098
0.05612745 0.6007353 0.03259804
0.07509191 0.5992877 0.036037073
0.10909927 0.5992341 0.03137255
0.13857996 0.6002451 0.030200677
0.16789216 0.60891545 0.027757354
0.19550398 0.61144304 0.02925092
0.23622856 0.60857844 0.031418506
0.26587778 0.6129213 0.029220281
0.29895836 0.6172182 0.026531864
0.33386183 0.6187194 0.030568322
0.37181374 0.61404717 0.03137255
0.41233146 0.6116422 0.04142157
0.4357843 0.62270224 0.041452207
0.484735 0.62002146 0.041398592
0.52306986 0.6197917 0.04250919
0.560164 0.620121 0.050742954
0.60379905 0.61507356 0.052941177
0.6420497 0.61177236 0.05528493
0.67545956 0.61127454 0.05906863
0.7218367 0.61127454 0.04355852
0.7582414 0.6056985 0.038143385
0.78860295 0.5970665 0.03015472
0.8186274 0.59698224 0.015609682
0.8460095 0.5986673 0.017179841
0.8793505 0.59479165 0.012316178
0.8988664 0.595887 0.010960478
0.91731006 0.59411764 0.004794731
0.935164 0.59555 0.0024509807
0.9514399 0.59834564 0.0041360296
0.9690181 0.6001456 0.0040900735
0.9823376 0.6048714 0.0026807599
0.9900889 0.6094363 0.0037837012
0.9987745 0.61078435 0.009068628
0.061029416 0.642402 0.028308824
0.08014706 0.63856083 0.032437194
0.10902268 0.63975185 0.034436278
0.13861826 0.641165 0.033092067
0.17815565 0.64345896 0.029978555
0.20299096 0.6509651 0.031950828
0.23381586 0.65330887 0.03061428
0.2688266 0.65242416 0.029756436
0.3029412 0.65949756 0.030514708
0.33899358 0.65353096 0.028653493
0.38307294 0.6597733 0.03405331
0.4155101 0.6602788 0.035198376
0.44252452 0.6596967 0.033869486
0.49026886 0.65942866 0.04534314
0.52448684 0.6607307 0.04587929
0.5600108 0.6603516 0.04900046
0.6034927 0.6591912 0.054473042
0.64413685 0.65723044 0.06227405
0.6714001 0.65723044 0.061596204
0.7136604 0.659624 0.055660237
0.76145834 0.64882046 0.043811277
0.781633 0.6506243 0.045722276
0.8180147 0.63834256 0.026562503
0.8451095 0.6360065 0.01875
0.8764399 0.6347733 0.01875
0.89710474 0.6351218 0.013947612
0.9187653 0.63455886 0.0053691794
0.93748087 0.63338697 0.0028722428
0.95519304 0.63235295 0.0024509805
0.971201 0.63235295 0.0055070473
0.98517156 0.6387255 0.001148897
0.9881549 0.6409735 0.00077742036
0.9969363 0.6401961 0.004779412
0.0627451 0.6818628 0.0377451
0.083792895 0.6785846 0.031096816
0.10741422 0.6836091 0.028431373
0.1411918 0.6792586 0.028293505
0.18008578 0.68302697 0.027941177
0.20827205 0.68463546 0.029779412
0.24748775 0.68333334 0.02938113
0.2783701 0.6852635 0.027772672
0.3089461 0.689951 0.027941177
0.34065565 0.6899357 0.033318017
0.3791054 0.69751835 0.02879902
0.42339152 0.6912684 0.03195466
0.4541054 0.69368875 0.034191176
0.49528188 0.6915441 0.032904413
0.5374081 0.6965993 0.044699755
0.57325375 0.69978553 0.050045956
0.60906863 0.6995098 0.05661765
0.6384804 0.7009804 0.06348039
0.66893387 0.6962623 0.058915444
0.7148131 0.69181985 0.06075368
0.7481618 0.6894608 0.06053922
0.7861367 0.6868413 0.05459559
0.8175858 0.68091303 0.037714463
0.85044426 0.67294735 0.029365811
0.87622553 0.6697304 0.024754902
0.8922794 0.6739124 0.016574755
0.9199449 0.6671569 0.009497549
0.9412071 0.6650735 0.0036764708
0.9585172 0.6632353 0.00030637253
0.9705576 0.6632353 0.0008425247
0.982598 0.66403186 0.002971814
0.9910233 0.6673254 0.0034313728
0.9995098 0.66764706 0.0073529417
0.07034314 0.71286774 0.03161765
0.08181679 0.712412 0.031361062
0.11708027 0.7098575 0.03125
0.14534314 0.71277964 0.029113054
0.18370098 0.7143383 0.026501225
0.2125 0.7167318 0.029526655
0.24689798 0.7166667 0.025367647
0.2844018 0.7167471 0.026145067
0.31265318 0.71973044 0.02745098
0.34721968 0.72391623 0.027657783
0.3822227 0.7283011 0.023904718
0.42438725 0.72451365 0.027696079
0.45681682 0.72509193 0.03146446
0.50378376 0.7291666 0.033850342
0.5401655 0.73111975 0.044362746
0.57725954 0.73171335 0.045615043
0.6098039 0.73051476 0.05116422
0.64664143 0.7271331 0.06122473
0.67361367 0.72850794 0.06783854
0.7130592 0.72536767 0.073257506
0.7489277 0.71786153 0.07081802
0.7834483 0.7278339 0.073786005
0.80981165 0.7235371 0.06151961
0.84113824 0.7125843 0.051179536
0.8755208 0.7115197 0.035937503
0.89677536 0.7075138 0.03329504
0.91843605 0.70477945 0.021446079
0.94392234 0.69664145 0.01507353
0.9640472 0.6918352 0.011397059
0.9741422 0.6959904 0.0086665135
0.98590684 0.69705886 0.010784313
0.99522066 0.693727 0.0046338853
1.0 0.68958336 0.004044118
0.07083334 0.7352941 0.03897059
