assets/luts/LUTs/LEICA/LEICA BW HC.cube
#Generated by Pennl1
#闲鱼号：LOOK胶片感
#公众号：胶片感
TITLE LEICA BW HC
LUT_3D_SIZE 33
0.0 0.0 0.0
0.0 0.0 0.0
0.0014705883 0.0014705883 0.0014705883
0.012254902 0.012254902 0.012254902
0.030882355 0.030882355 0.030882355
0.0504902 0.0504902 0.0504902
0.06764706 0.06764706 0.06764706
0.0822304 0.0822304 0.0822304
0.09509804 0.09509804 0.09509804
0.1112745 0.1112745 0.1112745
0.12843138 0.12843138 0.12843138
0.14178923 0.14178923 0.14178923
0.1637255 0.1637255 0.1637255
0.18860294 0.18860294 0.18860294
0.21004902 0.21004902 0.21004902
0.23149511 0.23149511 0.23149511
0.25686276 0.25686276 0.25686276
0.2822304 0.2822304 0.2822304
0.3009804 0.3009804 0.3009804
0.32732844 0.32732844 0.32732844
0.3504902 0.3504902 0.3504902
0.36433822 0.36433822 0.36433822
0.3936275 0.3936275 0.3936275
0.41813725 0.41813725 0.41813725
0.4362745 0.4362745 0.4362745
0.45772064 0.45772064 0.45772064
0.48088235 0.48088235 0.48088235
0.502451 0.502451 0.502451
0.52205884 0.52205884 0.52205884
0.54632354 0.54632354 0.54632354
0.5656863 0.5656863 0.5656863
0.589951 0.589951 0.589951
0.6039216 0.6039216 0.6039216
0.0011029412 0.0011029412 0.0011029412
0.0022403495 0.0022403495 0.0022403495
0.010416667 0.010416667 0.010416667
0.02132353 0.02132353 0.02132353
0.046660535 0.046660535 0.046660535
0.06318551 0.06318551 0.06318551
0.07773437 0.07773437 0.07773437
0.09044118 0.09044118 0.09044118
0.103308834 0.103308834 0.103308834
0.11586627 0.11586627 0.11586627
0.12902114 0.12902114 0.12902114
0.14939874 0.14939874 0.14939874
0.16409314 0.16409314 0.16409314
0.18741576 0.18741576 0.18741576
0.20564492 0.20564492 0.20564492
0.2307866 0.2307866 0.2307866
0.2538603 0.2538603 0.2538603
0.27882585 0.27882585 0.27882585
0.30281863 0.30281863 0.30281863
0.32855392 0.32855392 0.32855392
0.35085788 0.35085788 0.35085788
0.3685049 0.3685049 0.3685049
0.39342833 0.39342833 0.39342833
0.41611898 0.41611898 0.41611898
0.43958333 0.43958333 0.43958333
0.45808825 0.45808825 0.45808825
0.4776578 0.4776578 0.4776578
0.49896985 0.49896985 0.49896985
0.5221967 0.5221967 0.5221967
0.54632354 0.54632354 0.54632354
0.565985 0.565985 0.565985
0.58709794 0.58709794 0.58709794
0.6007353 0.6007353 0.6007353
0.015441177 0.015441177 0.015441177
0.021867344 0.021867344 0.021867344
0.032735907 0.032735907 0.032735907
0.04320619 0.04320619 0.04320619
0.0632353 0.0632353 0.0632353
0.07365196 0.07365196 0.07365196
0.08472733 0.08472733 0.08472733
0.0952359 0.0952359 0.0952359
0.10759804 0.10759804 0.10759804
0.11777727 0.11777727 0.11777727
0.13451287 0.13451287 0.13451287
0.15098041 0.15098041 0.15098041
0.16920957 0.16920957 0.16920957
0.19456954 0.19456954 0.19456954
0.21666667 0.21666667 0.21666667
0.24021141 0.24021141 0.24021141
0.26384807 0.26384807 0.26384807
0.28559285 0.28559285 0.28559285
0.30733764 0.30733764 0.30733764
0.33284312 0.33284312 0.33284312
0.3551471 0.3551471 0.3551471
0.37279412 0.37279412 0.37279412
0.39465377 0.39465377 0.39465377
0.4240273 0.4240273 0.4240273
0.44387254 0.44387254 0.44387254
0.4623774 0.4623774 0.4623774
0.48071384 0.48071384 0.48071384
0.5023284 0.5023284 0.5023284
0.5240809 0.5240809 0.5240809
0.5473805 0.5473805 0.5473805
0.5691483 0.5691483 0.5691483
0.59387255 0.59387255 0.59387255
0.60784316 0.60784316 0.60784316
0.041299023 0.041299023 0.041299023
0.05148974 0.05148974 0.05148974
0.058861826 0.058861826 0.058861826
0.06623392 0.06623392 0.06623392
0.07401961 0.07401961 0.07401961
0.08391927 0.08391927 0.08391927
0.09558058 0.09558058 0.09558058
0.10354243 0.10354243 0.10354243
0.11409314 0.11409314 0.11409314
0.12696078 0.12696078 0.12696078
0.14511336 0.14511336 0.14511336
0.1595933 0.1595933 0.1595933
0.17915134 0.17915134 0.17915134
0.20563725 0.20563725 0.20563725
0.22524509 0.22524509 0.22524509
0.24664906 0.24664906 0.24664906
0.26973042 0.26973042 0.26973042
0.29477638 0.29477638 0.29477638
0.31407017 0.31407017 0.31407017
0.3382353 0.3382353 0.3382353
0.35957417 0.35957417 0.35957417
0.3792203 0.3792203 0.3792203
0.40010723 0.40010723 0.40010723
0.4300743 0.4300743 0.4300743
0.44843748 0.44843748 0.44843748
0.46739048 0.46739048 0.46739048
0.48639706 0.48639706 0.48639706
0.509218 0.509218 0.509218
0.52853864 0.52853864 0.52853864
0.55289143 0.55289143 0.55289143
0.5712393 0.5712393 0.5712393
0.59297645 0.59297645 0.59297645
0.6089461 0.6089461 0.6089461
0.07254902 0.07254902 0.07254902
0.076700374 0.076700374 0.076700374
0.07938113 0.07938113 0.07938113
0.082889095 0.082889095 0.082889095
0.089705884 0.089705884 0.089705884
0.09828431 0.09828431 0.09828431
0.106035545 0.106035545 0.106035545
0.11493567 0.11493567 0.11493567
0.12696078 0.12696078 0.12696078
0.13858762 0.13858762 0.13858762
0.15260416 0.15260416 0.15260416
0.1697304 0.1697304 0.1697304
0.19148284 0.19148284 0.19148284
0.21453735 0.21453735 0.21453735
0.23483455 0.23483455 0.23483455
0.2575674 0.2575674 0.2575674
0.2776961 0.2776961 0.2776961
0.3013174 0.3013174 0.3013174
0.32205883 0.32205883 0.32205883
0.34534314 0.34534314 0.34534314
0.36678922 0.36678922 0.36678922
0.38906252 0.38906252 0.38906252
0.40824145 0.40824145 0.40824145
0.4317555 0.4317555 0.4317555
0.45232844 0.45232844 0.45232844
0.47352943 0.47352943 0.47352943
0.4906863 0.4906863 0.4906863
0.5120098 0.5120098 0.5120098
0.534375 0.534375 0.534375
0.55526966 0.55526966 0.55526966
0.57591915 0.57591915 0.57591915
0.5936275 0.5936275 0.5936275
0.6132353 0.6132353 0.6132353
0.09338236 0.09338236 0.09338236
0.097131595 0.097131595 0.097131595
0.096155025 0.096155025 0.096155025
0.10083104 0.10083104 0.10083104
0.107398905 0.107398905 0.107398905
0.11482843 0.11482843 0.11482843
0.121200986 0.121200986 0.121200986
0.12943092 0.12943092 0.12943092
0.14304535 0.14304535 0.14304535
0.15461475 0.15461475 0.15461475
0.17083333 0.17083333 0.17083333
0.18437883 0.18437883 0.18437883
0.2042739 0.2042739 0.2042739
0.22692631 0.22692631 0.22692631
0.24636185 0.24636185 0.24636185
0.2673905 0.2673905 0.2673905
0.28903186 0.28903186 0.28903186
0.3094363 0.3094363 0.3094363
0.32818627 0.32818627 0.32818627
0.3529067 0.3529067 0.3529067
0.37421876 0.37421876 0.37421876
0.39166668 0.39166668 0.39166668
0.4128753 0.4128753 0.4128753
0.4322725 0.4322725 0.4322725
0.45248163 0.45248163 0.45248163
0.47477406 0.47477406 0.47477406
0.49313727 0.49313727 0.49313727
0.5125077 0.5125077 0.5125077
0.5339155 0.5339155 0.5339155
0.5539484 0.5539484 0.5539484
0.5795573 0.5795573 0.5795573
0.59686357 0.59686357 0.59686357
0.6138481 0.6138481 0.6138481
0.114705876 0.114705876 0.114705876
0.11867341 0.11867341 0.11867341
0.12017465 0.12017465 0.12017465
0.12585784 0.12585784 0.12585784
0.13097428 0.13097428 0.13097428
0.13744639 0.13744639 0.13744639
0.14388788 0.14388788 0.14388788
0.1517157 0.1517157 0.1517157
0.16286765 0.16286765 0.16286765
0.17747396 0.17747396 0.17747396
0.19436273 0.19436273 0.19436273
0.20367646 0.20367646 0.20367646
0.22181372 0.22181372 0.22181372
0.24486826 0.24486826 0.24486826
0.25995713 0.25995713 0.25995713
0.28084406 0.28084406 0.28084406
0.30208334 0.30208334 0.30208334
0.3220129 0.3220129 0.3220129
0.34048712 0.34048712 0.34048712
0.3640778 0.3640778 0.3640778
0.38520223 0.38520223 0.38520223
0.40055916 0.40055916 0.40055916
0.41950062 0.41950062 0.41950062
0.43933827 0.43933827 0.43933827
0.46023285 0.46023285 0.46023285
0.4800245 0.4800245 0.4800245
0.50071996 0.50071996 0.50071996
0.51911765 0.51911765 0.51911765
0.5384192 0.5384192 0.5384192
0.56003374 0.56003374 0.56003374
0.5826134 0.5826134 0.5826134
0.6011796 0.6011796 0.6011796
0.6183824 0.6183824 0.6183824
0.13700981 0.13700981 0.13700981
0.14105776 0.14105776 0.14105776
0.14349724 0.14349724 0.14349724
0.14987746 0.14987746 0.14987746
0.15563726 0.15563726 0.15563726
0.16237746 0.16237746 0.16237746
0.16742495 0.16742495 0.16742495
0.17487745 0.17487745 0.17487745
0.18538603 0.18538603 0.18538603
0.20122549 0.20122549 0.20122549
0.21355698 0.21355698 0.21355698
0.23010875 0.23010875 0.23010875
0.2432598 0.2432598 0.2432598
0.2661267 0.2661267 0.2661267
0.2800092 0.2800092 0.2800092
0.2990196 0.2990196 0.2990196
0.3188113 0.3188113 0.3188113
0.33627453 0.33627453 0.33627453
0.35453433 0.35453433 0.35453433
0.37598035 0.37598035 0.37598035
0.39635414 0.39635414 0.39635414
0.4125421 0.4125421 0.4125421
0.42990196 0.42990196 0.42990196
0.45134807 0.45134807 0.45134807
0.47117037 0.47117037 0.47117037
0.48862973 0.48862973 0.48862973
0.51063883 0.51063883 0.51063883
0.5299212 0.5299212 0.5299212
0.5466759 0.5466759 0.5466759
0.5685049 0.5685049 0.5685049
0.5878677 0.5878677 0.5878677
0.6109107 0.6109107 0.6109107
0.626103 0.626103 0.626103
0.1627451 0.1627451 0.1627451
0.1669424 0.1669424 0.1669424
0.16997549 0.16997549 0.16997549
0.17349878 0.17349878 0.17349878
0.18137255 0.18137255 0.18137255
0.18949142 0.18949142 0.18949142
0.19368872 0.19368872 0.19368872
0.1992647 0.1992647 0.1992647
0.2129902 0.2129902 0.2129902
0.22742036 0.22742036 0.22742036
0.23676471 0.23676471 0.23676471
0.25140932 0.25140932 0.25140932
0.26691177 0.26691177 0.26691177
0.28556988 0.28556988 0.28556988
0.30196083 0.30196083 0.30196083
0.31911767 0.31911767 0.31911767
0.33676472 0.33676472 0.33676472
0.35208336 0.35208336 0.35208336
0.37034315 0.37034315 0.37034315
0.38949144 0.38949144 0.38949144
0.41200984 0.41200984 0.41200984
0.42420346 0.42420346 0.42420346
0.44160542 0.44160542 0.44160542
0.46534926 0.46534926 0.46534926
0.48235294 0.48235294 0.48235294
0.49825367 0.49825367 0.49825367
0.5186275 0.5186275 0.5186275
0.53786767 0.53786767 0.53786767
0.55625004 0.55625004 0.55625004
0.5765625 0.5765625 0.5765625
0.59748775 0.59748775 0.59748775
0.61430764 0.61430764 0.61430764
0.6333333 0.6333333 0.6333333
0.19509806 0.19509806 0.19509806
0.19907705 0.19907705 0.19907705
0.20087317 0.20087317 0.20087317
0.20752527 0.20752527 0.20752527
0.21248467 0.21248467 0.21248467
0.21744409 0.21744409 0.21744409
0.22357538 0.22357538 0.22357538
0.23161764 0.23161764 0.23161764
0.24359682 0.24359682 0.24359682
0.25661767 0.25661767 0.25661767
0.26580885 0.26580885 0.26580885
0.27834713 0.27834713 0.27834713
0.28992033 0.28992033 0.28992033
0.31142005 0.31142005 0.31142005
0.32237288 0.32237288 0.32237288
0.33859912 0.33859912 0.33859912
0.35606617 0.35606617 0.35606617
0.3712048 0.3712048 0.3712048
0.3862592 0.3862592 0.3862592
0.4051585 0.4051585 0.4051585
0.42411152 0.42411152 0.42411152
0.4402344 0.4402344 0.4402344
0.45101872 0.45101872 0.45101872
0.47294348 0.47294348 0.47294348
0.49273896 0.49273896 0.49273896
0.5096469 0.5096469 0.5096469
0.5286535 0.5286535 0.5286535
0.5479971 0.5479971 0.5479971
0.56544125 0.56544125 0.56544125
0.5877949 0.5877949 0.5877949
0.6101716 0.6101716 0.6101716
0.6245099 0.6245099 0.6245099
0.64522064 0.64522064 0.64522064
0.23308824 0.23308824 0.23308824
0.23735446 0.23735446 0.23735446
0.24146754 0.24146754 0.24146754
0.24492188 0.24492188 0.24492188
0.24656864 0.24656864 0.24656864
0.25085786 0.25085786 0.25085786
0.25735295 0.25735295 0.25735295
0.2635187 0.2635187 0.2635187
0.27653188 0.27653188 0.27653188
0.2872166 0.2872166 0.2872166
0.29583335 0.29583335 0.29583335
0.30844823 0.30844823 0.30844823
0.3216299 0.3216299 0.3216299
0.3375 0.3375 0.3375
0.34730393 0.34730393 0.34730393
0.36335787 0.36335787 0.36335787
0.3790441 0.3790441 0.3790441
0.3945849 0.3945849 0.3945849
0.40548408 0.40548408 0.40548408
0.4250536 0.4250536 0.4250536
0.44065568 0.44065568 0.44065568
0.45735294 0.45735294 0.45735294
0.47035846 0.47035846 0.47035846
0.48835784 0.48835784 0.48835784
0.5088236 0.5088236 0.5088236
0.5272442 0.5272442 0.5272442
0.546921 0.546921 0.546921
0.5642157 0.5642157 0.5642157
0.5790748 0.5790748 0.5790748
0.6004902 0.6004902 0.6004902
0.62303925 0.62303925 0.62303925
0.63404566 0.63404566 0.63404566
0.65808827 0.65808827 0.65808827
0.25980395 0.25980395 0.25980395
0.2677696 0.2677696 0.2677696
0.2713465 0.2713465 0.2713465
0.27254903 0.27254903 0.27254903
0.27683824 0.27683824 0.27683824
0.28107002 0.28107002 0.28107002
0.2811581 0.2811581 0.2811581
0.28721663 0.28721663 0.28721663
0.30275735 0.30275735 0.30275735
0.31644073 0.31644073 0.31644073
0.32205117 0.32205117 0.32205117
0.330396 0.330396 0.330396
0.34385723 0.34385723 0.34385723
0.35838696 0.35838696 0.35838696
0.367693 0.367693 0.367693
0.38419122 0.38419122 0.38419122
0.39662993 0.39662993 0.39662993
0.41146988 0.41146988 0.41146988
0.42438725 0.42438725 0.42438725
0.44338232 0.44338232 0.44338232
0.4578584 0.4578584 0.4578584
0.4705921 0.4705921 0.4705921
0.4879902 0.4879902 0.4879902
0.5088236 0.5088236 0.5088236
0.5259498 0.5259498 0.5259498
0.54305685 0.54305685 0.54305685
0.5619562 0.5619562 0.5619562
0.5811849 0.5811849 0.5811849
0.59836096 0.59836096 0.59836096
0.6183824 0.6183824 0.6183824
0.63664216 0.63664216 0.63664216
0.65724194 0.65724194 0.65724194
0.6670343 0.6670343 0.6670343
0.29460785 0.29460785 0.29460785
0.29453126 0.29453126 0.29453126
0.2991728 0.2991728 0.2991728
0.30333948 0.30333948 0.30333948
0.30814952 0.30814952 0.30814952
0.31029412 0.31029412 0.31029412
0.31608456 0.31608456 0.31608456
0.32380515 0.32380515 0.32380515
0.33100492 0.33100492 0.33100492
0.3398744 0.3398744 0.3398744
0.34852943 0.34852943 0.34852943
0.3538756 0.3538756 0.3538756
0.36917892 0.36917892 0.36917892
0.38226104 0.38226104 0.38226104
0.39436275 0.39436275 0.39436275
0.4058364 0.4058364 0.4058364
0.41666672 0.41666672 0.41666672
0.4315717 0.4315717 0.4315717
0.44549632 0.44549632 0.44549632
0.46395528 0.46395528 0.46395528
0.47585782 0.47585782 0.47585782
0.48503375 0.48503375 0.48503375
0.5056373 0.5056373 0.5056373
0.526394 0.526394 0.526394
0.54215693 0.54215693 0.54215693
0.5575521 0.5575521 0.5575521
0.5769608 0.5769608 0.5769608
0.59229475 0.59229475 0.59229475
0.60998774 0.60998774 0.60998774
0.63125 0.63125 0.63125
0.64990807 0.64990807 0.64990807
0.66760117 0.66760117 0.66760117
0.68039215 0.68039215 0.68039215
0.3314951 0.3314951 0.3314951
0.32986367 0.32986367 0.32986367
0.33541667 0.33541667 0.33541667
0.33824298 0.33824298 0.33824298
0.3457874 0.3457874 0.3457874
0.34712777 0.34712777 0.34712777
0.3480392 0.3480392 0.3480392
0.3546339 0.3546339 0.3546339
0.36167282 0.36167282 0.36167282
0.3720703 0.3720703 0.3720703
0.38032323 0.38032323 0.38032323
0.38961014 0.38961014 0.38961014
0.39598653 0.39598653 0.39598653
0.4092563 0.4092563 0.4092563
0.41666666 0.41666666 0.41666666
0.4291858 0.4291858 0.4291858
0.44197306 0.44197306 0.44197306
0.45476028 0.45476028 0.45476028
0.4651731 0.4651731 0.4651731
0.47947687 0.47947687 0.47947687
0.49569547 0.49569547 0.49569547
0.5089461 0.5089461 0.5089461
0.5269761 0.5269761 0.5269761
0.5457223 0.5457223 0.5457223
0.55952823 0.55952823 0.55952823
0.5746822 0.5746822 0.5746822
0.5920267 0.5920267 0.5920267
0.6091567 0.6091567 0.6091567
0.62564343 0.62564343 0.62564343
0.64497554 0.64497554 0.64497554
0.6657246 0.6657246 0.6657246
0.68778723 0.68778723 0.68778723
0.69669116 0.69669116 0.69669116
0.3615196 0.3615196 0.3615196
0.3666667 0.3666667 0.3666667
0.3666667 0.3666667 0.3666667
0.36776963 0.36776963 0.36776963
0.37159923 0.37159923 0.37159923
0.3763863 0.3763863 0.3763863
0.379902 0.379902 0.379902
0.38408396 0.38408396 0.38408396
0.39123777 0.39123777 0.39123777
0.3995098 0.3995098 0.3995098
0.40441176 0.40441176 0.40441176
0.41417742 0.41417742 0.41417742
0.42187503 0.42187503 0.42187503
0.43259805 0.43259805 0.43259805
0.442019 0.442019 0.442019
0.45294884 0.45294884 0.45294884
0.46556374 0.46556374 0.46556374
0.47745097 0.47745097 0.47745097
0.48872545 0.48872545 0.48872545
0.5015932 0.5015932 0.5015932
0.51446086 0.51446086 0.51446086
0.5273285 0.5273285 0.5273285
0.5468903 0.5468903 0.5468903
0.5613282 0.5613282 0.5613282
0.577451 0.577451 0.577451
0.5955346 0.5955346 0.5955346
0.61328125 0.61328125 0.61328125
0.63035387 0.63035387 0.63035387
0.6461704 0.6461704 0.6461704
0.6628217 0.6628217 0.6628217
0.6813879 0.6813879 0.6813879
0.70255053 0.70255053 0.70255053
0.70955884 0.70955884 0.70955884
0.39154413 0.39154413 0.39154413
0.3977941 0.3977941 0.3977941
0.3977941 0.3977941 0.3977941
0.39889708 0.39889708 0.39889708
0.40231308 0.40231308 0.40231308
0.40514708 0.40514708 0.40514708
0.40812653 0.40812653 0.40812653
0.41445312 0.41445312 0.41445312
0.421538 0.421538 0.421538
0.42684588 0.42684588 0.42684588
0.43274358 0.43274358 0.43274358
0.43563882 0.43563882 0.43563882
0.44428617 0.44428617 0.44428617
0.45833334 0.45833334 0.45833334
0.46691176 0.46691176 0.46691176
0.4764361 0.4764361 0.4764361
0.48835784 0.48835784 0.48835784
0.49889705 0.49889705 0.49889705
0.5090763 0.5090763 0.5090763
0.5239354 0.5239354 0.5239354
0.53610605 0.53610605 0.53610605
0.54877454 0.54877454 0.54877454
0.56431526 0.56431526 0.56431526
0.58235294 0.58235294 0.58235294
0.5958027 0.5958027 0.5958027
0.6123124 0.6123124 0.6123124
0.6298177 0.6298177 0.6298177
0.64607847 0.64607847 0.64607847
0.66369486 0.66369486 0.66369486
0.68174404 0.68174404 0.68174404
0.70103407 0.70103407 0.70103407
0.71507365 0.71507365 0.71507365
0.7240196 0.7240196 0.7240196
0.42745098 0.42745098 0.42745098
0.43333334 0.43333334 0.43333334
0.43333334 0.43333334 0.43333334
0.43443626 0.43443626 0.43443626
0.43872547 0.43872547 0.43872547
0.44209558 0.44209558 0.44209558
0.4442402 0.4442402 0.4442402
0.4463848 0.4463848 0.4463848
0.45294118 0.45294118 0.45294118
0.45821077 0.45821077 0.45821077
0.46617648 0.46617648 0.46617648
0.4670343 0.4670343 0.4670343
0.47965688 0.47965688 0.47965688
0.48952204 0.48952204 0.48952204
0.49656865 0.49656865 0.49656865
0.5051471 0.5051471 0.5051471
0.5156863 0.5156863 0.5156863
0.5250613 0.5250613 0.5250613
0.5341912 0.5341912 0.5341912
0.5495098 0.5495098 0.5495098
0.5615196 0.5615196 0.5615196
0.5741422 0.5741422 0.5741422
0.5854167 0.5854167 0.5854167
0.6041054 0.6041054 0.6041054
0.6186275 0.6186275 0.6186275
0.63351715 0.63351715 0.63351715
0.6502451 0.6502451 0.6502451
0.66519606 0.66519606 0.66519606
0.67990196 0.67990196 0.67990196
0.7012255 0.7012255 0.7012255
0.71899515 0.71899515 0.71899515
0.7322304 0.7322304 0.7322304
0.74509805 0.74509805 0.74509805
0.46568623 0.46568623 0.46568623
0.4709827 0.4709827 0.4709827
0.46930912 0.46930912 0.46930912
0.47164902 0.47164902 0.47164902
0.4733915 0.4733915 0.4733915
0.47657016 0.47657016 0.47657016
0.4790441 0.4790441 0.4790441
0.48057213 0.48057213 0.48057213
0.48725492 0.48725492 0.48725492
0.49583337 0.49583337 0.49583337
0.50004596 0.50004596 0.50004596
0.5028684 0.5028684 0.5028684
0.51299024 0.51299024 0.51299024
0.52122015 0.52122015 0.52122015
0.5278263 0.5278263 0.5278263
0.53574985 0.53574985 0.53574985
0.54534316 0.54534316 0.54534316
0.55399054 0.55399054 0.55399054
0.56556374 0.56556374 0.56556374
0.57843137 0.57843137 0.57843137
0.59129906 0.59129906 0.59129906
0.601911 0.601911 0.601911
0.61321235 0.61321235 0.61321235
0.62818635 0.62818635 0.62818635
0.6443628 0.6443628 0.6443628
0.657778 0.657778 0.657778
0.6716912 0.6716912 0.6716912
0.68664217 0.68664217 0.68664217
0.7028033 0.7028033 0.7028033
0.72165287 0.72165287 0.72165287
0.7384114 0.7384114 0.7384114
0.7517157 0.7517157 0.7517157
0.768505 0.768505 0.768505
0.49460787 0.49460787 0.49460787
0.49866733 0.49866733 0.49866733
0.4997243 0.4997243 0.4997243
0.50080425 0.50080425 0.50080425
0.5076287 0.5076287 0.5076287
0.5091989 0.5091989 0.5091989
0.5121017 0.5121017 0.5121017
0.5134957 0.5134957 0.5134957
0.5188726 0.5188726 0.5188726
0.5251762 0.5251762 0.5251762
0.528508 0.528508 0.528508
0.53553927 0.53553927 0.53553927
0.5437807 0.5437807 0.5437807
0.5488205 0.5488205 0.5488205
0.55364585 0.55364585 0.55364585
0.56373316 0.56373316 0.56373316
0.5724265 0.5724265 0.5724265
0.57951903 0.57951903 0.57951903
0.5901961 0.5901961 0.5901961
0.6051701 0.6051701 0.6051701
0.6162684 0.6162684 0.6162684
0.625 0.625 0.625
0.6379136 0.6379136 0.6379136
0.65307903 0.65307903 0.65307903
0.66470593 0.66470593 0.66470593
0.6785003 0.6785003 0.6785003
0.6943168 0.6943168 0.6943168
0.7093521 0.7093521 0.7093521
0.721875 0.721875 0.721875
0.73894763 0.73894763 0.73894763
0.75686276 0.75686276 0.75686276
0.77290916 0.77290916 0.77290916
0.787255 0.787255 0.787255
0.52953434 0.52953434 0.52953434
0.5307598 0.5307598 0.5307598
0.5341529 0.5341529 0.5341529
0.53331804 0.53331804 0.53331804
0.5367341 0.5367341 0.5367341
0.5440487 0.5440487 0.5440487
0.5479091 0.5479091 0.5479091
0.54742646 0.54742646 0.54742646
0.549663 0.549663 0.549663
0.5567517 0.5567517 0.5567517
0.5586474 0.5586474 0.5586474
0.5666935 0.5666935 0.5666935
0.5714308 0.5714308 0.5714308
0.5748622 0.5748622 0.5748622
0.5842831 0.5842831 0.5842831
0.58962166 0.58962166 0.58962166
0.60183823 0.60183823 0.60183823
0.6099073 0.6099073 0.6099073
0.618727 0.618727 0.618727
0.6313074 0.6313074 0.6313074
0.64361215 0.64361215 0.64361215
0.6525735 0.6525735 0.6525735
0.6623085 0.6623085 0.6623085
0.6763251 0.6763251 0.6763251
0.6910539 0.6910539 0.6910539
0.70421654 0.70421654 0.70421654
0.716682 0.716682 0.716682
0.73156404 0.73156404 0.73156404
0.7467677 0.7467677 0.7467677
0.76054686 0.76054686 0.76054686
0.7795726 0.7795726 0.7795726
0.7917509 0.7917509 0.7917509
0.8074755 0.8074755 0.8074755
0.5612745 0.5612745 0.5612745
0.56164217 0.56164217 0.56164217
0.56583947 0.56583947 0.56583947
0.5684896 0.5684896 0.5684896
0.56868875 0.56868875 0.56868875
0.5698376 0.5698376 0.5698376
0.57423407 0.57423407 0.57423407
0.5771293 0.5771293 0.5771293
0.579902 0.579902 0.579902
0.58750004 0.58750004 0.58750004
0.5887255 0.5887255 0.5887255
0.5900429 0.5900429 0.5900429
0.60134804 0.60134804 0.60134804
0.6077819 0.6077819 0.6077819
0.61237746 0.61237746 0.61237746
0.6213082 0.6213082 0.6213082
0.6284314 0.6284314 0.6284314
0.6370098 0.6370098 0.6370098
0.6455882 0.6455882 0.6455882
0.6572304 0.6572304 0.6572304
0.6670956 0.6670956 0.6670956
0.67905945 0.67905945 0.67905945
0.69142157 0.69142157 0.69142157
0.7038296 0.7038296 0.7038296
0.7142157 0.7142157 0.7142157
0.7270833 0.7270833 0.7270833
0.7412377 0.7412377 0.7412377
0.75628066 0.75628066 0.75628066
0.76960784 0.76960784 0.76960784
0.78247553 0.78247553 0.78247553
0.80171573 0.80171573 0.80171573
0.8093903 0.8093903 0.8093903
0.82549024 0.82549024 0.82549024
0.58750004 0.58750004 0.58750004
0.5947534 0.5947534 0.5947534
0.59144455 0.59144455 0.59144455
0.5936811 0.5936811 0.5936811
0.5977176 0.5977176 0.5977176
0.60068554 0.60068554 0.60068554
0.6047411 0.6047411 0.6047411
0.60069317 0.60069317 0.60069317
0.608027 0.608027 0.608027
0.61431915 0.61431915 0.61431915
0.614951 0.614951 0.614951
0.6188802 0.6188802 0.6188802
0.62437195 0.62437195 0.62437195
0.63538986 0.63538986 0.63538986
0.64084715 0.64084715 0.64084715
0.6494601 0.6494601 0.6494601
0.6579657 0.6579657 0.6579657
0.6642885 0.6642885 0.6642885
0.6687117 0.6687117 0.6687117
0.68510264 0.68510264 0.68510264
0.6928769 0.6928769 0.6928769
0.70845973 0.70845973 0.70845973
0.7174097 0.7174097 0.7174097
0.7272902 0.7272902 0.7272902
0.7423101 0.7423101 0.7423101
0.75363433 0.75363433 0.75363433
0.76904863 0.76904863 0.76904863
0.7819854 0.7819854 0.7819854
0.7924786 0.7924786 0.7924786
0.8066521 0.8066521 0.8066521
0.8207874 0.8207874 0.8207874
0.83003604 0.83003604 0.83003604
0.8426471 0.8426471 0.8426471
0.61372554 0.61372554 0.61372554
0.61740196 0.61740196 0.61740196
0.6175399 0.6175399 0.6175399
0.61806834 0.61806834 0.61806834
0.61927086 0.61927086 0.61927086
0.61984533 0.61984533 0.61984533
0.6200981 0.6200981 0.6200981
0.6219746 0.6219746 0.6219746
0.6303309 0.6303309 0.6303309
0.63639706 0.63639706 0.63639706
0.6374694 0.6374694 0.6374694
0.6415365 0.6415365 0.6415365
0.646538 0.646538 0.646538
0.6583333 0.6583333 0.6583333
0.6657629 0.6657629 0.6657629
0.6717142 0.6717142 0.6717142
0.67830884 0.67830884 0.67830884
0.68504906 0.68504906 0.68504906
0.6936275 0.6936275 0.6936275
0.7050781 0.7050781 0.7050781
0.7146753 0.7146753 0.7146753
0.7194853 0.7194853 0.7194853
0.73599875 0.73599875 0.73599875
0.75208324 0.75208324 0.75208324
0.76403177 0.76403177 0.76403177
0.7741421 0.7741421 0.7741421
0.78700984 0.78700984 0.78700984
0.7997473 0.7997473 0.7997473
