assets/luts/LUTs/LEICA/LEICA ETN.cube
#Generated by PennL1 - 闲鱼号：LOOK胶片感 公众号：胶片感
TITLE LEICA ETN
LUT_3D_SIZE 33
0.003921569 0.0 0.007843138
0.0050245104 0.0 0.008210785
0.015686275 0.0 0.010294118
0.016789217 0.0 0.003921569
0.026960786 0.0014705884 0.0053921575
0.04105392 0.0020833334 0.009681373
0.05857843 0.0 0.0073529417
0.09117647 0.0 0.009068627
0.1137255 0.0 0.00882353
0.16066177 0.0033088238 0.011151961
0.22009805 0.003921569 0.015441177
0.2647059 0.003921569 0.012009804
0.33480394 0.0034313728 0.018627452
0.4094363 0.0 0.012622549
0.4627451 0.0 0.016911766
0.51862746 0.0015931374 0.01642157
0.5666667 0.0019607844 0.009803922
0.6356618 0.0 0.012500001
0.67083335 0.005392157 0.012990196
0.71433824 0.007843138 0.020955883
0.7529412 0.01127451 0.02009804
0.77585787 0.007965687 0.015808824
0.82598037 0.003921569 0.015931373
0.8658088 0.003921569 0.017769609
0.89117646 0.003921569 0.010784314
0.9257353 0.003921569 0.020955883
0.94803923 0.003921569 0.018382354
0.9672794 0.0018382354 0.01384804
0.98137254 0.0 0.018137256
0.99276966 0.0028186275 0.016789217
0.9992647 0.0007352941 0.015686275
1.0 0.0 0.015686275
1.0 0.0 0.015686275
0.0074754907 0.0003676471 0.011029412
0.008210785 0.0003676471 0.004289216
0.008877145 0.0010340074 0.0049555763
0.01707261 0.0030254293 0.007739737
0.032107845 0.00059742655 0.00614277
0.044267002 0.0003676471 0.002255668
0.06850491 0.0003676471 0.0021599266
0.09166667 0.00060891546 0.00870098
0.11844364 0.0036764708 0.019393383
0.1608992 0.0040364587 0.01306296
0.20831035 0.0075980397 0.0143841915
0.29008505 0.0003676471 0.011887255
0.330239 0.0009037991 0.0152420355
0.40387946 0.0038794426 0.012051931
0.45636487 0.0019837623 0.014330576
0.5247281 0.0024777881 0.01997549
0.57432604 0.0023284315 0.01764706
0.6222503 0.006835938 0.01575521
0.6757353 0.0058823535 0.012852329
0.73030794 0.004656863 0.008907782
0.7651041 0.008088236 0.011320466
0.7876226 0.004779412 0.015563726
0.8300475 0.011174939 0.0117417285
0.8676547 0.0073452825 0.011454504
0.895098 0.005637255 0.012653187
0.92315793 0.008452053 0.014096968
0.95363814 0.008210785 0.013480393
0.9691636 0.006322764 0.011910234
0.98409927 0.006648285 0.012791055
0.99616265 0.0058172494 0.0125
0.9992647 0.007912071 0.014284621
0.99671036 0.00469133 0.012396599
1.0 0.004289216 0.011397059
0.004656863 0.004656863 0.0061274515
0.011098346 0.004725797 0.00938266
0.011764706 0.005392157 0.009773285
0.015073529 0.0060814954 0.0076822923
0.025 0.00692402 0.0051164217
0.04146753 0.005392157 0.004312194
0.07058824 0.00580576 0.0017156864
0.09423254 0.008218444 0.004664522
0.11593138 0.012254902 0.0071078436
0.15247396 0.007238052 0.008348652
0.20245099 0.007735907 0.006280638
0.27735144 0.0061274515 0.012622549
0.32254902 0.0068321084 0.016329657
0.40318626 0.011764706 0.014828432
0.4588695 0.010232843 0.014981618
0.5273131 0.0065640323 0.022357536
0.5721814 0.0077205887 0.018014707
0.6203968 0.012660847 0.016145835
0.67495406 0.012760417 0.011565564
0.72443324 0.011764706 0.011067709
0.76421565 0.013909315 0.011121323
0.7890472 0.011841299 0.016253065
0.8330423 0.008624388 0.0116574755
0.87252605 0.009811581 0.010202207
0.89583325 0.013480392 0.011029412
0.92191327 0.01507353 0.010776655
0.9480239 0.012821691 0.012009805
0.9691712 0.01362592 0.014215687
0.98575366 0.011979167 0.012683825
0.9913756 0.014836092 0.009474572
0.99348956 0.017018996 0.009175858
0.99873626 0.01071538 0.014422488
1.0 0.009313726 0.008578432
0.0067401966 0.012254902 0.013480393
0.008314186 0.013518689 0.01484758
0.013074449 0.0152803315 0.016551778
0.016348805 0.015383732 0.012247243
0.024724266 0.014414828 0.010018382
0.039583333 0.015659466 0.0076248473
0.064077824 0.017279413 0.0045419736
0.08957184 0.018995099 0.0051585482
0.1119179 0.021936275 0.006127451
0.15904184 0.018677237 0.0108838845
0.21206342 0.014675247 0.015441177
0.26468676 0.018995099 0.014671416
0.3160386 0.018780638 0.01663603
0.39595205 0.017038144 0.011381741
0.44950983 0.018282782 0.012990196
0.51307446 0.0217716 0.015935203
0.56783086 0.01844363 0.017953433
0.6254979 0.015770528 0.016915595
0.67032784 0.015831802 0.014315258
0.7205921 0.01617647 0.013970588
0.76683515 0.013710172 0.012469363
0.79639244 0.015019914 0.019378064
0.8307598 0.016421568 0.011151961
0.8684053 0.019581037 0.016839001
0.89874387 0.018321078 0.007843138
0.9236405 0.021947764 0.0076325065
0.9459712 0.02133119 0.008463543
0.96793425 0.024414062 0.01004902
0.98288906 0.026424633 0.0125
0.99307984 0.024812348 0.013177849
0.9992647 0.025413604 0.016950062
0.99744564 0.024180455 0.011339614
1.0 0.02009804 0.009558824
0.0024509805 0.027941179 0.004901961
0.009773284 0.031770833 0.010018382
0.014950981 0.031066177 0.0078125
0.018137256 0.031449143 0.0096660545
0.023100492 0.031495098 0.010784314
0.04033395 0.032184437 0.012545956
0.061795346 0.03226103 0.013419118
0.088602945 0.032368258 0.012775736
0.11200981 0.03370098 0.013970589
0.15761337 0.032659315 0.014705883
0.2129902 0.036948532 0.015625
0.25814953 0.033287376 0.013235294
0.32193628 0.03272059 0.01194853
0.3926011 0.03786765 0.0048713237
0.44996938 0.034191176 0.011611519
0.5134498 0.034037992 0.009880516
0.5615196 0.032107845 0.010784315
0.623269 0.02814032 0.01518076
0.6657782 0.029626226 0.015502451
0.7120405 0.031541057 0.016344976
0.766728 0.031862747 0.01495098
0.79345894 0.03233762 0.013756128
0.8350491 0.03348652 0.0067708334
0.8711244 0.034635417 0.011749389
0.8954657 0.030269608 0.0071078436
0.9283548 0.035784315 0.010998774
0.9492647 0.035784315 0.0135723045
0.97020525 0.035784315 0.0143075995
0.9852941 0.038235296 0.018137256
0.99451596 0.039705884 0.016789217
0.9983456 0.03651961 0.02086397
0.99986213 0.03933824 0.009175858
1.0 0.035784315 0.0053921575
0.0018382354 0.051838238 0.0036764708
0.008088236 0.053772215 0.0071078436
0.009168198 0.052282475 0.0006893383
0.014882047 0.0520144 0.004400276
0.02133885 0.052711397 0.0070312503
0.033210784 0.05502834 0.0073567713
0.052833945 0.054970894 0.008593751
0.08486903 0.05279948 0.0076822923
0.113848045 0.054840688 0.009375
0.15395604 0.05617341 0.010416667
0.20464155 0.056250002 0.008463542
0.2516008 0.055882357 0.008333334
0.3213235 0.052864585 0.0078125
0.3921224 0.058279723 0.004622396
0.4484375 0.055560663 0.004947917
0.50979245 0.052439492 0.0029296877
0.5581495 0.056004904 0.0031250003
0.62018615 0.051348045 0.0031747858
0.6677313 0.049425554 0.0040900735
0.7147595 0.050191488 0.005794271
0.7579197 0.048636645 0.00078124995
0.78541666 0.052443326 0.0020182293
0.8339385 0.0504902 0.0023284315
0.87058824 0.051064648 0.0056793815
0.88933825 0.053707108 0.0049632355
0.9253293 0.052328434 0.007456342
0.9502604 0.05313266 0.0053385417
0.9683862 0.054166667 0.006380209
0.98031557 0.057766546 0.010784314
0.9911075 0.061247706 0.009436275
0.9942862 0.057084866 0.010026042
0.99946004 0.06122473 0.006418505
1.0 0.056004904 0.004166667
0.0017156864 0.08382353 0.007843138
0.0021292893 0.083501846 0.003316483
0.0067708334 0.08071385 0.002849265
0.011764706 0.08196998 0.004672182
0.019699756 0.081801474 0.0013786765
0.030078126 0.08291207 0.0010340074
0.049770225 0.08285846 0.0009650736
0.0821538 0.07921262 0.0
0.1101103 0.078615196 0.0
0.15473346 0.077887565 0.0
0.20865503 0.08183211 0.0
0.2582874 0.08163297 0.0
0.31213236 0.08210784 0.0
0.38933823 0.08296569 0.0004825368
0.44280025 0.084803924 0.0015165443
0.50240505 0.083700985 0.0
0.5606618 0.08492647 0.0
0.62444854 0.081786156 0.0023284315
0.670481 0.08157169 0.0012254904
0.7187347 0.07904412 0.0
0.7660233 0.07475491 0.0
0.7941177 0.074264705 0.0021369488
0.8318321 0.07412684 0.0001072304
0.867333 0.07225031 0.0017156864
0.8905637 0.07340687 0.0017156864
0.9233303 0.074532785 0.0011259193
0.94831496 0.076731004 0.0009650736
0.9687117 0.077696085 0.0010340074
0.9826899 0.08121937 0.001072304
0.9888557 0.08456649 0.00048253685
0.9936275 0.084053315 0.0017922795
0.99947155 0.08893229 0.0037607234
1.0 0.08382353 0.0022058825
0.0 0.10955883 0.007843138
0.0025850185 0.109317556 0.004790901
0.0031786151 0.10746783 0.0013480394
0.008923101 0.10917969 0.0013480394
0.021200981 0.10871631 0.0018075982
0.03224954 0.11076517 0.001999081
0.05100337 0.110684745 0.0020373776
0.08244868 0.10610065 0.00088465086
0.10882353 0.10520834 0.0
0.15229398 0.10665212 0.0
0.2060815 0.109390326 0.0
0.2639706 0.1057598 0.0
0.30891547 0.10955883 0.0
0.39250153 0.11154259 0.0014208028
0.44623163 0.11579351 0.0044653807
0.5145757 0.11115196 0.0
0.5666667 0.11409314 0.0025735295
0.6141008 0.117761955 0.002891391
0.6613129 0.11631435 0.0004212623
0.71492803 0.1096316 0.0
0.76334256 0.107031256 0.0
0.79154414 0.10686275 0.0013059131
0.82882965 0.10404412 0.00048253677
0.8715686 0.10055913 0.0065142466
0.8963542 0.10193015 0.0
0.9228209 0.10163527 0.0
0.951371 0.09914216 0.00058976724
0.96855086 0.09914216 0.0006318934
0.97904414 0.10159314 0.0
0.99073225 0.103063725 0.005549173
0.9937347 0.102068014 0.0067248777
0.9993911 0.11005668 0.0064950986
0.9974265 0.10698529 0.0013480394
0.0 0.13529412 0.0019607842
0.0041053924 0.13786766 0.0047181374
0.006066177 0.13449755 0.0029411768
0.008792892 0.13612133 0.002113971
0.017769609 0.13933824 0.00036764704
0.031403188 0.14025736 0.0032781865
0.0502451 0.13866422 0.0031250003
0.081985295 0.13566177 0.00033700978
0.11102942 0.13946079 0.0022058827
0.15885417 0.14117648 0.0004595588
0.20802696 0.13566178 0.0
0.25707722 0.13728555 0.0
0.30588236 0.1382353 0.0
0.39659926 0.13887869 0.00042892154
0.44852942 0.14117648 0.0013480391
0.51259196 0.14396447 0.0
0.5666667 0.14852941 0.0009803921
0.6195772 0.15018383 0.0007965686
0.66194856 0.15165442 0.0
0.7120404 0.15042892 0.0
0.76458335 0.14485295 0.0
0.79338235 0.14411765 0.002849265
0.83455884 0.14583334 0.00018382352
0.8722426 0.14139093 0.0029411763
0.9017157 0.13725491 0.0036764708
0.92579657 0.1335478 0.0058823535
0.950674 0.12775736 0.0058823535
0.96878064 0.12628677 0.0027573532
0.98088235 0.1259804 0.0018382354
0.98799014 0.12745099 0.0029411763
0.99417895 0.13143383 0.004534314
0.9942095 0.13235295 0.00223652
0.9990196 0.13137256 0.0029411768
0.0 0.17426471 0.0
0.00067018997 0.17450981 0.0012331496
0.0018458948 0.17157629 0.007850797
0.0074984687 0.17536765 0.009436274
0.020726105 0.17593443 0.0066176476
0.03439798 0.17654718 0.0040900735
0.048383884 0.17777267 0.0005361519
0.07867647 0.17664677 0.0
0.105974264 0.18097427 0.0004595588
0.15125231 0.1765242 9.5741416e-05
0.19914216 0.16813727 0.0
0.24361596 0.16825981 0.0
0.31332722 0.16867343 0.00082720595
0.38833487 0.17301625 0.0066176476
0.44290748 0.17837776 0.004549633
0.50012255 0.18332951 0.0
0.55508584 0.18829656 0.0
0.6198721 0.18860677 0.0
0.66906404 0.19037224 0.0
0.7101371 0.19573376 0.0
0.7570772 0.19031863 0.0
0.7886221 0.19254366 0.00059359684
0.82484686 0.19632354 0.0031020222
0.87001765 0.19193858 9.5741416e-05
0.8963235 0.18728554 0.0024203432
0.9269799 0.18189721 0.005568322
0.94652265 0.17951134 0.0026731007
0.9676049 0.17413832 0.0038832724
0.98367035 0.17239583 0.0057598045
0.9904412 0.17634805 0.002033548
0.9979167 0.1692785 0.0031862748
0.9958334 0.173089 0.00036764704
0.9966912 0.17365196 0.00061274506
0.0 0.2245098 0.0
0.0073529417 0.22081035 0.0007352942
0.008088236 0.21994485 0.007889094
0.012515319 0.2192938 0.005951287
0.020189952 0.22457108 0.0018688724
0.033095896 0.22460938 0.002213542
0.05010723 0.22058824 0.0
0.0817402 0.21490502 0.0
0.11133579 0.2139093 0.0
0.15376073 0.21665901 0.0031020222
0.2009804 0.2132506 0.0002297794
0.25589 0.21655178 0.0
0.32297796 0.21348038 0.001439951
0.3773437 0.21862745 0.01071538
0.4439798 0.223606 0.0053921575
0.51299024 0.22287072 0.0
0.5639706 0.22536765 0.0
0.61786157 0.22757353 0.0
0.6627451 0.23674938 0.0
0.7140625 0.24345128 0.0
0.7563113 0.23428309 0.0
0.79093903 0.24732693 0.003561581
0.83288914 0.24090073 0.0036764708
0.869156 0.24407935 0.0
0.89142156 0.24473038 0.0019607844
0.9283394 0.24460785 0.00893842
0.9536458 0.23967525 0.009528186
0.972909 0.2373468 0.0056449147
0.98887867 0.23321079 0.004074755
0.99208796 0.22682293 0.006456802
0.99852943 0.2181832 0.0075520836
0.9997779 0.22710632 0.004044118
0.9997549 0.22083333 0.0
0.0037990198 0.24485295 0.0077205887
0.004289216 0.2590801 0.008199296
0.008555454 0.24924174 0.012354474
0.012745098 0.25246632 0.011236214
0.018367035 0.25562194 0.0061427704
0.030621938 0.26029414 0.010221355
0.052313115 0.25588238 0.006165748
0.080434285 0.25019914 0.0026539525
0.11032476 0.25775123 0.00569853
0.14755668 0.26035157 0.0011871936
0.19385722 0.25661767 0.0
0.24839154 0.25293735 0.0
0.298652 0.2642004 3.0637257e-05
0.3714882 0.26661307 0.00024509805
0.4335478 0.2732384 0.0013556986
0.5026731 0.26801473 0.002255668
0.5530025 0.26795346 0.0037990198
0.6077704 0.26796493 0.0030867036
0.658701 0.26565567 0.0026960785
0.7113013 0.2734873 0.0008578431
0.7527727 0.27587318 0.0
0.78382355 0.29093522 0.00023743874
0.82941175 0.27624083 0.0
0.86311275 0.28194702 0.0006127451
0.89209557 0.2935662 0.0038909316
0.9164254 0.29534698 0.0038832722
0.9381664 0.28947613 0.0039905026
0.96156937 0.28548944 0.003986673
0.97250307 0.27792588 0.0015165443
0.9839997 0.276417 0.0
0.9945542 0.27664676 0.0
0.992513 0.27293965 0.0
0.99620104 0.264951 0.0
0.0 0.30539218 0.0034313728
0.0037990198 0.30684745 0.0073529417
0.007536765 0.3020527 0.0074448534
0.0092984075 0.30631128 0.009497549
0.010661765 0.31507352 0.01262255
0.022610296 0.3132353 0.011014094
0.04733456 0.3090993 0.007138481
0.06985294 0.31328127 0.0016697305
0.09669118 0.321201 0.00012254901
0.15050553 0.31386337 0.0
0.20756741 0.30949757 0.0
0.24701287 0.30957416 0.0
0.28811276 0.31703433 0.0009191177
0.3817249 0.31328124 0.007245711
0.43281248 0.31550246 0.004871324
0.494087 0.31617647 0.00029105393
0.55563724 0.31446078 0.0004901961
0.61253065 0.31449142 0.00039828435
0.66185665 0.3234375 0.0023590687
0.7116422 0.32734376 0.0007506127
0.76139706 0.32487744 0.0
0.79564947 0.33400738 0.006648285
0.8289522 0.32907474 0.0
0.86311275 0.33926165 0.00068933825
0.89031863 0.34227943 0.0033088238
0.9130668 0.34315258 0.0026960785
0.9436274 0.34261644 0.0061274515
0.96259195 0.34120712 0.005484069
0.9710172 0.3459559 0.0025735297
0.98889405 0.34289217 0.0
0.99231005 0.35024512 0.0
0.9916667 0.34090075 0.0
1.0 0.3406863 0.0
0.0 0.36801472 0.0025735295
0.00044806988 0.3596048 0.0054764096
0.005928309 0.36805302 0.0043351715
0.0113894 0.37193626 0.004645374
0.014414828 0.37276345 0.0020067403
0.023146449 0.37374005 0.0049555763
0.04165135 0.3720435 0.0048866426
0.06585861 0.37566254 0.0033586093
0.09883579 0.37245712 0.0007659313
0.14321385 0.36986446 0.0007238052
0.19893536 0.3717984 0.0008578432
0.24141008 0.3722235 0.0
0.29122242 0.37965685 0.0005974265
0.36456802 0.36896065 0.0037339157
0.43281248 0.36917126 0.0009574143
0.49092373 0.37279412 0.0018190871
0.5577819 0.3723652 0.0030637258
0.6077589 0.37062654 0.0024892772
0.6567632 0.37276345 0.0
0.7080232 0.37854627 0.0
0.7527114 0.38170958 0.0
0.7961857 0.37901732 0.0
0.8256817 0.38590688 0.001608456
0.8622549 0.3860409 0.0012254902
0.89074755 0.38795957 0.0058823535
0.9158816 0.39529335 0.002401195
0.9421262 0.40245098 0.006020221
0.9582491 0.40525046 0.0026960787
0.9717677 0.4098652 0.00032169122
0.98701745 0.40674788 0.0012331496
0.9894148 0.41318938 0.00032169116
0.9875383 0.3973039 0.0
0.99828434 0.40159315 0.0008578432
0.0 0.4237745 0.011764706
0.0019607844 0.42130056 0.00903799
0.008838848 0.42185968 0.005637255
0.01004902 0.42558974 0.0028645834
0.017708335 0.42545956 0.00346201
0.023376226 0.42251074 0.0014322917
0.04142157 0.42328432 0.0035845588
0.06549479 0.42516083 0.0021905638
0.09607843 0.4320466 0.002757353
0.14428616 0.4320389 0.0038832724
0.19330576 0.42679226 0.003921569
0.24525888 0.42769605 0.0012637868
0.28318015 0.42668504 0.002971814
0.3669807 0.4222886 0.005170037
0.43005514 0.4310202 0.0
0.48755363 0.42866883 0.0
0.54828435 0.4259804 0.0
0.6023208 0.42707568 0.0
0.65304846 0.422932 0.0008425245
0.70612746 0.4273744 0.00026807596
0.7509498 0.4302696 0.0
0.7884115 0.42920497 0.0011871937
0.8244179 0.43324143 0.008578432
0.8602252 0.43596047 0.0022594975
0.88890934 0.43958336 0.0064950986
0.9162454 0.44590226 0.0033777575
0.93645835 0.45078126 0.0052542896
0.95690876 0.45068935 0.0046109073
0.9775123 0.45674023 0.0037683824
0.99517465 0.462546 0.0075520836
0.9946232 0.46443015 0.0036917892
0.98738503 0.45359987 0.0002297794
0.99460787 0.4512255 0.0026960787
0.004779412 0.47316176 0.010171569
0.005951287 0.47197843 0.0058019306
0.009137562 0.47491574 0.008440563
0.006862745 0.47626764 0.0062921266
0.01429228 0.4785386 0.0026501226
0.021645222 0.4795343 0.0016927085
0.041138176 0.47815564 0.003929228
0.070063576 0.47611827 0.002401195
0.10686275 0.4820466 0.007628677
0.14521293 0.48150277 0.0035539218
0.19622396 0.47813267 0.003821998
0.2433096 0.4803194 0.0054878984
0.28544733 0.4820619 0.0043658093
0.3693551 0.48329502 0.0025160848
0.42871475 0.48072916 0.002190564
0.48499924 0.47799098 0.0019416361
0.5493873 0.47444853 0.002389706
0.60125995 0.4750536 0.0037837012
0.6510034 0.47363666 0.0046875
0.7034314 0.4702857 0.0008578431
0.7467525 0.47481617 0.0013939952
0.7893421 0.47477788 0.0053921575
0.8191713 0.47896755 0.00848652
0.86359525 0.4835823 0.0069738054
0.8870405 0.48612136 0.007046569
0.91371787 0.48995867 0.007793352
0.9375766 0.49285385 0.0040134806
0.96197534 0.49719286 0.004423254
0.98167896 0.4972886 0.008425245
0.99395293 0.5034735 0.009026501
0.9949219 0.5042356 0.0066865813
0.99381894 0.5030216 0.00058593747
0.9984069 0.50061274 0.0
0.011764706 0.5294118 0.009803922
0.0103553925 0.53511035 0.0058823535
0.01495098 0.53406864 0.0062500006
0.012867647 0.53670347 0.0056372555
0.018627452 0.53602946 0.0029411768
0.023529412 0.54001224 0.004166667
0.034558825 0.53651965 0.0
0.06887255 0.5326593 0.0012867647
0.1 0.53627455 0.0063725496
0.1389706 0.5339461 0.0012254901
0.19105393 0.53700984 0.0018382354
0.2481618 0.5372549 0.007659314
0.2914216 0.5372549 0.0019607844
0.36390933 0.53811276 0.0023897062
0.41936272 0.5375 0.0033088238
0.48651963 0.53339463 0.0035539218
0.5480392 0.532353 0.004901961
0.6072304 0.5313113 0.0062500006
0.6552696 0.529902 0.010539216
0.707353 0.52591914 0.005637255
0.7519608 0.52205884 0.0056372555
0.78155637 0.5291667 0.0058823535
0.8144608 0.52769613 0.004534314
0.85857844 0.5310662 0.012193628
0.88529414 0.532353 0.005882353
0.9159926 0.5391544 0.0077205882
0.94301474 0.5395833 0.0017156864
0.9643995 0.54509807 0.003921569
0.9794117 0.54509807 0.003921569
0.99221814 0.55073535 0.0025122552
0.9944853 0.5545343 0.0019607844
0.9976716 0.5513481 0.00018382352
0.99803925 0.54901963 0.0
0.009436275 0.5903187 0.009436275
0.008210785 0.58936507 0.0040709255
0.01930913 0.5876915 0.005951287
0.02054611 0.58979017 0.0056372555
0.020343138 0.5911918 0.0020680148
0.02825138 0.593796 0.0029296875
0.04064032 0.5937194 0.0
0.06251532 0.5885455 0.004101563
0.086151965 0.5893383 0.0074448534
0.13396524 0.5942479 0.0012254901
0.1860294 0.5942862 0.0
0.25759807 0.58960634 0.0076478254
0.30059743 0.59011954 0.0021752452
0.37083334 0.589074 0.0059015015
0.42383578 0.58714 0.003699449
0.48767617 0.5826861 0.0018918506
0.545527 0.5821079 0.005085785
0.60294116 0.5801471 0.0031862748
0.6518229 0.5784544 0.011879596
0.7042892 0.57638633 0.011726409
0.7542586 0.57075673 0.008134192
0.7827206 0.57911694 0.010811122
0.81164217 0.57860756 0.0065487134
0.84999615 0.57927775 0.0113740815
0.88471204 0.5797488 0.0134497555
0.9127375 0.58303845 0.009248622
0.9398667 0.5866039 0.0
0.9609299 0.5906748 0.0
0.9759804 0.5934896 0.0
0.9928118 0.59530485 0.0
0.9963772 0.6001762 0.0
0.99963236 0.5992379 0.0
1.0 0.5950981 0.0
0.010539216 0.6294118 0.0051470594
0.0099111525 0.62318474 0.0063648904
0.015916055 0.6271906 0.004151348
0.018841913 0.628531 0.004457721
0.026256127 0.6329044 0.0031556375
0.032000616 0.6368873 0.0020833334
0.04278493 0.6339767 0.0015165441
0.055545345 0.6334942 0.0060738362
0.087438725 0.6344976 0.011887256
0.13759191 0.6323223 0.006617647
0.18921567 0.6332414 0.00033700978
0.24547336 0.6232537 0.0049862135
0.2959559 0.63682604 0.001317402
0.36667433 0.6315181 0.0087699145
0.42369792 0.6291054 0.0042126225
0.47889096 0.62723655 0.0053002452
0.54178923 0.623652 0.005882353
0.5975567 0.62254137 0.00748315
0.6434896 0.62118566 0.0069087017
0.696224 0.6214921 0.008746937
0.7457108 0.61966914 0.0056372555
0.78185517 0.6139017 0.007521446
0.8103861 0.61773896 0.008180147
0.85320157 0.6193091 0.012124695
0.8849878 0.62034315 0.0064950986
0.91089153 0.62169117 0.004986214
0.93426776 0.6265166 0.0
0.9594363 0.63019305 0.0
0.9776654 0.6324142 0.0
0.99048716 0.6266391 0.0
0.995573 0.6347733 0.0
0.99474573 0.63370097 0.0
1.0 0.6294118 0.0
0.0025735293 0.6729167 0.0008578431
0.0060049025 0.67413837 0.0022097123
0.009558824 0.6740656 0.006410846
0.011144302 0.6773208 0.0030598962
0.018137256 0.6761796 0.0031556375
0.02838159 0.6840878 0.0051470594
0.04374234 0.68295807 0.0018229168
0.057575062 0.6764438 0.0054419427
0.080238976 0.6769302 0.011427697
0.12820926 0.6684934 0.0060049025
0.19151348 0.67333794 0.006043199
0.24949451 0.6684628 0.006767004
0.29296875 0.6771906 0.0014705883
0.370121 0.66879976 0.010531557
0.42025122 0.6703125 0.005974265
0.4758655 0.66762024 0.0033471202
0.535049 0.66899514 0.0028186277
0.5940142 0.6677505 0.005127911
0.63414526 0.66840535 0.01050858
0.6831457 0.66880745 0.004208793
0.741345 0.6609528 0.0036458336
0.776417 0.6602788 0.012825523
0.81322 0.66101414 0.0018229168
0.8522059 0.6584674 0.002895221
0.87993264 0.65588236 0.00021446077
0.9063917 0.6572304 0.0005629596
0.9374081 0.6615196 0.0
0.9612554 0.66418123 0.0
0.9768995 0.6664982 0.0
0.9860256 0.6613933 0.0
0.99476874 0.6716912 0.0024892772
0.9925245 0.67107844 0.00028722425
0.9969363 0.66678923 0.0
0.0 0.7166667 0.0068627456
0.0008578431 0.71678925 9.191176e-05
0.0056985295 0.71341914 0.00088848034
0.012377451 0.714905 0.001317402
0.01685049 0.7183211 0.002512255
0.025352329 0.71671265 0.00075061293
0.03875613 0.7131434 0.00021446077
0.05409008 0.7135723 0.0006433823
0.0817402 0.70845586 0.0013480391
0.12064952 0.70562196 0.0035386032
0.17564338 0.71274513 0.0075980397
0.25882357 0.70602024 0.0077052703
0.29736522 0.70968145 0.004044118
0.36888787 0.70635724 0.0074754907
0.43268993 0.7071998 0.0042585786
0.4832108 0.70625 0.0023284315
0.5401961 0.71102947 0.0019607844
0.5811734 0.70707726 0.0018841913
0.63489586 0.7035233 0.010937501
0.6928768 0.70513177 0.006112132
0.7403799 0.7045956 0.0068627456
0.77882975 0.7015625 0.008777574
0.81697303 0.6945772 0.0068627456
0.84898895 0.6935049 0.0057904418
0.8827206 0.69276965 0.0
0.9095282 0.69947916 0.0
0.94148284 0.69626224 0.0
0.9631587 0.69643074 0.0
0.9816177 0.69620097 0.002144608
0.99275434 0.69685966 0.0009650737
0.9958947 0.6991421 0.0003982843
0.99563426 0.70528495 0.0031556375
0.9995098 0.69509804 0.0068627456
0.0037990198 0.7443628 0.007843138
0.004522825 0.75088084 0.0034428618
0.010853248 0.7418659 0.00071231625
0.011205576 0.74914217 0.0027650124
0.020955883 0.75058216 7.659313e-05
0.027140781 0.7498928 0.0
0.044401042 0.74537385 0.0
0.06233533 0.74293435 0.0
0.08140319 0.7412072 0.0
0.11617647 0.7434015 0.00010340079
0.16236213 0.7513481 0.00023743883
0.24864429 0.73283935 0.0041590077
0.29613972 0.7403034 0.00726103
0.37479317 0.74022293 0.005679381
0.43028492 0.7402421 0.010332415
0.48027727 0.7386796 0.0061274515
0.5316789 0.73468137 0.0038602944
0.58926547 0.7349035 0.008360141
0.6362439 0.7363128 0.009122243
0.6909313 0.73933834 0.01373698
0.74304533 0.73687196 0.0021292893
0.7757277 0.7399587 0.00024509802
0.8026808 0.73959106 0.00024509802
0.8428348 0.7342295 0.00020680157
0.8871324 0.7255515 0.0
0.9100529 0.7286343 0.001305913
0.9343137 0.7235141 0.0021369485
0.9597963 0.7191177 0.0
0.97760415 0.7232537 7.659313e-05
0.9917357 0.72745097 0.0027650124
0.9960785 0.7285539 0.0037990198
0.9960785 0.728776 0.00391008
0.99620104 0.72083336 0.00024509802
0.003921569 0.77034307 0.015441177
0.0072763483 0.76999843 0.015196079
0.004166667 0.76666665 0.008088236
0.008509498 0.7687347 0.008019302
0.019883579 0.7712622 0.0064644613
