assets/luts/LUTs/LEICA/LEICA CNT.cube
#Generated by PennL1 - 闲鱼号：LOOK胶片感 公众号：胶片感
TITLE LEICA CNT
LUT_3D_SIZE 33
0.007843138 0.0 0.019607844
0.014705883 0.0035539218 0.023529412
0.04534314 0.0 0.020588236
0.06262255 0.0011029412 0.008946079
0.097058825 0.0024509805 0.016176471
0.1252451 0.0018382354 0.019852942
0.16470587 0.0017156864 0.02009804
0.22303921 0.005147059 0.028676473
0.25686276 0.007843138 0.03137255
0.31237745 0.004534314 0.028063726
0.3620098 0.0075980397 0.034803923
0.39362746 0.011642157 0.03933824
0.44411764 0.007843138 0.043627452
0.4835784 0.007843138 0.04877451
0.5142157 0.007843138 0.05735294
0.5491422 0.007843138 0.06593138
0.582353 0.0058823535 0.07254902
0.62254906 0.0015931374 0.079166666
0.6433824 0.005392157 0.08235294
0.6685049 0.010906863 0.08541667
0.7019608 0.015196079 0.103431374
0.71727943 0.011887255 0.109681375
0.7583333 0.012254902 0.12181373
0.78345597 0.019607844 0.12794119
0.80588233 0.019607844 0.14313726
0.8356617 0.019607844 0.15306373
0.8622549 0.019607844 0.16250001
0.87916666 0.019607844 0.17303923
0.9 0.017156864 0.18284315
0.9199755 0.024142157 0.19276962
0.94460785 0.024264706 0.20245099
0.9596814 0.030637257 0.21102941
0.972549 0.03137255 0.22352941
0.014583334 0.008946079 0.019240197
0.017455576 0.0096469065 0.019573377
0.03394608 0.009244792 0.015088849
0.05840993 0.010152421 0.013085938
0.09612439 0.01351103 0.017386643
0.12980622 0.013453585 0.020737592
0.18177849 0.013074448 0.023238359
0.23198913 0.011144302 0.026830576
0.26994488 0.018045343 0.03213848
0.31678155 0.017401962 0.03775276
0.36515015 0.013457415 0.045833334
0.41128597 0.017045803 0.045722276
0.43754596 0.014047182 0.05045956
0.4902765 0.017934283 0.056089155
0.5180224 0.019600185 0.06531863
0.5498085 0.017007507 0.07066866
0.57665443 0.016973041 0.072181374
0.607284 0.019485295 0.07813266
0.6424173 0.01863511 0.09140625
0.68190104 0.01752451 0.10065487
0.7031863 0.017846202 0.09601716
0.7241422 0.02477788 0.10970435
0.7480163 0.025 0.12580423
0.7843789 0.025057446 0.13168275
0.8086397 0.026256127 0.13985908
0.83235675 0.030269608 0.14925705
0.85731465 0.03284314 0.15665595
0.8765434 0.030955117 0.16708411
0.89548105 0.031740196 0.18054534
0.9191943 0.0380553 0.1929879
0.93807447 0.037362132 0.20577513
0.9624656 0.036764707 0.20884268
0.97610295 0.036764707 0.2125
0.005392157 0.023284314 0.014215687
0.019883579 0.030093445 0.02086397
0.032322302 0.026746325 0.016881129
0.05179994 0.02634038 0.015287992
0.08354779 0.033333335 0.007322305
0.1280867 0.03306526 0.013334867
0.18374693 0.029411765 0.017478555
0.22942708 0.033218443 0.021821385
0.2629902 0.034865197 0.022426471
0.30480242 0.032981005 0.029878985
0.35700062 0.030530024 0.03872549
0.4007353 0.03362439 0.031640626
0.43079045 0.03495711 0.04132966
0.4867647 0.034313727 0.051302083
0.5161765 0.034773286 0.055667892
0.5484069 0.034191176 0.06433824
0.57843137 0.033088237 0.068627454
0.6051088 0.036205575 0.0752451
0.6411152 0.038005516 0.085508585
0.6769225 0.038235296 0.095427394
0.6974571 0.040379904 0.10481005
0.71921724 0.04211091 0.11419271
0.7542127 0.04220282 0.12495405
0.78726256 0.043504905 0.13946846
0.8063113 0.04699755 0.14332108
0.82621783 0.048391543 0.14892003
0.8517923 0.05032169 0.15562195
0.8713235 0.05112592 0.16701135
0.89016545 0.05392157 0.17493872
0.92092526 0.05204504 0.19539675
0.9355086 0.05392157 0.20696998
0.96272975 0.053990506 0.21783854
0.9732843 0.05392157 0.21960784
0.011764706 0.046936277 0.007843138
0.018684896 0.051960785 0.013292739
0.038687196 0.05269608 0.016873468
0.055710018 0.055089615 0.015203739
0.09093137 0.055177696 0.016789217
0.12940028 0.05605852 0.020235907
0.18160999 0.0540288 0.025038298
0.2254672 0.05550322 0.025413603
0.25925246 0.059650738 0.029013481
0.30875078 0.061423868 0.032130823
0.35537687 0.052558213 0.038794424
0.3975988 0.054308366 0.03280867
0.4323223 0.05848652 0.043841913
0.4835784 0.056985296 0.050490197
0.5126456 0.058746938 0.05784314
0.54456574 0.06102941 0.062132355
0.57732844 0.057843138 0.068075985
0.6130745 0.056985296 0.07634804
0.6435815 0.058923103 0.080713846
0.67720586 0.061527267 0.09130285
0.7041207 0.05857843 0.104411766
0.7287109 0.063549325 0.11621094
0.7521217 0.06493566 0.11831343
0.7849035 0.066984534 0.12882583
0.8047488 0.07034314 0.13385418
0.82729393 0.07269455 0.14481847
0.8504826 0.07328431 0.15883885
0.8730124 0.07640166 0.17384344
0.89436275 0.07965687 0.18391545
0.9155714 0.07707568 0.19527803
0.934712 0.077780336 0.20526962
0.9627336 0.07875307 0.21184894
0.9764706 0.07659314 0.21629903
0.010294118 0.08284314 0.009313726
0.019240197 0.087607235 0.015180761
0.031556375 0.0870098 0.010569854
0.05044424 0.09019608 0.013556985
0.092340685 0.09019608 0.018137256
0.12765013 0.090885416 0.018367035
0.16908701 0.08946078 0.02414216
0.2173407 0.089353554 0.02457108
0.25931373 0.09387255 0.027328432
0.30660233 0.09220283 0.0330576
0.3550858 0.086611524 0.0375
0.38958335 0.09252451 0.034114584
0.4365196 0.08939951 0.043137256
0.47833943 0.09476103 0.044852942
0.5097427 0.09568015 0.052665442
0.5434896 0.09284621 0.05796569
0.57524514 0.09509804 0.06593138
0.60903805 0.095312506 0.075352326
0.6357537 0.09411765 0.07827819
0.6694547 0.1002451 0.09068628
0.703125 0.09852941 0.103125
0.7244332 0.09946385 0.109160535
0.7530331 0.10189951 0.11969976
0.7796875 0.10098039 0.1293505
0.80355394 0.101593144 0.13688727
0.83045346 0.10326287 0.14848346
0.85125613 0.10594363 0.15802696
0.8751685 0.10772059 0.16885723
0.89577204 0.1064951 0.17598039
0.91655946 0.110033706 0.19042586
0.94295347 0.108884804 0.20125613
0.9573223 0.11766238 0.20511642
0.975 0.11519608 0.21078432
0.009681373 0.13370098 0.009926471
0.01529565 0.13333334 0.011791514
0.030713849 0.13085938 0.00938266
0.04688266 0.13502222 0.00970818
0.085064344 0.13301165 0.014537378
0.12094823 0.136286 0.0176394
0.16173407 0.13702512 0.018818934
0.21762791 0.13370098 0.020588236
0.2608456 0.13507965 0.024877451
0.31290212 0.13574603 0.028959867
0.35784316 0.13187806 0.034934133
0.39331725 0.13530178 0.03524433
0.4408088 0.12915134 0.04175858
0.47472042 0.13893612 0.04669118
0.5094746 0.14109989 0.054120712
0.54482996 0.13723193 0.059325214
0.5755515 0.13982844 0.06378677
0.6104933 0.13856848 0.06824832
0.6352558 0.14141391 0.077244185
0.66857386 0.14495635 0.09252451
0.6971507 0.14203432 0.09799326
0.7170994 0.14356235 0.10540748
0.7508502 0.14398745 0.11874235
0.7807598 0.14996171 0.13174403
0.79941785 0.15214461 0.13550858
0.8252068 0.14795497 0.14833027
0.8492264 0.1487592 0.16055454
0.8704772 0.15220205 0.1648361
0.88964456 0.15107231 0.16908701
0.9165977 0.15679382 0.18491116
0.93992805 0.15120251 0.1982307
0.95914143 0.1598269 0.20710784
0.972549 0.15931374 0.21568626
0.0073529417 0.1872549 0.012254903
0.015395221 0.18909314 0.0064185057
0.03178615 0.1861826 0.012913603
0.05258119 0.18786766 0.009298407
0.0861826 0.18606006 0.014062501
0.11689645 0.19199601 0.016858151
0.15877758 0.19143689 0.014721202
0.21823682 0.1872549 0.01799173
0.26145834 0.18688726 0.021384805
0.3125077 0.1853171 0.022847734
0.361489 0.18918505 0.030392159
0.39947918 0.18453585 0.030530024
0.44126838 0.18474266 0.036335785
0.48003218 0.19251686 0.047809437
0.5107843 0.19538909 0.05324755
0.54391086 0.1938649 0.06070772
0.5756128 0.19362745 0.06384804
0.6124081 0.19309896 0.0682981
0.64008886 0.20064339 0.07867648
0.673292 0.2016008 0.0928845
0.70165443 0.19779412 0.0981924
0.72151506 0.19516698 0.11158854
0.74863666 0.19738053 0.11470588
0.7798101 0.19941023 0.13098194
0.80539215 0.2038603 0.14240196
0.8281863 0.20218292 0.15467985
0.8512408 0.20245099 0.16277574
0.87378985 0.20465687 0.16704963
0.89454657 0.20710786 0.1740196
0.91680455 0.20981158 0.1838312
0.939614 0.2096967 0.20105699
0.95915294 0.21777725 0.2035233
0.9703432 0.21299021 0.21568626
0.009068627 0.23615196 0.015686275
0.014215686 0.23737364 0.012262562
0.027818628 0.23615196 0.018489584
0.0504902 0.23577283 0.01876149
0.08564645 0.2377451 0.018887868
0.118504904 0.24207261 0.020343138
0.16076134 0.23845743 0.019707415
0.21515395 0.23277421 0.020913757
0.25759804 0.23578432 0.026746325
0.30183825 0.23954889 0.023196232
0.3526961 0.24006587 0.029534316
0.39824602 0.23354015 0.036481313
0.43065256 0.23664217 0.04105392
0.48424095 0.24122626 0.054779414
0.5116422 0.24369639 0.056464463
0.5454657 0.24380746 0.06330806
0.57775736 0.24595588 0.06985295
0.60852104 0.24424787 0.07567019
0.6359069 0.24803922 0.08285846
0.67004824 0.24725413 0.09210708
0.70122546 0.24551165 0.10098039
0.72234607 0.24902344 0.11335784
0.7542126 0.24509805 0.1196921
0.7784161 0.24283855 0.13221508
0.8017463 0.2514706 0.13639706
0.8282399 0.25306374 0.15191866
0.8527956 0.24995404 0.16695772
0.87202054 0.2506319 0.1740196
0.8946538 0.2558977 0.18259804
0.92160314 0.2564836 0.19117647
0.9400429 0.25795037 0.20094976
0.9520757 0.25967756 0.20258503
0.97634804 0.26102942 0.21568626
0.00882353 0.28333336 0.015686275
0.009926471 0.28333336 0.016053922
0.024080884 0.28388482 0.019791666
0.04914216 0.28627452 0.020312501
0.082598045 0.28811276 0.01997549
0.11262255 0.28933823 0.020128677
0.15729168 0.28670344 0.021813726
0.21090686 0.28305763 0.020955883
0.25637257 0.2901961 0.030637257
0.3070466 0.28900126 0.0301777
0.36158088 0.2873162 0.042279415
0.39681372 0.28627452 0.040379904
0.42708334 0.28639707 0.047303922
0.483701 0.286826 0.056525737
0.51096815 0.28682598 0.06066177
0.5456189 0.2921875 0.064705886
0.57549024 0.2916667 0.06960785
0.61001843 0.29172796 0.08265932
0.63841915 0.2988358 0.08890931
0.6659927 0.30021447 0.09534314
0.7033088 0.2897059 0.1064951
0.723989 0.29298407 0.11639094
0.74963236 0.2940564 0.12524511
0.77827823 0.29313728 0.1375
0.8068628 0.29485297 0.14558825
0.82545954 0.29865196 0.15505515
0.8505515 0.29950982 0.16556373
0.8708027 0.29975492 0.17239583
0.89240193 0.29730394 0.18235295
0.92156863 0.29944855 0.19304535
0.93915445 0.3047794 0.20165442
0.9536152 0.30321693 0.20382966
0.97450984 0.30392158 0.20980392
0.007843138 0.33382353 0.015686275
0.0119447 0.3308249 0.016053922
0.023284314 0.33393842 0.019607844
0.046350338 0.3353669 0.020538451
0.07814032 0.33425248 0.021675859
0.11572841 0.3312462 0.022709865
0.15732998 0.33257508 0.02657016
0.20558365 0.33289677 0.035121784
0.24528188 0.33768383 0.04378064
0.30482155 0.33514476 0.036328126
0.3528263 0.3344363 0.040081188
0.38089 0.33433288 0.039357387
0.4286152 0.33112746 0.0455576
0.47351792 0.33171722 0.05762102
0.5036765 0.3342065 0.056931682
0.53994715 0.33664218 0.06383272
0.5678922 0.33670345 0.07359069
0.60675174 0.33712852 0.08713236
0.6374311 0.34208792 0.093504906
0.66730237 0.34091988 0.09963236
0.70242035 0.33515626 0.10874694
0.7216912 0.34144074 0.12060738
0.7437117 0.3393842 0.1264323
0.77651274 0.3449755 0.14136797
0.80235904 0.3411458 0.14669119
0.8217103 0.3382353 0.15140165
0.8386259 0.33936122 0.15767463
0.86511946 0.34138328 0.1711627
0.89215684 0.34310663 0.18261337
0.9158318 0.35078508 0.19276962
0.93504137 0.34574908 0.20245099
0.95208335 0.34955963 0.20392157
0.96593136 0.36004904 0.21446078
0.007843138 0.38161764 0.030392159
0.016865809 0.38472733 0.03374694
0.030867036 0.382307 0.029258579
0.040548407 0.38536304 0.024387255
0.07882966 0.38250613 0.028492648
0.1186198 0.38112748 0.03259038
0.15553004 0.38102025 0.030667894
0.208341 0.37544426 0.03291973
0.25049022 0.37444854 0.033210784
0.29886642 0.38050705 0.03483456
0.34658396 0.37817097 0.04586397
0.39253217 0.3813802 0.050252758
0.43857232 0.37493873 0.051531862
0.47261795 0.3830346 0.05957415
0.5061275 0.3866728 0.0634804
0.54414064 0.38470435 0.07244945
0.5740197 0.38541666 0.083700985
0.60680914 0.38176316 0.09291513
0.6358609 0.389614 0.09526655
0.6705193 0.39294577 0.10311735
0.6959865 0.38946077 0.10928309
0.7208487 0.39300704 0.12120098
0.75347733 0.38901657 0.13681066
0.7767999 0.38771448 0.14351258
0.80373776 0.3939951 0.15618873
0.82486975 0.38671875 0.16024816
0.8443321 0.38918507 0.16786152
0.8656939 0.38933057 0.17464767
0.8944547 0.38952208 0.18514094
0.9186275 0.39534315 0.19644609
0.93799025 0.3879902 0.20612746
0.95181525 0.39289218 0.21426162
0.97205883 0.39436275 0.22303921
0.00012254903 0.40906864 0.03541667
0.008957568 0.41607693 0.036240045
0.021913297 0.40985754 0.042302392
0.040127147 0.41281402 0.04031863
0.068428315 0.41303614 0.043137256
0.09852941 0.41661686 0.039575674
0.14584866 0.4184513 0.037814032
0.19820388 0.41437653 0.03950291
0.2478554 0.4189032 0.042401962
0.30169654 0.41731772 0.0498966
0.35012257 0.41310507 0.04742647
0.39644608 0.41275275 0.07059207
0.42470896 0.41395527 0.07023591
0.46894148 0.42156863 0.06940487
0.5036765 0.4209942 0.080798104
0.54119945 0.41448376 0.08627451
0.5724265 0.4166667 0.09221814
0.60154337 0.41673943 0.10274586
0.6320619 0.4141774 0.11135876
0.66762024 0.41605392 0.11691177
0.6953125 0.41680455 0.12463236
0.7098001 0.42058825 0.12585019
0.75441945 0.41299784 0.14179689
0.78078663 0.41487437 0.1504519
0.8036765 0.42257968 0.15796569
0.81641775 0.41711473 0.16523437
0.8460938 0.42030486 0.17788756
0.8673445 0.41839 0.18456648
0.8883885 0.41796875 0.19195771
0.91673565 0.4180492 0.20733379
0.9351486 0.42328432 0.21801472
0.9517042 0.421201 0.21615347
0.9688726 0.4207108 0.21973039
0.003921569 0.4519608 0.039215688
0.010156251 0.45445776 0.04246324
0.02478554 0.45361522 0.0408701
0.038694855 0.45010722 0.04221814
0.061887257 0.45686275 0.043995097
0.09420957 0.4574755 0.044607844
0.1460478 0.45539218 0.04846814
0.19773284 0.4586091 0.04954044
0.24191177 0.4617647 0.05147059
0.29655334 0.45398286 0.0553462
0.34672183 0.45291054 0.05358456
0.38553917 0.44877452 0.07169118
0.41599265 0.45674023 0.0754902
0.474326 0.4599571 0.0754902
0.5041973 0.46041664 0.07931985
0.53861827 0.45477945 0.087346815
0.57009804 0.452451 0.09436275
0.6044884 0.45419732 0.10428922
0.6311275 0.4557292 0.11397059
0.6665135 0.45856312 0.12071078
0.7014706 0.45674023 0.1288603
0.7220129 0.4592218 0.13750002
0.75367653 0.4565564 0.1467831
0.7810969 0.45870098 0.15742955
0.7973039 0.45808825 0.1622549
0.8272212 0.46516544 0.17751226
0.8477022 0.4615196 0.18458946
0.8654412 0.45801166 0.19237132
0.89178926 0.4629902 0.20079657
0.91859686 0.46138173 0.20709252
0.93823534 0.46568626 0.21510416
0.9585019 0.46315867 0.21977636
0.9759804 0.45882353 0.22500001
0.0030637258 0.4922794 0.043504905
0.016134346 0.48791358 0.04600184
0.02365962 0.4888404 0.05470282
0.042153034 0.4915518 0.05661382
0.05942096 0.49492955 0.051393997
0.09147519 0.49607843 0.055759806
0.14411765 0.4939951 0.056242343
0.18585709 0.5005898 0.05975414
0.23719364 0.49779415 0.06305148
0.29062885 0.4982958 0.06505056
0.34709713 0.5008425 0.07186735
0.38897058 0.4942402 0.079438575
0.41792277 0.5011336 0.084068626
0.46893767 0.4959061 0.084443934
0.50725335 0.49676776 0.089882046
0.5411114 0.49938726 0.09640778
0.57824755 0.49662992 0.097794116
0.6070887 0.49590993 0.10616575
0.6337546 0.4960478 0.11536459
0.6659237 0.49754137 0.122238815
0.69750303 0.5005974 0.13282782
0.7243719 0.49884346 0.14178923
0.7468137 0.5007889 0.15343139
0.7773169 0.49730393 0.16179918
0.8054534 0.4949755 0.16847427
0.8232805 0.49926472 0.17732461
0.8522059 0.5004979 0.18946844
0.8652535 0.5011183 0.19261259
0.8850337 0.5023438 0.19929534
0.91714925 0.4996362 0.21116729
0.9389323 0.50375307 0.22180606
0.9570274 0.49857154 0.22586168
0.97340685 0.4939951 0.23529413
0.0012254902 0.5235294 0.061274514
0.01630668 0.5295037 0.06530331
0.02377451 0.5245711 0.06351104
0.03566177 0.5297335 0.06000307
0.058118876 0.53069854 0.0580576
0.09285387 0.5328049 0.061274514
0.14151348 0.5306832 0.0634804
0.18660386 0.5327206 0.06873469
0.23014708 0.53700984 0.07224265
0.2869332 0.5379902 0.07630974
0.33717832 0.53431374 0.07948836
0.3865579 0.5303539 0.08386183
0.41639093 0.5357537 0.09249388
0.4659314 0.529856 0.09340533
0.5056832 0.53406864 0.10094976
0.53668815 0.5329734 0.102956496
0.57120097 0.5300245 0.1069853
0.59741884 0.5334789 0.11363359
0.63134193 0.53036153 0.12501532
0.6700215 0.53166366 0.1331342
0.6922181 0.5349878 0.14117648
0.712883 0.537906 0.14856772
0.74566483 0.5342218 0.15588236
0.77683824 0.5359069 0.16492036
0.8039216 0.5332721 0.17598039
0.8223422 0.5362209 0.18312654
0.8441636 0.5379902 0.18897058
0.8699449 0.5344746 0.19676778
0.8953738 0.53474265 0.20297182
0.9174556 0.5376456 0.21829043
0.93897057 0.53898597 0.22552083
0.9593061 0.5356618 0.23442097
0.9752451 0.53137255 0.23651962
0.003921569 0.55625004 0.06666667
0.013166361 0.5602405 0.06585096
0.021675859 0.56106776 0.06509651
0.03525582 0.56197155 0.06474801
0.055009194 0.5636949 0.0659467
0.087331496 0.5664331 0.07059973
0.13279718 0.56507355 0.07365197
0.18536688 0.5638404 0.07641315
0.2354473 0.5682292 0.08394608
0.2873545 0.56826365 0.08699831
0.33909315 0.5628447 0.08713236
0.38125 0.56348044 0.09127221
0.414905 0.5670803 0.098146446
0.4718712 0.5660348 0.10147059
0.5046722 0.56727946 0.10993413
0.53322995 0.56792665 0.1108724
0.5701594 0.56648284 0.11770834
0.5955193 0.565985 0.120396756
0.63334864 0.56458336 0.13619027
0.6660156 0.5621132 0.1435049
0.68858767 0.56583947 0.15036765
0.7175284 0.5695083 0.15514706
0.74343604 0.5629902 0.15838696
0.78037304 0.56997937 0.17046952
0.8011336 0.568413 0.17377451
0.8224341 0.56851256 0.18370098
0.847258 0.5678156 0.19554994
0.8695734 0.5675245 0.20372243
0.89287686 0.5656863 0.21115196
0.91413903 0.5685049 0.22087546
0.9338771 0.5740886 0.22731312
0.9514706 0.56868106 0.23607154
0.9709559 0.5656863 0.24080881
0.0058823535 0.59803927 0.07254902
0.011090687 0.60159314 0.07273285
0.025367647 0.59877455 0.074877456
0.037193626 0.60085785 0.07647059
0.05441177 0.59950984 0.07647059
0.08137255 0.603799 0.07830883
0.12561275 0.6025735 0.083700985
0.184375 0.5987133 0.084987745
0.22892156 0.60245097 0.087254904
0.2786152 0.6039216 0.09485294
0.33406866 0.6002451 0.09607843
0.38321078 0.60202205 0.09620099
0.41617647 0.6034314 0.10073529
0.46678922 0.60085785 0.10845588
0.49926472 0.60330886 0.11764707
0.535478 0.6043505 0.1192402
0.5686275 0.6039216 0.12450981
0.60061276 0.6034927 0.13210785
0.6346814 0.60318625 0.13933824
0.6634804 0.6019608 0.14270833
0.6960784 0.6002451 0.15343139
0.7170956 0.6056986 0.15680148
0.7432599 0.59828436 0.15968138
0.7778799 0.6019608 0.17377451
0.8009804 0.60245097 0.18333334
0.8231005 0.6025735 0.19417892
0.842402 0.6025735 0.20147058
0.86464465 0.603799 0.20588236
0.88700986 0.6019608 0.20955883
0.9147059 0.60337013 0.2202206
0.93468136 0.61029416 0.22671568
0.9514706 0.6046569 0.23633578
0.9725491 0.6039216 0.24313726
0.007843138 0.63750005 0.083088234
0.013017003 0.6406174 0.08405331
0.025857843 0.6341529 0.08655025
0.034765627 0.6393804 0.08819317
0.052650124 0.63823533 0.086994484
0.078251384 0.63898206 0.08710938
0.12585019 0.6354167 0.09083946
0.17807138 0.6304573 0.08810509
0.21832108 0.6325981 0.09463848
0.2675475 0.6368873 0.097905174
0.32453278 0.63750005 0.104587935
0.38277036 0.6336512 0.096763946
0.41337317 0.63570774 0.1073989
0.4632353 0.6351716 0.11493184
0.49865964 0.63700986 0.123031564
0.5386719 0.6356082 0.12717143
0.5717525 0.6355393 0.13363971
0.603014 0.6345244 0.13785234
0.6315028 0.6356771 0.14365043
0.6658931 0.64078975 0.15253523
0.7003676 0.63465077 0.16202512
0.7210287 0.6373775 0.16762409
0.73828125 0.64041823 0.17450982
0.76985675 0.63823533 0.18297334
0.8019914 0.63823533 0.19114582
0.82464004 0.63743496 0.19927236
0.84860605 0.6366039 0.20710018
0.86982995 0.63665366 0.21284467
0.8887102 0.6373622 0.2134957
0.9162186 0.63656175 0.22422259
0.935049 0.6403876 0.23455882
0.95358074 0.64208794 0.23747319
0.97414213 0.6421569 0.24313726
0.0024509807 0.6659314 0.097058825
0.012362133 0.66436887 0.09791666
0.019883579 0.6631588 0.0948223
0.031035539 0.662523 0.096055456
0.044699755 0.6654718 0.09522059
0.0710478 0.6646293 0.0962546
0.11597733 0.6619026 0.093964465
0.16165748 0.6612056 0.09643076
0.2127451 0.66170347 0.103063725
0.27235752 0.66304386 0.10589767
0.32639402 0.6632353 0.10957415
0.37834713 0.6621324 0.10902267
0.40539217 0.6659314 0.11651348
0.4606158 0.6656097 0.12627146
0.49638483 0.66492033 0.12941177
0.529879 0.6648361 0.13310356
0.5671569 0.6626226 0.1392157
0.59817713 0.66200984 0.14634652
0.6267157 0.66470593 0.1542739
0.66409314 0.6678462 0.1620864
0.6945466 0.6651654 0.1645527
0.7208257 0.66066945 0.17491576
0.7406863 0.6659467 0.17818628
0.77415746 0.66901046 0.1869945
0.80134803 0.66648287 0.19785538
0.82516086 0.6721278 0.2067785
0.8473039 0.6677849 0.20876226
0.8657629 0.6660999 0.21373315
0.8883578 0.66770834 0.21905637
0.9154871 0.66627604 0.22847733
0.9345435 0.6691177 0.23774509
0.95258117 0.6709636 0.241659
0.9671569 0.66838235 0.24583334
0.0030637258 0.6990196 0.10502451
0.009643076 0.6954656 0.10494409
0.020955883 0.6992724 0.105315566
0.03272059 0.69888556 0.10919118
0.045389093 0.6965686 0.10701593
0.06503523 0.6996515 0.11015625
0.09828431 0.6974035 0.109053314
0.15294501 0.69308746 0.109509036
0.19972427 0.69433206 0.10949755
0.26573223 0.69251305 0.11483993
0.32608762 0.69490653 0.12454811
0.37411535 0.6953163 0.123134956
0.4029412 0.70093447 0.13060664
0.45736063 0.6933747 0.13620941
0.4906403 0.69440866 0.13887103
0.525226 0.6937883 0.14195007
0.56164217 0.695098 0.1514706
0.59834945 0.69327897 0.15837164
0.6210861 0.6968367 0.16024816
0.65607005 0.70141315 0.16624157
0.69309133 0.6994026 0.17849265
0.7178386 0.69735754 0.18251762
0.7400735 0.69501376 0.18615197
0.77411914 0.69396067 0.19486444
0.80272675 0.6957414 0.20382966
0.8223269 0.69872475 0.21156557
0.84473807 0.7009497 0.21971507
0.866682 0.6988817 0.22570083
0.89310664 0.69819236 0.22901349
0.9136106 0.6968176 0.23309208
0.9362286 0.7016314 0.23831955
0.95175785 0.7001647 0.24832262
0.97083336 0.70208335 0.25625002
0.00049019605 0.7230392 0.11617648
0.008946079 0.7260263 0.11649817
0.02052696 0.72656244 0.118504904
0.028645834 0.7257199 0.1145527
0.04656863 0.7240196 0.116666675
0.0659467 0.72348344 0.117126234
0.09828432 0.71761644 0.1170956
0.14224878 0.71761644 0.11473652
0.20208333 0.71642154 0.12107844
0.25693935 0.71527267 0.12435663
0.3156863 0.72530633 0.13232231
0.37339154 0.7192555 0.13249081
0.40594363 0.72334564 0.13768384
0.45923716 0.72216606 0.1449755
0.4986826 0.72239584 0.15125614
0.53452826 0.71946996 0.16012563
0.5710785 0.71911764 0.16519609
0.5956955 0.722258 0.16560969
0.62371325 0.72273284 0.16657476
0.66178006 0.72610295 0.17377451
0.69148284 0.7235294 0.18321079
0.7169271 0.7230392 0.190962
0.7426471 0.7225184 0.1985907
0.7748162 0.7215993 0.20127144
0.7943628 0.7199755 0.2134804
0.81776965 0.72389704 0.21971507
0.8454351 0.726685 0.21960783
0.8672182 0.724617 0.22610295
0.8898897 0.7228554 0.23223041
0.91720283 0.72515315 0.24255516
0.92968756 0.72398895 0.24598652
0.9570925 0.72930455 0.25052086
0.9691177 0.73039216 0.25539216
0.0037990198 0.74828434 0.12144608
0.01238894 0.7552926 0.12869947
0.02176777 0.74911916 0.12674633
0.035539217 0.75217146 0.1316866
0.04846814 0.7507047 0.12904413
0.060359225 0.7500728 0.12904413
0.09283854 0.7454811 0.12904413
0.15315565 0.74301475 0.1339499
0.19724265 0.74427086 0.13394609
0.24721968 0.7442402 0.13308825
0.30305606 0.75170803 0.13687961
0.35832953 0.74460405 0.14497167
0.39640012 0.75208336 0.15200675
0.45706576 0.75208336 0.15141699
0.49097732 0.75089616 0.16053157
0.5274778 0.7497281 0.16237746
0.564951 0.7462623 0.16856618
0.59747624 0.74745333 0.17460938
0.6228401 0.7494715 0.1761872
0.65610063 0.7543161 0.18235295
0.69022673 0.74592525 0.18760723
0.7169118 0.7518459 0.1993911
0.72794116 0.7518459 0.20427391
0.7633655 0.7482652 0.2120481
0.79883575 0.7500919 0.21565562
0.81858534 0.7546186 0.21845894
0.84606314 0.75054383 0.22505362
0.86941254 0.7463235 0.23143001
0.8944394 0.7468597 0.23995098
0.91610754 0.751103 0.2431564
0.9341376 0.7490196 0.25869334
0.95855546 0.7485064 0.25548023
0.96482843 0.75232846 0.258701
0.004166667 0.76642156 0.14240196
0.010294119 0.7693857 0.14482996
0.032306988 0.7631893 0.13818935
0.040739894 0.7662454 0.14352022
0.057781864 0.7677083 0.15098038
0.06448377 0.7684742 0.1498698
0.08589155 0.76884186 0.14817709
0.12776501 0.7727558 0.15225185
