assets/luts/LUTs/LEICA/LEICA BLU.cube
#Generated by PennL1 - 闲鱼号：LOOK胶片感 公众号：胶片感
TITLE LEICA BLU
LUT_3D_SIZE 9
0.023529412 0.015686275 0.02745098
0.066176474 0.080882356 0.09901961
0.13725491 0.15686275 0.18039216
0.21764705 0.24509804 0.2764706
0.29411766 0.32156864 0.35294116
0.38137254 0.40882352 0.4401961
0.45588237 0.4911765 0.5264706
0.5406863 0.5759804 0.61127454
0.62352943 0.654902 0.69803923
0.052941177 0.064705886 0.08431373
0.098406866 0.11801471 0.1384804
0.16691177 0.18541667 0.21225491
0.24442402 0.27187502 0.30324757
0.32107845 0.34852943 0.37990198
0.40569854 0.43743873 0.47389704
0.48406863 0.51936275 0.5546569
0.56685054 0.6030637 0.6383579
0.64607847 0.677451 0.72058827
0.11862745 0.13725491 0.1637255
0.15968138 0.1814951 0.20723039
0.2002451 0.22769609 0.25906864
0.27205884 0.29950982 0.33088237
0.352451 0.38284314 0.41274512
0.43088236 0.4661765 0.49877453
0.5156863 0.55098045 0.5862745
0.5935049 0.6258579 0.6670343
0.67156863 0.71372557 0.7519608
0.17892158 0.20637256 0.2377451
0.22254902 0.25 0.28137255
0.26960787 0.29705885 0.3284314
0.31807598 0.3463848 0.37732843
0.39411765 0.42549017 0.45833334
0.47395834 0.5092524 0.5445466
0.5569853 0.59105396 0.628799
0.63069856 0.665625 0.7069853
0.70686275 0.74607843 0.7852941
0.25686276 0.28431374 0.3156863
0.2990196 0.32647058 0.35784313
0.3421569 0.36960787 0.40098038
0.38602942 0.41740197 0.44730392
0.43921572 0.47450978 0.50980395
0.517402 0.5526961 0.5879902
0.59362745 0.6259804 0.6686275
0.67254907 0.7137255 0.7450981
0.7490196 0.7882353 0.83137256
0.33529413 0.36274508 0.39411765
0.37322304 0.40790442 0.43566176
0.41568628 0.44313726 0.48235294
0.46176472 0.49620098 0.5259192
0.50759804 0.5428922 0.5781863
0.5560662 0.59136033 0.62665445
0.6328432 0.6669118 0.7104167
0.7120098 0.7495711 0.7897672
0.7911765 0.8303922 0.877451
0.40392157 0.43333334 0.46960783
0.44313723 0.4784314 0.51250005
0.48578432 0.52181375 0.55710787
0.5310049 0.56531864 0.6025735
0.5794118 0.6132353 0.652451
0.6286765 0.6625 0.70441175
0.6813726 0.72058827 0.75980395
0.7583333 0.797549 0.84387255
0.8215686 0.8686275 0.91568625
0.47892156 0.5142157 0.5495098
0.52346814 0.5587623 0.59405637
0.5651961 0.59950984 0.6367647
0.60876226 0.6428922 0.68143386
0.654902 0.6926471 0.73259807
0.704902 0.73921573 0.7814951
0.75245094 0.7916666 0.8387255
0.8023897 0.8416054 0.88866425
0.86764705 0.9147059 0.96960783
0.5529412 0.5882353 0.62352943
0.5897059 0.6264706 0.66176474
0.63725495 0.6686275 0.71176475
0.67990196 0.71813726 0.75784314
0.72352946 0.76274514 0.80588233
0.77500004 0.8142157 0.8602941
0.81470585 0.8598039 0.90686274
0.8637255 0.9107843 0.9656863
0.9137255 0.9529412 1.0
0.037254903 0.03382353 0.04901961
0.07438726 0.086151965 0.10575981
0.14730392 0.16580883 0.19264705
0.22077206 0.24822304 0.27959558
0.3022059 0.32965687 0.36102945
0.38553923 0.41556373 0.4456495
0.4660539 0.501348 0.5366422
0.54852945 0.58229166 0.6206495
0.62892157 0.6651961 0.7058824
0.069178924 0.08094363 0.10349265
0.10363051 0.123238355 0.14676778
0.17593443 0.1940717 0.22201288
0.24474573 0.2721967 0.30356926
0.32693017 0.35438114 0.3857537
0.4084023 0.4417203 0.4741728
0.48972118 0.52501535 0.56030947
0.5731082 0.6089768 0.64427084
0.6518995 0.68621325 0.72787994
0.13259804 0.15220588 0.1757353
0.1653033 0.18293504 0.21321997
0.20606618 0.23351714 0.26488972
0.27838543 0.3058364 0.33720896
0.35753676 0.38498777 0.41636032
0.43812805 0.46959254 0.50609684
0.5196998 0.55499387 0.59028804
0.59909624 0.63085175 0.6732231
0.68100494 0.7202206 0.7594363
0.1958946 0.22334558 0.25471815
0.23039216 0.25784314 0.28921568
0.27420345 0.30165443 0.33302698
0.32306984 0.3505974 0.38568473
0.4019608 0.4322304 0.46348038
0.47890624 0.5142004 0.54949445
0.56086093 0.59454656 0.6330576
0.6371936 0.67579657 0.7153186
0.71519613 0.75441176 0.79362744
0.27328432 0.3007353 0.33210784
0.3039522 0.33140317 0.36332723
0.34785542 0.37591913 0.40992647
0.39485297 0.4242647 0.46023285
0.44424018 0.47806373 0.5121324
0.52043504 0.55572915 0.59102327
0.6009804 0.6348652 0.6729779
0.67665446 0.7119485 0.7531251
0.75122553 0.7904412 0.83210784
0.34479168 0.37481618 0.40490198
0.37935814 0.40938267 0.43946844
0.42181373 0.452451 0.48259804
0.46621478 0.5015089 0.53305
0.5109376 0.547304 0.5825981
0.5640549 0.5974724 0.6365197
0.6429688 0.6764247 0.71861213
0.71639866 0.752903 0.800337
0.79295343 0.8321692 0.87922794
0.41764706 0.4507353 0.4834559
0.45147058 0.4867647 0.52205884
0.49215686 0.527451 0.56274515
0.5361213 0.5711397 0.6069853
0.58327204 0.6194853 0.6584559
0.63345593 0.6724265 0.71176475
0.6856924 0.7249081 0.7641238
0.7642923 0.803508 0.8505668
0.8269608 0.8740196 0.92524505
0.4945466 0.5298407 0.5651348
0.52585787 0.56094515 0.59665287
0.5697917 0.60582113 0.6419424
0.61268383 0.64620864 0.6865809
0.65867037 0.6973346 0.7398284
0.7109605 0.7455193 0.7874311
0.7587163 0.79793197 0.84388787
0.80420494 0.8464843 0.89285386
0.8719363 0.9219363 0.97536767
0.5661765 0.59901965 0.6392157
0.59564954 0.63431376 0.6696079
0.6387255 0.67009807 0.7169118
0.6802083 0.7188113 0.76262254
0.7289216 0.7681373 0.80735296
0.77879906 0.81801474 0.86507356
0.8172794 0.8643382 0.9126226
0.8637255 0.9107843 0.9656863
0.92156863 0.9558824 1.0
0.04019608 0.051960785 0.07156863
0.094240196 0.11384804 0.13737746
0.15490197 0.17450981 0.19803922
0.23063725 0.25808823 0.28946078
0.30539218 0.33284315 0.3642157
0.3884804 0.41666666 0.44938728
0.47083336 0.5061275 0.5414216
0.55379903 0.58725494 0.6262255
0.6303922 0.6696079 0.70882356
0.089705884 0.104411766 0.13039216
0.12452513 0.14413297 0.16766238
0.1827206 0.20260416 0.2348652
0.25594363 0.2833946 0.31476715
0.33425248 0.36170346 0.39417893
0.4160386 0.44787073 0.47794116
0.49577206 0.53106624 0.5663603
0.58069855 0.61243874 0.6548407
0.65428925 0.6935049 0.7327206
0.15269609 0.17230393 0.19583334
0.17855392 0.19901961 0.2307598
0.21164215 0.23909314 0.27156866
0.2823223 0.30977327 0.3411458
0.36519608 0.39338237 0.42438725
0.44090074 0.47619486 0.5114277
0.52493876 0.5602329 0.595527
0.60557604 0.6372243 0.67981005
0.6894608 0.7227942 0.764951
0.2127451 0.24019608 0.27156866
0.24381128 0.271538 0.30277267
0.2798407 0.3072917 0.33866423
0.33120406 0.35908395 0.39024204
0.4079657 0.43811277 0.47205883
0.48491114 0.52020526 0.5554994
0.5658089 0.5990503 0.6384498
0.6463695 0.6783548 0.7211856
0.722549 0.7617647 0.8009804
0.28725493 0.3147059 0.34607846
0.31875002 0.346201 0.3805147
0.35355395 0.3839461 0.41409314
0.39822304 0.43118873 0.46164215
0.45147055 0.4867647 0.52009803
0.52542895 0.56072307 0.5960172
0.6039216 0.63750005 0.6795343
0.6841912 0.7227942 0.7623162
0.7588235 0.7980392 0.84411764
0.36642158 0.39387256 0.4254902
0.39477637 0.4241881 0.45458025
0.4274816 0.46204045 0.49617037
0.46789217 0.50575984 0.541054
0.51789224 0.55189955 0.5897672
0.5715993 0.60539216 0.6436888
0.643076 0.68149513 0.72117037
0.72314644 0.7623621 0.80157787
0.8020834 0.84129906 0.8883578
0.4343137 0.46960783 0.504902
0.46678922 0.50208336 0.532598
0.49975497 0.535049 0.5703432
0.5446078 0.57987136 0.6152267
0.58982843 0.6267157 0.66470593
0.6429841 0.67656255 0.7185968
0.69099265 0.73020834 0.769424
0.7710172 0.8102329 0.85563725
0.8357843 0.8806373 0.9318628
0.5106618 0.5459559 0.58125
0.53970593 0.57541364 0.61070776
0.57490814 0.60818017 0.6484375
0.62026656 0.65522367 0.69656867
0.66403186 0.70324755 0.74307597
0.71326596 0.75128675 0.7911152
0.7638787 0.8030944 0.8479473
0.80897677 0.85447305 0.90153193
0.8779412 0.9272059 0.9810049
0.5833334 0.6147059 0.6578432
0.61151963 0.6450981 0.68713236
0.64142156 0.6791667 0.7191177
0.6886029 0.72610295 0.77132356
0.7348039 0.7740196 0.82009804
0.7828432 0.8220588 0.8691177
0.82328427 0.87034315 0.9174019
0.8715687 0.91862744 0.97352946
0.9284314 0.9627451 1.0
0.055882353 0.06764706 0.087254904
0.11691177 0.13651961 0.16004902
0.1754902 0.19313726 0.2254902
0.23131128 0.25876224 0.2901348
0.3169118 0.3443628 0.37573528
0.3944853 0.42977938 0.45723036
0.47855392 0.51384807 0.5491422
0.5637868 0.5990809 0.63437504
0.6397059 0.67107844 0.71421576
0.111580886 0.13118874 0.15471815
0.14840686 0.1680147 0.19154412
0.19834559 0.22579658 0.25716913
0.2599265 0.28737748 0.31875002
0.3422488 0.37184435 0.40428922
0.4227941 0.45710784 0.49289218
0.5001838 0.53547794 0.57077205
0.58490354 0.61885726 0.6568321
0.6599265 0.69914216 0.73835784
0.17328432 0.19105391 0.22303921
0.19598651 0.22343749 0.25481004
0.23097427 0.25860906 0.2898897
0.29180455 0.31925553 0.35062808
0.37193626 0.3995098 0.43082106
0.451057 0.4863511 0.52164525
0.5277574 0.56305146 0.59834564
0.6098039 0.646875 0.6863358
0.6875 0.7344363 0.77107847
0.23131128 0.25876224 0.2901348
0.2643995 0.29185048 0.3235447
0.2967065 0.32415748 0.35562193
0.34155178 0.36900273 0.4003753
0.4130515 0.44485292 0.47545958
0.49281555 0.52810967 0.5634038
0.56809133 0.6033854 0.638894
0.64916515 0.68686426 0.7268382
0.72653186 0.76574755 0.80496323
0.30637255 0.33382353 0.36519608
0.3366115 0.36436886 0.39558822
0.36942402 0.40067402 0.43014705
0.40606618 0.4370098 0.468413
0.4542892 0.4904412 0.5257353
0.5330882 0.5683824 0.60367644
0.6117647 0.6444241 0.6865809
0.6879902 0.7272059 0.76642156
0.76691175 0.8061274 0.85269606
0.38278186 0.41109067 0.44803923
0.4071691 0.43785232 0.47221968
0.4458793 0.47666973 0.5134804
0.47874537 0.51366425 0.54970896
0.52273285 0.55952823 0.59482235
0.5748162 0.6123622 0.6484069
0.64656866 0.6849265 0.7245711
0.7284544 0.7676701 0.8077436
0.8064952 0.84656864 0.89362746
0.45453432 0.48982844 0.5251226
0.4832261 0.5181526 0.554182
0.5161765 0.55110294 0.5871324
0.5512561 0.58564645 0.62274814
0.5964461 0.63210785 0.6707721
0.64344364 0.68201596 0.7215533
0.6991115 0.73318017 0.77496934
0.77576596 0.8149816 0.85882354
0.84375 0.8819853 0.9398284
0.53241426 0.5677084 0.6030025
0.55632657 0.5892387 0.62943476
0.5895834 0.62670034 0.66234684
0.6253983 0.65753675 0.70029104
0.67166054 0.70940566 0.7493566
0.723269 0.7599111 0.80448836
0.76928616 0.8085018 0.85363054
0.8119409 0.8588618 0.9059206
0.8838235 0.93088233 0.9857843
0.6004902 0.6387255 0.675
0.6284314 0.6666667 0.70637256
0.6609069 0.70012254 0.7444853
0.6897059 0.7378064 0.7749387
0.7394608 0.7786765 0.8218137
0.79025733 0.829473 0.87653184
0.82928926 0.8763481 0.92512256
0.8754902 0.922549 0.97745097
0.93333334 0.9686275 1.0
0.08039216 0.09607843 0.11764707
0.1384804 0.15808824 0.18161765
0.19509804 0.21519607 0.24901962
0.25661767 0.28406864 0.3154412
0.32254905 0.35000002 0.38137257
0.4031863 0.435049 0.46764708
0.47843134 0.5137255 0.54901963
0.56960785 0.6036765 0.64142156
0.6431373 0.68235296 0.72156864
0.13382354 0.15343139 0.1769608
0.17193627 0.18838848 0.2213848
0.22040442 0.2478554 0.27922797
0.2838542 0.31130517 0.3426777
0.34914216 0.37732843 0.40833333
0.42821693 0.46253064 0.49653798
0.50778186 0.543076 0.5783701
0.5921569 0.62699145 0.66375613
0.6688726 0.7080883 0.74730396
0.18872549 0.21470588 0.24656862
0.22052696 0.24797794 0.2793505
0.25539216 0.28504902 0.31531864
0.3098039 0.3372549 0.36862743
0.37720588 0.40661764 0.4389706
0.45625 0.49172795 0.5268996
0.53700984 0.5723039 0.60759807
0.615625 0.6527574 0.6919731
0.6990196 0.7352941 0.7759804
0.25343138 0.28088236 0.3122549
0.2881434 0.31559438 0.34696692
0.32156864 0.34901962 0.38296568
0.36133578 0.38927698 0.4204044
0.42009807 0.45171568 0.48664218
0.49905026 0.5343444 0.5696385
0.58033085 0.6134804 0.6531863
0.65652573 0.6923101 0.73324144
0.73259807 0.77181375 0.81102943
0.32352942 0.3509804 0.38235295
0.3555147 0.38492647 0.4165441
0.39019608 0.41813725 0.45122552
0.42181373 0.45539215 0.48933822
0.46470588 0.49901962 0.5338236
0.5375 0.5719363 0.6089461
0.61838233 0.65294117 0.6933824
0.69375 0.73100495 0.771201
0.7745098 0.81372553 0.85882354
0.39828432 0.42965683 0.4664216
0.4282475 0.46090686 0.4953738
0.4549632 0.49246323 0.5270834
0.49445468 0.5297488 0.5650429
0.5324756 0.56776965 0.6030638
0.5839155 0.6174633 0.65625006
0.65539217 0.69460785 0.73468137
0.734375 0.7735907 0.81280637
0.8090687 0.8517157 0.89877456
0.46862745 0.5039216 0.5392157
0.5023897 0.53768384 0.57297796
0.53333336 0.5686275 0.6039216
0.5677084 0.60159314 0.6405637
0.6039216 0.6392157 0.67965686
0.6523285 0.691054 0.7305147
0.70477945 0.74399513 0.7834559
0.78278184 0.8219975 0.86905634
0.84460783 0.89166665 0.94460785
0.54632354 0.5803922 0.61813724
0.57699144 0.61109066 0.6503064
0.608027 0.64234066 0.6832721
0.64059436 0.6796262 0.7210784
0.67941177 0.7166667 0.7595588
0.72840077 0.7672488 0.8089461
0.7764706 0.8156862 0.86274517
0.8173101 0.8643689 0.9129596
0.89362746 0.93480396 0.99289215
0.61372554 0.6529412 0.6921569
0.64460784 0.6813725 0.7218137
0.677451 0.7166667 0.7588236
0.7110294 0.7502451 0.79338235
0.74509805 0.79019606 0.8313725
0.79656863 0.8357843 0.88284314
0.8382353 0.8808824 0.9343137
0.8833333 0.92671573 0.9828431
0.9372549 0.972549 1.0
0.09754902 0.11715687 0.14068627
0.16335784 0.18296568 0.20649509
0.21911764 0.24656862 0.2779412
0.27990198 0.30735296 0.3387255
0.34264708 0.37009805 0.4014706
0.4071691 0.44148284 0.4754289
0.4884804 0.5237745 0.5590687
0.5734069 0.60741425 0.6452819
0.6504902 0.68284315 0.7254902
0.15490197 0.17432599 0.19840685
0.18984374 0.20994179 0.24376532
0.24589461 0.27334562 0.30471817
0.30707723 0.3345282 0.36590073
0.36884192 0.3987439 0.43103555
0.43294272 0.4677926 0.5017923
0.5124694 0.5477635 0.58305764
0.5970205 0.6331495 0.67090225
0.6743873 0.713603 0.75281864
0.2115196 0.23860294 0.27009806
0.24229473 0.2697457 0.30121017
0.28026962 0.3077206 0.33909315
0.33595282 0.3634038 0.39477634
0.39724264 0.42824757 0.46078432
0.462163 0.49730396 0.53290445
0.54292285 0.57821697 0.6135111
0.623989 0.65744483 0.6995405
0.70637256 0.7459559 0.785049
0.2764706 0.30392158 0.33529413
0.31029412 0.3377451 0.36919424
0.34569544 0.37323835 0.4054228
0.38633576 0.4146446 0.44558823
0.4465686 0.4814338 0.51351106
0.50238204 0.5376762 0.5729703
0.5862745 0.6178462 0.6604014
0.6652114 0.70442706 0.74364275
0.7387255 0.77794117 0.81715685
0.34632355 0.3737745 0.40514708
0.3767157 0.40778187 0.44077817
0.40998775 0.44344363 0.47242647
0.4460172 0.48045343 0.51617646
0.48737746 0.5226716 0.55796576
0.5452206 0.5805148 0.61580884
0.626777 0.66078436 0.70067406
0.70042896 0.7380515 0.7780637
0.7784314 0.81764704 0.8647059
0.42015934 0.44761032 0.4798407
0.44693625 0.47840074 0.51548713
0.47751227 0.5124847 0.5484222
0.5126302 0.5479243 0.58321846
0.5487133 0.5837623 0.61954665
0.5886719 0.62091 0.6630668
0.6612133 0.701394 0.7405025
0.73864126 0.77785695 0.81891084
0.8082721 0.8553309 0.90238976
0.48762256 0.5229167 0.55821085
0.51991427 0.5552084 0.5905025
0.5538297 0.5888174 0.6247243
0.5840993 0.6201134 0.6572151
0.6213235 0.6566177 0.69779414
0.65739894 0.6965227 0.73578435
0.71001834 0.74923414 0.78844976
0.7869945 0.8262102 0.873269
0.8541667 0.9023285 0.95367646
0.56072307 0.5981618 0.6334559
0.5925781 0.6279182 0.6661688
0.6276042 0.66259193 0.7039216
0.65653336 0.69574904 0.7380744
0.68912375 0.7321998 0.7703432
0.7322074 0.7714231 0.8106388
0.78129596 0.82051164 0.86757046
0.8241882 0.87124693 0.9183058
0.9009804 0.9406863 0.9959559
0.6387255 0.67009807 0.7132354
0.66360295 0.70281863 0.7420344
0.6931373 0.7321079 0.7714461
0.72653186 0.76574755 0.8066789
0.76617646 0.80539215 0.85245097
0.79681367 0.84203434 0.8890931
0.84129906 0.8883579 0.94325984
0.8872549 0.9343138 0.99607843
0.9485294 0.9759804 0.9995098
0.12352942 0.14313726 0.16666667
0.18517157 0.20379902 0.23026961
0.23872548 0.2661765 0.29754904
0.3002451 0.32769608 0.35906866
0.36715686 0.39852944 0.42794117
0.4329657 0.46825984 0.4981618
0.49754906 0.5328432 0.5681373
0.5807598 0.614951 0.652451
0.654902 0.69411767 0.73333335
0.17855392 0.20110294 0.22757353
0.20661765 0.23406863 0.26544118
0.26884192 0.2962929 0.32766545
0.329902 0.3576287 0.38886335
0.39154413 0.4232843 0.45398286
0.4564032 0.4916973 0.5268383
0.5211091 0.5564032 0.59169734
0.60312504 0.6367954 0.67602634
0.68075985 0.71997553 0.7591912
0.23333335 0.26078433 0.29215688
0.2644608 0.29246324 0.32356006
0.30269608 0.33014706 0.3615196
0.35916054 0.38679534 0.41807598
0.41862747 0.45294118 0.48578432
0.48103556 0.51623774 0.55171573
0.5495099 0.58455884 0.6203432
0.6326287 0.6645527 0.70741427
0.71274513 0.7504902 0.79044116
0.3019608 0.32941177 0.36102945
0.33177084 0.35949755 0.3913756
0.37175247 0.39944854 0.43124998
0.40764403 0.43757656 0.46890318
0.4656863 0.5009804 0.53370094
0.52634805 0.56164217 0.5969363
0.5924939 0.6245098 0.6671875
0.67284006 0.71205574 0.7512715
0.7473039 0.7865196 0.8257353
0.37009805 0.39852944 0.42941177
0.40128675 0.42971814 0.4651348
0.43247548 0.46776962 0.49938726
0.46868873 0.50398284 0.53927696
0.5107843 0.54607844 0.58137256
0.56985295 0.60379905 0.6417892
0.6290441 0.6672794 0.7072304
0.7099265 0.746201 0.7868872
0.784804 0.8240196 0.8710785
0.43529412 0.47058827 0.5004902
0.46711093 0.5022212 0.5380668
0.4971814 0.533027 0.5685049
0.53650427 0.5714614 0.6074295
0.5715686 0.6063113 0.6427083
0.610141 0.64269304 0.6844363
0.66890323 0.7087623 0.7477635
0.7492494 0.7884651 0.831633
0.8194853 0.86580884 0.91286767
0.5007353 0.53602946 0.5713235
0.535141 0.5699755 0.6061888
0.5709559 0.603554 0.6447304
0.6023284 0.6395221 0.6771752
0.6389706 0.6752451 0.71666664
0.67524517 0.7144608 0.7536765
0.716728 0.75759804 0.79626226
0.79549634 0.8342525 0.88268995
0.85906863 0.9110294 0.964951
0.5830883 0.6159314 0.65612745
0.6085631 0.6447457 0.6850643
0.64175856 0.6785846 0.7189951
0.6732843 0.7173254 0.7546109
0.7102941 0.7504289 0.78995097
0.7465993 0.78627455 0.8330576
0.78893995 0.82815564 0.87521446
0.8319087 0.8789675 0.9313879
0.91041666 0.9481618 0.99963236
0.6519608 0.6911765 0.7303921
0.68308824 0.720098 0.7626226
0.71225494 0.7509804 0.79044116
0.74191177 0.7862745 0.8333334
0.78137255 0.82058823 0.86764705
0.8112745 0.85833335 0.90539217
0.8477941 0.8948529 0.95171565
0.8979167 0.9449755 0.9971814
0.9568627 0.9735294 1.0
0.14754903 0.16715688 0.19068627
0.1973652 0.22040442 0.25324756
0.26004905 0.28750002 0.31887257
0.32714462 0.3545956 0.38596815
0.39142156 0.41887254 0.45024508
0.453125 0.48841912 0.52371323
0.5200981 0.5553922 0.5906863
0.58927697 0.62212014 0.6623162
0.6602941 0.69656867 0.7372549
0.19454657 0.22199754 0.2533701
0.23216912 0.2596201 0.29099265
0.29005823 0.3175092 0.34888175
0.35532326 0.38300398 0.41522673
0.414614 0.44751838 0.47855392
0.48179382 0.51708794 0.5523821
0.54440874 0.5792433 0.6154565
0.6126532 0.64402574 0.687163
0.6838235 0.7230392 0.7622549
0.25759804 0.28504902 0.31642157
0.28866422 0.3161152 0.34748775
0.32395834 0.35140932 0.38278186
0.3810815 0.41055453 0.44091606
0.44375 0.47830883 0.513603
0.50914526 0.5444393 0.5797335
0.57055765 0.60585177 0.6411459
0.6341912 0.6712929 0.71202517
0.7177696 0.7569853 0.79620093
0.32254902 0.35 0.38137254
0.3574372 0.38488817 0.4164905
0.3873315 0.4190717 0.45219058
0.4286918 0.46023282 0.49686736
0.48897058 0.52426475 0.5595588
0.5526731 0.5876992 0.6235294
0.61560965 0.64790136 0.69057906
0.67519915 0.71441483 0.7536305
0.7529412 0.7921569 0.8317402
0.39436275 0.4232843 0.46029413
0.422549 0.45637256 0.48700982
0.45496324 0.49025735 0.5216299
0.4909314 0.5262255 0.5615196
0.5321079 0.567402 0.6026961
0.5921569 0.62466305 0.6655331
0.64840686 0.68762255 0.72683823
0.71400124 0.7526655 0.7921569
0.79142153 0.8306373 0.8776961
0.4619485 0.49626225 0.5277574
0.48749232 0.5227865 0.5580806
0.52101725 0.55608153 0.59183526
0.5584789 0.5917356 0.63110447
0.5946079 0.6271753 0.66822916
0.6343521 0.66690415 0.7099878
0.69064033 0.7260877 0.76718754
0.7539216 0.79313725 0.84019613
0.825 0.87205887 0.9191176
0.5275736 0.56225497 0.59877455
0.5594823 0.59436274 0.63094366
0.5918505 0.62481624 0.6664522
0.62742037 0.6628983 0.70398283
0.663603 0.7 0.740625
0.70157784 0.73757666 0.7784008
0.7411458 0.7803615 0.824663
0.8023744 0.8428156 0.8898744
0.86495095 0.91200984 0.9634804
0.5984069 0.63069856 0.6719976
0.62767315 0.6632123 0.70426625
0.6593444 0.69856006 0.73915446
0.6971431 0.7316866 0.7763021
0.7296569 0.76969975 0.8110907
0.76702666 0.80624235 0.8518152
0.8033701 0.84197307 0.8908701
0.83525586 0.8823146 0.93427545
0.9150735 0.9542892 0.99644613
0.6691177 0.7083334 0.74754906
0.6976716 0.73578435 0.7773897
0.72990197 0.76911765 0.81323534
0.7658088 0.8050245 0.8520833
0.7973039 0.8389706 0.8860294
0.82861525 0.87567407 0.9227329
0.8632353 0.9102941 0.96813726
0.91023284 0.9485294 0.9952819
0.9568627 0.9764706 1.0
0.16078432 0.18039216 0.20392157
0.21862744 0.24607843 0.27745098
0.28431374 0.31176472 0.34313726
0.34313726 0.37058824 0.4019608
0.40980393 0.44117647 0.4705882
0.46617648 0.5014706 0.53676474
0.5401961 0.57450986 0.6117647
0.60490197 0.6362745 0.67941177
0.6666667 0.7058824 0.74509805
0.21225491 0.23970589 0.27107844
0.2504902 0.27794117 0.3093137
0.31213236 0.33958334 0.37095588
0.37009802 0.3985294 0.42941177
0.43357843 0.4664216 0.50147057
0.50061274 0.5359069 0.571201
0.566299 0.6001226 0.63909316
0.6324142 0.66378677 0.706924
0.6877451 0.7269608 0.76617646
0.28235295 0.30980393 0.34117648
0.3134804 0.3409314 0.37230393
0.35073534 0.37818626 0.40955883
0.4004902 0.43406862 0.46482843
0.46617648 0.5014706 0.53676474
0.5268383 0.5621324 0.59742653
0.597304 0.6289216 0.67156863
0.65857846 0.69411767 0.7363971
0.72352946 0.76274514 0.80196077
0.34362745 0.37107843 0.40245098
0.3771446 0.40557596 0.43645832
0.4117647 0.4392157 0.47058827
0.44699755 0.48229164 0.51158094
0.50759804 0.54289216 0.5781863
0.5716299 0.60649514 0.642647
0.63504905 0.6666667 0.7096814
0.69852936 0.7377451 0.7769608
0.7617647 0.8009804 0.8411765
0.4137255 0.445098 0.4745098
0.44191176 0.4779412 0.51323533
0.47500002 0.51176476 0.54607844
0.51274514 0.54803926 0.5833334
0.5529412 0.58921576 0.6245098
0.612255 0.64730394 0.68823534
0.67352945 0.70882356 0.75
0.7348039 0.7740196 0.8171569
0.7980392 0.8372549 0.8843137
0.48088235 0.5161765 0.55147064
0.51341915 0.5485294 0.5841912
0.54509807 0.58039224 0.6156863
0.579473 0.61390936 0.65091914
0.6159314 0.65122557 0.69044125
0.6563726 0.69546574 0.7347427
0.7176471 0.75686276 0.79607844
0.7769608 0.8161765 0.86262256
0.829902 0.8769608 0.92401963
0.54803926 0.582353 0.61960787
0.58002454 0.61507356 0.65453434
0.6127451 0.64681375 0.6875
0.64460784 0.6838235 0.7230392
0.68235296 0.72058827 0.76029414
0.7209559 0.7601716 0.7993872
0.7656863 0.80490196 0.8519608
0.81433827 0.861397 0.9084559
0.8686274 0.9205882 0.97156864
0.6191177 0.65539217 0.6960784
0.65134805 0.68762255 0.7283088
0.67806375 0.7227942 0.76017153
0.71844363 0.7550858 0.796201
0.7490196 0.78970593 0.8352941
0.7913604 0.830576 0.8776348
0.8207108 0.8677696 0.9167892
0.85723037 0.9073529 0.96072304
0.925 0.95441175 1.0
0.6862745 0.7176471 0.7607843
0.7166667 0.7558824 0.79509807
0.74803925 0.7872549 0.8264706
0.7818628 0.8210784 0.86813724
0.8117647 0.85882354 0.90588236
0.8426471 0.88970584 0.9436275
0.87941176 0.927451 0.9901961
0.9279412 0.9632353 0.99852943
0.9686275 0.972549 0.99215686
