assets/luts/LUTs/LEICA/LEICA ETN.cube
#Generated by PennL1 - 闲鱼号：LOOK胶片感 公众号：胶片感
TITLE LEICA ETN
LUT_3D_SIZE 9
0.003921569 0.0 0.007843138
0.026960786 0.0014705884 0.0053921575
0.1137255 0.0 0.00882353
0.33480394 0.0034313728 0.018627452
0.5666667 0.0019607844 0.009803922
0.7529412 0.01127451 0.02009804
0.89117646 0.003921569 0.010784314
0.98137254 0.0 0.018137256
1.0 0.0 0.015686275
0.0024509805 0.027941179 0.004901961
0.023100492 0.031495098 0.010784314
0.11200981 0.03370098 0.013970589
0.32193628 0.03272059 0.01194853
0.5615196 0.032107845 0.010784315
0.766728 0.031862747 0.01495098
0.8954657 0.030269608 0.0071078436
0.9852941 0.038235296 0.018137256
1.0 0.035784315 0.0053921575
0.0 0.13529412 0.0019607842
0.017769609 0.13933824 0.00036764704
0.11102942 0.13946079 0.0022058827
0.30588236 0.1382353 0.0
0.5666667 0.14852941 0.0009803921
0.76458335 0.14485295 0.0
0.9017157 0.13725491 0.0036764708
0.98088235 0.1259804 0.0018382354
0.9990196 0.13137256 0.0029411768
0.0 0.30539218 0.0034313728
0.010661765 0.31507352 0.01262255
0.09669118 0.321201 0.00012254901
0.28811276 0.31703433 0.0009191177
0.55563724 0.31446078 0.0004901961
0.76139706 0.32487744 0.0
0.89031863 0.34227943 0.0033088238
0.9710172 0.3459559 0.0025735297
1.0 0.3406863 0.0
0.011764706 0.5294118 0.009803922
0.018627452 0.53602946 0.0029411768
0.1 0.53627455 0.0063725496
0.2914216 0.5372549 0.0019607844
0.5480392 0.532353 0.004901961
0.7519608 0.52205884 0.0056372555
0.88529414 0.532353 0.005882353
0.9794117 0.54509807 0.003921569
0.99803925 0.54901963 0.0
0.0 0.7166667 0.0068627456
0.01685049 0.7183211 0.002512255
0.0817402 0.70845586 0.0013480391
0.29736522 0.70968145 0.004044118
0.5401961 0.71102947 0.0019607844
0.7403799 0.7045956 0.0068627456
0.8827206 0.69276965 0.0
0.9816177 0.69620097 0.002144608
0.9995098 0.69509804 0.0068627456
0.003921569 0.83137256 0.00882353
0.025 0.83112746 0.0046568634
0.087500006 0.8272059 0.0029411768
0.27450985 0.83884805 0.0057598045
0.53627455 0.83382356 0.0073529417
0.7240196 0.82990193 0.0066176476
0.8686274 0.8254902 0.008088236
0.97953427 0.80833334 0.0058823535
0.9941176 0.79901963 0.0
0.003921569 0.92990196 0.016666668
0.028308826 0.9353554 0.0
0.100612745 0.93394613 0.0011029413
0.22585784 0.923652 0.00030637256
0.53970593 0.9279412 0.0
0.7251225 0.921875 0.0
0.85808825 0.9267157 0.0
0.9735294 0.92156863 0.0
1.0 0.91029406 0.0
0.0 1.0 0.011764706
0.026470589 1.0 0.0
0.11176471 0.9990196 0.0
0.24558823 1.0 0.0034313728
0.53137255 0.99803925 0.0
0.72156864 0.9995098 0.0
0.84705883 0.9990196 0.0009803922
0.95392156 1.0 0.0
0.9960785 0.9960785 0.0
0.004901961 0.0014705884 0.07647059
0.028002452 0.0 0.08541667
0.12254903 0.0017156864 0.08884804
0.33866423 0.0 0.08909314
0.5769608 0.0 0.09289216
0.76231617 0.004718138 0.07928922
0.89938724 0.0006127451 0.08051471
0.98627454 0.0009191177 0.08658089
1.0 0.0 0.07941177
0.0029411768 0.029595591 0.07481618
0.023981312 0.03373928 0.07677697
0.119669124 0.03573836 0.08221508
0.3207644 0.033088237 0.08210018
0.57521445 0.024479168 0.075
0.7675628 0.020182293 0.07045037
0.9041667 0.022426471 0.06855086
0.9879749 0.030989584 0.0737592
1.0 0.029105393 0.06691177
0.0 0.13958333 0.06397059
0.0171875 0.14085479 0.06026348
0.11063113 0.13817403 0.05894608
0.31444547 0.14048713 0.059114587
0.5717525 0.13866423 0.049877454
0.7669731 0.12774205 0.04770221
0.9082414 0.11390932 0.046966914
0.9845435 0.11196385 0.061780028
0.9977941 0.11066177 0.063357845
0.007904412 0.30330884 0.054656863
0.011274511 0.3146446 0.063733146
0.102159925 0.31732538 0.058455884
0.2983839 0.32079506 0.063702516
0.55606616 0.315625 0.06583946
0.7598958 0.32374385 0.057881437
0.8931832 0.32700676 0.059650738
0.9781786 0.3282169 0.058325678
0.9971201 0.31078434 0.05716912
0.005147059 0.53210783 0.06151961
0.019240195 0.537163 0.0609375
0.07996324 0.54399514 0.053002454
0.2920956 0.5448529 0.05122549
0.54583335 0.53676474 0.05526961
0.75885415 0.5284927 0.053768385
0.89595586 0.536152 0.052083336
0.9776348 0.5480086 0.06341912
0.9987745 0.54656863 0.055637255
0.0033700983 0.7092525 0.065808825
0.01775429 0.7132813 0.055637255
0.061090693 0.7195313 0.047441788
0.28129598 0.7163986 0.04667586
0.5363971 0.71210176 0.04378064
0.7438266 0.7095589 0.048935357
0.89620095 0.7048254 0.050750617
0.97742796 0.6951057 0.060026046
1.0 0.69938725 0.056556374
0.0053921575 0.8247549 0.07818627
0.018550858 0.8285233 0.07215074
0.06773897 0.8388174 0.059221815
0.24545038 0.84538907 0.061243873
0.5380515 0.8395834 0.06231618
0.7335631 0.83707106 0.06155025
0.8795037 0.83388484 0.0598652
0.98259807 0.8098346 0.068627454
0.9981618 0.80196077 0.063725494
0.0 0.9295343 0.075796574
0.017118566 0.9329274 0.06218597
0.073713236 0.9441636 0.049509805
0.1963848 0.93801314 0.04507506
0.53348655 0.9367647 0.04767157
0.72781867 0.9347273 0.04669884
0.8662837 0.9372549 0.049325984
0.9718444 0.9269225 0.057820164
0.9957108 0.91029406 0.05741422
0.0024509805 1.0 0.08676471
0.020588236 0.9990809 0.064522065
0.08357844 1.0 0.05514706
0.20686275 0.9962623 0.05974265
0.502451 0.9931373 0.049509805
0.72457105 0.99754906 0.056556374
0.847549 0.9981618 0.058700982
0.95098037 1.0 0.054473042
0.9960785 0.99852943 0.060784314
0.0068627456 0.0 0.20392157
0.029289218 0.0018382354 0.20759805
0.12107844 0.0068627456 0.2002451
0.34289217 0.0055147065 0.20723039
0.57549024 0.0019607844 0.21911764
0.76017153 0.0037990198 0.22450979
0.89240193 0.0029411768 0.23284313
0.99056375 0.0063725496 0.22647057
1.0 0.0029411768 0.22843136
0.0077205882 0.035906866 0.20416665
0.026547182 0.034359686 0.19679841
0.11672794 0.034221817 0.21056986
0.32784927 0.034175858 0.20579045
0.5746937 0.025306374 0.21378678
0.769087 0.020404411 0.21375611
0.9048407 0.02221201 0.20989582
0.9873009 0.031188726 0.21456802
1.0 0.029411765 0.20049019
0.0 0.1389706 0.18406864
0.013419119 0.13805148 0.17405024
0.107414216 0.1392157 0.18039216
0.3116728 0.14025736 0.18495712
0.57389706 0.13566177 0.1810049
0.76816785 0.11945465 0.17938113
0.90600497 0.10330883 0.1709559
0.98232234 0.098039225 0.17432599
0.9953432 0.09583333 0.17107844
0.0 0.31286764 0.17781863
0.010370711 0.31377146 0.18458946
0.09411765 0.31832108 0.1849571
0.29773283 0.32049632 0.18818933
0.5601716 0.3180147 0.18835784
0.7603401 0.31443015 0.16922489
0.89307594 0.31112134 0.16657476
0.97676164 0.3106005 0.16096814
0.9927696 0.2832108 0.14044118
0.0049019605 0.53431374 0.1769608
0.015870098 0.535049 0.17297795
0.07022059 0.5427697 0.16911766
0.2928309 0.5438113 0.1608456
0.5426471 0.5394608 0.15906863
0.75373775 0.5359682 0.14852943
0.89411765 0.53933823 0.13517156
0.98198533 0.5421569 0.14307597
0.9995098 0.53627455 0.13872549
0.0062500006 0.70392156 0.16678923
0.019316789 0.7100644 0.14653799
0.056004904 0.71988356 0.14442402
0.26216298 0.7166667 0.12774204
0.5398897 0.71004903 0.120955884
0.7453738 0.7093751 0.12345282
0.8907782 0.7016851 0.123560056
0.97328436 0.70125616 0.13656557
0.99914217 0.7035539 0.13272059
0.00024509802 0.830147 0.16004902
0.016329657 0.83125 0.15147059
0.060600493 0.8402574 0.14044118
0.21789216 0.8466299 0.13648899
0.532598 0.8416667 0.14068627
0.73412997 0.8372549 0.13575368
0.8773284 0.8328431 0.13615197
0.984375 0.81188726 0.14273897
1.0 0.80441177 0.1367647
0.0 0.9327206 0.16862746
0.014016544 0.9325368 0.14534314
0.061825983 0.9413297 0.13189338
0.17115504 0.93863356 0.11700368
0.5183824 0.93419117 0.121691175
0.7248928 0.9352175 0.12113971
0.8673407 0.9349265 0.12521446
0.9703891 0.92529106 0.13215381
0.9969363 0.91164213 0.13210785
0.0 1.0 0.18431371
0.01752451 0.9981618 0.15159313
0.064705886 1.0 0.13431373
0.1754902 0.9974265 0.13198529
0.48235294 0.9941177 0.12303922
0.7208333 0.9990196 0.13051471
0.84705883 0.9997549 0.13137256
0.95392156 0.99852943 0.13370098
0.9960785 0.99705887 0.13627452
0.008333334 0.0 0.40637255
0.033210784 0.00018382355 0.40735295
0.1322304 0.0035539218 0.40036765
0.3228554 0.0030024513 0.40392157
0.5794118 0.0017156864 0.3872549
0.75980395 0.0035539218 0.38976714
0.9014706 0.0004901961 0.40502453
0.98762256 0.0012867649 0.4223652
1.0 0.0 0.42941177
0.0062500006 0.037928924 0.38645834
0.028737746 0.03360907 0.39774817
0.13102023 0.029181985 0.40019915
0.32256433 0.03069853 0.40107232
0.58581495 0.026776962 0.3835478
0.77094823 0.026432293 0.38985905
0.9060202 0.022242647 0.4034314
0.9900046 0.027696079 0.41206342
0.99969363 0.030575981 0.41090688
0.0008578431 0.14950982 0.3661765
0.015686275 0.14371936 0.36835173
0.115288 0.14074755 0.36286765
0.3214461 0.13999693 0.37395832
0.57371324 0.13713236 0.36629903
0.7707414 0.12363665 0.3614277
0.90370715 0.100153185 0.36951596
0.98146445 0.09606311 0.3823223
0.99914217 0.09718137 0.37598038
0.0004901961 0.31292892 0.3602941
0.009145221 0.32326135 0.36776194
0.09633885 0.32365197 0.37913603
0.310072 0.3227941 0.37183666
0.55291057 0.3268689 0.37833947
0.7612822 0.31973806 0.36371022
0.89404106 0.29987746 0.36680454
0.9816942 0.29566485 0.35898438
0.9918505 0.2723652 0.34583336
0.0017156864 0.5392157 0.3615196
0.01731005 0.5395833 0.35876226
0.06329657 0.5490809 0.36366424
0.29280028 0.5442709 0.35983455
0.5433824 0.5411765 0.35416666
0.75061274 0.534038 0.3522978
0.8878677 0.53223044 0.3380515
0.9837316 0.529228 0.3402267
0.99803925 0.52500004 0.32794118
0.010416667 0.7066789 0.36893383
0.02211244 0.7095206 0.35518536
0.050291054 0.7213542 0.3526042
0.25893074 0.71102947 0.34481466
0.5373162 0.7112439 0.32643998
0.7410463 0.70326287 0.3265242
0.883992 0.70513177 0.30923712
0.97418046 0.70258886 0.31328127
0.9909926 0.7018995 0.31164217
0.0008578432 0.8319853 0.3810049
0.021951593 0.83066785 0.36260724
0.055422794 0.84500617 0.34442404
0.19109988 0.85035235 0.351731
0.52377456 0.8382354 0.32561275
0.7342831 0.83690256 0.30539218
0.87797177 0.8299326 0.29411766
0.9791667 0.8186581 0.27455577
1.0 0.8063725 0.27487746
0.0 0.93321085 0.3504902
0.014460785 0.92925096 0.32287073
0.057904415 0.94073224 0.296201
0.1545573 0.9370941 0.27411917
0.50021446 0.9293505 0.25925246
0.7263863 0.9374387 0.24594824
0.8631434 0.930913 0.23356311
0.9725261 0.9239737 0.22659312
0.9943015 0.91403186 0.21893384
0.0 1.0 0.34019607
0.014828432 0.999326 0.2879902
0.06544118 0.9974265 0.2661765
0.15655638 0.9995098 0.24025737
0.45539215 0.9938726 0.21078432
0.7143996 0.9998162 0.22787991
0.8449755 0.998652 0.22022058
0.9520833 0.99693626 0.22573529
0.9990196 0.99264705 0.21666667
0.007843138 0.0 0.5921569
0.040441178 0.0014705884 0.59852946
0.14705883 0.0014705884 0.59950984
0.33700982 0.0034313728 0.5887255
0.5686275 0.0019607844 0.58725494
0.7615196 0.0051470594 0.577451
0.892647 0.003921569 0.57205886
0.985049 0.0 0.5813726
1.0 0.0 0.5803922
0.0019607844 0.030637257 0.6012255
0.030912992 0.023529414 0.600337
0.13553923 0.025612745 0.6037991
0.3266238 0.026286766 0.6057292
0.56960785 0.027328433 0.59460783
0.76871943 0.0252451 0.5831802
0.9034926 0.022732845 0.57500005
0.99071693 0.029626226 0.58152574
1.0 0.028921569 0.5882353
0.0 0.15490197 0.58431375
0.02052696 0.15214461 0.5810662
0.1197304 0.14215687 0.58566177
0.31629902 0.13903186 0.5728555
0.56960785 0.13455883 0.564951
0.7696691 0.12015932 0.56464463
0.9052696 0.10085784 0.5617647
0.98174024 0.095159315 0.5629902
0.99558824 0.09754902 0.5666667
0.0017156864 0.31960785 0.5681373
0.008884804 0.32552084 0.5753064
0.102879904 0.32726717 0.5808824
0.31675857 0.32423407 0.5716299
0.5550245 0.32450983 0.5769608
0.759375 0.31449145 0.5645221
0.8964461 0.30398285 0.56464463
0.98042274 0.28700984 0.55634195
0.99289215 0.26078433 0.5529412
0.0049019614 0.53333336 0.5588236
0.018014707 0.5350491 0.55735296
0.0627451 0.5441177 0.5644608
0.28884804 0.5425246 0.5567402
0.54656863 0.5401961 0.5539216
0.74852943 0.53700984 0.5497549
0.8933823 0.53088236 0.5428922
0.9780637 0.5199755 0.53860295
1.0 0.5029412 0.5294118
0.007107843 0.71495104 0.53406864
0.023192402 0.71243876 0.5446079
0.050735295 0.71795344 0.54712015
0.24696693 0.71636033 0.54519
0.5328431 0.70857847 0.5332108
0.73946077 0.71041673 0.5269914
0.88002455 0.70183825 0.5208334
0.97352946 0.70070463 0.5193321
1.0 0.6901961 0.49852943
0.0024509805 0.83431375 0.5495098
0.020159315 0.83339465 0.5556986
0.05821079 0.8421569 0.55049026
0.1778799 0.8487133 0.55759805
0.5056373 0.83946085 0.5397059
0.7353554 0.8344363 0.5336398
0.88161767 0.8317402 0.52401966
0.9773284 0.82144606 0.5095588
1.0 0.8112745 0.5029412
0.0007352942 0.9313725 0.55490196
0.013541668 0.93259805 0.5534314
0.059436277 0.9400735 0.54656863
0.1512255 0.9415748 0.5266544
0.4564951 0.93198526 0.49828434
0.7189338 0.93177086 0.4849265
0.8636642 0.9297794 0.47928923
0.9688419 0.9220588 0.4744179
0.99730396 0.9117647 0.4610294
0.0 1.0 0.5764706
0.017156864 0.99803925 0.5526961
0.06176471 0.99754906 0.53676474
0.1507353 0.99779415 0.52671576
0.40392157 0.9960785 0.48627454
0.70906866 0.9938726 0.47965688
0.85588235 0.99803925 0.45686275
0.95490193 0.9987745 0.4517157
0.9941177 0.99215686 0.45294118
0.01127451 0.00049019605 0.74509805
0.05 0.0023284315 0.75827205
0.16017157 0.0012254901 0.7497549
0.3526961 0.0034313728 0.7563113
0.5541667 0.0019607844 0.7522059
0.7550245 0.00049019605 0.7212623
0.89142156 0.00049019605 0.721201
0.98682594 0.002634804 0.71250004
1.0 0.0 0.7102942
0.0074142157 0.029595591 0.75098044
0.032559745 0.023828126 0.75701594
0.1478554 0.02311581 0.761443
0.3461244 0.02657782 0.76281404
0.5603247 0.025735296 0.74702823
0.75811124 0.023177084 0.7416361
0.9032016 0.01997549 0.71482843
0.9875 0.02757353 0.7189109
1.0 0.030208334 0.70398283
0.0026960787 0.15625 0.72892153
0.0212163 0.14468443 0.74410236
0.12181374 0.13311888 0.73722434
0.32905945 0.13198529 0.7447151
0.56378675 0.12506127 0.73112744
0.7675551 0.10770527 0.72190565
0.9060356 0.090441175 0.72025126
0.98308825 0.09928003 0.7064951
0.9987745 0.10147059 0.70919126
0.0 0.32922795 0.7278186
0.018259805 0.33102024 0.73103553
0.104871325 0.32740504 0.7525123
0.3179305 0.3270297 0.73890173
0.5546262 0.3263787 0.7437194
0.7521676 0.31354934 0.71312046
0.89731926 0.2959712 0.7180147
0.9815104 0.28128064 0.7097733
0.9922794 0.26452208 0.7046569
0.0075980388 0.52720594 0.7235294
0.023223039 0.5328431 0.72083336
0.0653799 0.5427084 0.7346201
0.2943015 0.5441177 0.72426474
0.5495099 0.5329657 0.7180147
0.74546576 0.5313113 0.716728
0.8893995 0.5197304 0.7030637
0.97833943 0.5109988 0.7068934
0.99828434 0.49264705 0.69558823
0.00061274506 0.708456 0.71102947
0.0149126835 0.7121094 0.71038604
0.055897675 0.7215074 0.71646756
0.23673408 0.70942104 0.70669425
0.5256434 0.70827204 0.6975797
0.7383119 0.7036305 0.7033242
0.87835485 0.7074909 0.70093447
0.9742341 0.6975566 0.6846278
0.9995711 0.6895221 0.6818628
0.0008578432 0.8314951 0.6879902
0.017769609 0.8338695 0.7033548
0.060232848 0.8418199 0.7158701
0.16669732 0.8398591 0.7207874
0.49375004 0.8380515 0.71341914
0.7244792 0.83515626 0.69987744
0.87242645 0.8304228 0.69041055
0.97742033 0.82045037 0.6873927
1.0 0.81188726 0.6644608
0.0 0.9302083 0.69148284
0.017562808 0.93240654 0.6918122
0.056020223 0.9424939 0.6973499
0.1497396 0.9348652 0.69636947
0.42055762 0.93005514 0.6862439
0.702114 0.9284161 0.6720282
0.8599571 0.9266544 0.6617494
0.9712929 0.9237439 0.65722275
0.99350494 0.9155024 0.6464461
0.0 1.0 0.69901955
0.017953433 0.9965687 0.6999387
0.0629902 0.998652 0.69473034
0.1490809 0.9990809 0.6969975
0.37156862 0.99607843 0.6691176
0.6804534 0.9981618 0.6606618
0.8480392 0.99963236 0.6563726
0.9560662 0.9995098 0.6464461
0.9960785 0.9995098 0.6313726
0.00882353 0.0 0.872549
0.047058824 0.0006127451 0.8757353
0.17818627 0.0022058827 0.87867653
0.38860294 0.0031862748 0.870098
0.5705883 0.0004901961 0.8696078
0.739951 0.004411765 0.8574755
0.8916667 0.0031862748 0.85857844
0.98762256 0.0 0.83835787
1.0 0.0 0.8235294
0.0018382354 0.03762255 0.883701
0.030530026 0.022962624 0.8743719
0.16155025 0.02389706 0.8878983
0.3672947 0.0274663 0.885769
0.57371324 0.02377451 0.87604165
0.75580573 0.023498775 0.8749234
0.8904412 0.020925246 0.86243874
0.98645836 0.027236521 0.8460938
1.0 0.029166669 0.8272059
0.0029411768 0.14852941 0.8622549
0.022365198 0.13097426 0.8640319
0.124019615 0.10998775 0.8653186
0.33342525 0.11443015 0.8667892
0.56960785 0.10490197 0.86213243
0.75569856 0.09151348 0.85530025
0.8965074 0.088174015 0.8425858
0.9826287 0.09721202 0.82931983
1.0 0.09730393 0.8232843
0.0019607844 0.34963235 0.8533088
0.013235295 0.33803615 0.857644
0.09255515 0.3295956 0.86838233
0.3114124 0.32371324 0.86603856
0.5567402 0.30974266 0.86587006
0.74526656 0.29969364 0.85367644
0.8887868 0.28174022 0.8498468
0.9779106 0.2665748 0.83279717
0.996201 0.2389706 0.81666666
0.006372549 0.5406863 0.854902
0.020710785 0.53933823 0.8475491
0.060171574 0.5490197 0.8637255
0.28143382 0.5429535 0.85600495
0.54852945 0.5321079 0.8514706
0.7430147 0.52132356 0.8469976
0.88455886 0.5156863 0.83566177
0.97971815 0.50827205 0.83210784
0.99852943 0.4887255 0.82205886
0.0008578432 0.7012255 0.8419118
0.0145067405 0.7044118 0.8394914
0.054901965 0.71292895 0.84632355
0.22489277 0.7085326 0.84071696
0.5257966 0.7062501 0.833701
0.7351103 0.69996935 0.8340074
0.88109684 0.69503677 0.82717526
0.97867644 0.68950677 0.8265778
0.99914217 0.6742647 0.8188726
0.0017156864 0.8276961 0.8281863
0.018474266 0.82576597 0.8328432
0.062806375 0.83523285 0.8487133
0.16519609 0.8395834 0.84935665
0.48529413 0.8313725 0.8436275
0.71158093 0.8332721 0.83532476
0.8719363 0.82101715 0.8321691
0.9783088 0.8175551 0.82751226
1.0 0.807598 0.81323534
0.0 0.9325981 0.811152
0.016819855 0.93147975 0.81564033
0.060753677 0.9390931 0.8254289
0.14813115 0.9422182 0.8225796
0.40863973 0.9283701 0.81256133
0.6887255 0.92896754 0.81078434
0.8571079 0.92729783 0.80554533
0.9700981 0.92299324 0.80657166
0.9990196 0.9220589 0.7920343
0.0029411768 0.9990196 0.8088235
0.015686275 1.0 0.81004906
0.06568628 0.99705887 0.80441177
0.15085785 0.99987745 0.80539215
0.3338235 0.9960785 0.8014706
0.6642157 0.99338233 0.80575985
0.83995104 0.9948529 0.79877454
0.9564951 0.9966912 0.7854167
0.99705887 0.99705887 0.7892157
0.003921569 0.0024509805 0.95490193
0.04656863 0.0009191177 0.95894605
0.18909313 0.0028186275 0.9634804
0.4137255 0.0006127451 0.96666664
0.58357847 0.0026960787 0.9585784
0.74313724 0.00030637253 0.9560662
0.86899513 0.0022058827 0.958701
0.9841912 0.0009191177 0.94779414
1.0 0.0 0.92990196
0.003921569 0.037254903 0.9596201
0.030721508 0.022066485 0.96325827
0.15833335 0.023927696 0.96887255
0.38965225 0.023789829 0.972281
0.5896446 0.029319854 0.9662684
0.7525659 0.0247932 0.96853554
0.8759804 0.024601717 0.9635417
0.9821155 0.02834712 0.9536229
1.0 0.03192402 0.9276961
0.0034313728 0.1314951 0.9545343
0.02143076 0.112147674 0.9532016
0.12763481 0.084405646 0.95358455
0.35013786 0.088403806 0.95946693
0.58363974 0.08504902 0.95735294
0.75373775 0.08734682 0.9556985
0.8844363 0.08584559 0.9496629
0.98003983 0.09609375 0.93958336
0.9988971 0.09730393 0.9245098
0.0030637258 0.36433825 0.95196074
0.015893077 0.34025735 0.9449296
0.083976716 0.31651348 0.95772064
0.30537686 0.29568017 0.9579657
0.5650736 0.28753066 0.9637868
0.7472273 0.2755285 0.95494795
0.8693321 0.26014093 0.94742644
0.97131586 0.2434666 0.9354779
0.99123776 0.22806373 0.91948533
0.0034313728 0.5526961 0.9502451
0.021936275 0.5531556 0.94797796
0.054901965 0.55355394 0.9610294
0.27686888 0.54013485 0.9595895
0.5395833 0.5205882 0.94963235
0.7408701 0.50900733 0.94751835
0.878125 0.5045343 0.9415441
0.97751224 0.4976103 0.9355086
0.99852943 0.479902 0.91813725
0.0 0.6978554 0.9370098
0.017064951 0.70458025 0.9422641
0.05280331 0.71176475 0.9510417
0.2216299 0.708701 0.94561887
0.5133272 0.7029412 0.93777573
0.7324525 0.6906863 0.93471974
0.8755668 0.6856618 0.9409467
0.9764629 0.68804383 0.9310585
1.0 0.6686275 0.9242647
0.0006127451 0.8177696 0.93762255
0.013710172 0.81306684 0.94214153
0.059497554 0.8253064 0.95490193
0.15715382 0.83054537 0.95595896
0.471201 0.83045346 0.953799
0.7113205 0.8241881 0.9402267
0.86476713 0.8210172 0.9417892
0.97544426 0.8115809 0.9367494
0.99963236 0.7991421 0.92303926
0.0 0.93082106 0.9272059
0.014859069 0.92770374 0.924663
0.059283093 0.9334099 0.9359222
0.14840686 0.93380827 0.9299403
0.39405638 0.92680764 0.921538
0.6856924 0.92277116 0.9209406
0.85159314 0.92228866 0.9167739
0.96612287 0.9214844 0.91627604
1.0 0.9166054 0.91029406
0.0014705884 1.0 0.91323525
0.018627452 0.9990809 0.908701
0.06544118 0.99938726 0.9051471
0.15318629 0.99638486 0.90931374
0.3031863 0.99460787 0.8968137
0.6546569 0.9944853 0.9069853
0.82843137 0.9990196 0.90980387
0.95337003 0.99944854 0.90588236
0.9936275 1.0 0.9004902
0.007843138 0.003921569 1.0
0.043627452 0.0 1.0
0.19607843 0.003921569 1.0
0.41127455 0.0004901961 1.0
0.6019608 0.0 1.0
0.72745097 0.0034313728 0.99313724
0.8666666 0.0 1.0
0.9730392 0.0014705884 1.0
1.0 0.0 0.9960785
0.0 0.037254903 1.0
0.032230392 0.026102941 1.0
0.16960785 0.030147059 1.0
0.39197305 0.03370098 1.0
0.6002451 0.027205883 1.0
0.74485296 0.030085785 0.99871325
0.8634804 0.02892157 0.9966912
0.9705882 0.027941179 1.0
1.0 0.028921569 0.99754906
0.0029411768 0.12352942 0.9990196
0.019240197 0.10821079 0.9969363
0.1367647 0.09509804 0.9997549
0.35490197 0.0944853 0.9927696
0.5926471 0.09068628 0.9990196
0.7465686 0.093259804 0.99742645
0.8713235 0.09509804 0.99828434
0.97144604 0.093259804 0.99754906
0.9990196 0.09509804 0.9990196
0.0 0.3495098 0.9965687
0.010294118 0.32806376 0.99871325
0.09509804 0.30490196 0.9941176
0.3074755 0.28431374 0.9969363
0.5634804 0.2762255 0.9965687
0.74393386 0.26317403 0.98835784
0.86715686 0.24485295 0.99644613
0.96525735 0.23026961 0.99595594
0.9950981 0.21617648 0.99215686
0.007843138 0.5588236 0.99803925
0.015931373 0.5615196 0.9897059
0.0632353 0.5553922 0.99509805
0.28039217 0.534804 0.99754906
0.5343138 0.5147059 0.9941176
0.74607843 0.5007353 0.9963235
0.86813724 0.49166667 0.99852943
0.96862745 0.48725492 0.9992647
1.0 0.4764706 0.99803925
0.00049019605 0.702451 0.9965687
0.015257354 0.70281863 0.99583334
0.0627451 0.70637256 0.9914216
0.22518383 0.70140934 0.9995711
0.5115196 0.6992647 0.9965686
0.72886026 0.6865809 0.9969976
0.8762256 0.6803922 0.99987745
0.96960783 0.6741422 0.99871325
0.9965687 0.6666667 0.99264705
0.0009803922 0.80588233 0.9950981
0.018259805 0.8131128 0.9984069
0.0629902 0.81274515 0.9997549
0.16384804 0.8140932 1.0
0.4764706 0.81960785 0.99852943
0.70392156 0.82144606 1.0
0.8593137 0.81544125 0.9990196
0.9676471 0.8018382 0.99963236
0.99705887 0.7931373 0.99803925
0.0 0.9196079 0.99754906
0.02052696 0.9190564 0.99846816
0.06850491 0.9172795 0.99754906
0.14920343 0.91924024 0.99822307
0.39730394 0.9147059 0.9906863
0.67610294 0.9180147 0.9913603
0.8480392 0.9191177 0.9936275
0.9615196 0.9155025 0.9917892
1.0 0.9147059 1.0
0.003921569 1.0 1.0
0.018627452 0.9960785 0.9936275
0.060784318 0.9960785 0.9950981
0.15245098 0.9965687 0.99264705
0.31764707 0.99215686 0.99215686
0.6490196 0.99215686 0.9882353
0.8215686 0.9960785 0.9892157
0.95343137 0.99852943 0.99852943
0.9960785 1.0 0.99215686
