assets/luts/LUTs/LEICA/LEICA TEL.cube
#Generated by PennL1 - 闲鱼号：LOOK胶片感 公众号：胶片感
TITLE LEICA TEL
LUT_3D_SIZE 9
0.019607844 0.015686275 0.02745098
0.09754902 0.023529412 0.03137255
0.1862745 0.026470589 0.034313727
0.3019608 0.031862747 0.031862747
0.4254902 0.037254903 0.03137255
0.5647059 0.035784315 0.031862747
0.7117647 0.026470589 0.026470589
0.85 0.013235295 0.02745098
0.9686275 0.007843138 0.023529412
0.022058824 0.085784316 0.03137255
0.09564951 0.10392157 0.03682598
0.19068627 0.110049024 0.03026961
0.3 0.11421569 0.027083334
0.42647058 0.12745099 0.028921569
0.56893384 0.13645834 0.029227942
0.719853 0.13088235 0.030759806
0.85631126 0.12254903 0.029901963
0.98088235 0.11617647 0.03284314
0.023529412 0.1754902 0.039215688
0.081985295 0.19080882 0.041666668
0.18799019 0.21102941 0.035784315
0.31299022 0.22218138 0.030392159
0.4392157 0.2367647 0.025
0.5776961 0.24889708 0.026960785
0.725 0.24877453 0.02622549
0.8589461 0.24693628 0.02512255
0.97745097 0.24215686 0.02745098
0.02745098 0.27401963 0.055882353
0.09577206 0.2875613 0.05459559
0.20477942 0.3004902 0.041666668
0.336152 0.33725494 0.030882355
0.47524512 0.35318628 0.024754902
0.6152574 0.36170346 0.021691177
0.7449755 0.36862746 0.02254902
0.8650123 0.3648897 0.019914217
0.9892157 0.3647059 0.019607844
0.03529412 0.38627452 0.09019608
0.10147059 0.3987745 0.08137255
0.2004902 0.4147059 0.06421569
0.3404412 0.44485295 0.04142157
0.49215686 0.47843137 0.025490196
0.6242647 0.49583334 0.01764706
0.74705887 0.5 0.009313726
0.86838233 0.49534315 0.009803922
0.9862745 0.49607843 0.011764706
0.07009804 0.5142157 0.12156863
0.13265932 0.52947307 0.11409315
0.22610295 0.5414216 0.09803922
0.36041668 0.57052696 0.057904415
0.5088236 0.6095589 0.033333335
0.6356005 0.6270221 0.016176471
0.74828434 0.6314951 0.009191177
0.8709559 0.6326593 0.009987745
0.9955883 0.6279412 0.00882353
0.10784314 0.6333333 0.16078432
0.1807598 0.64914215 0.1502451
0.27058822 0.6600491 0.121568635
0.3819853 0.68504906 0.08627451
0.51176476 0.72009814 0.050490197
0.638603 0.74522066 0.024877451
0.75343144 0.74803925 0.013480393
0.8811275 0.74595594 0.008455883
0.9882353 0.7539216 0.0068627456
0.16715688 0.7764706 0.17794117
0.23039216 0.79515934 0.15931374
0.31421572 0.8014706 0.1317402
0.40618876 0.81666666 0.09803922
0.5176471 0.8450981 0.06029412
0.63394606 0.86764705 0.02745098
0.7551471 0.8742647 0.013235295
0.87408084 0.8754902 0.011213236
0.9852941 0.8784313 0.009313726
0.20784314 0.9137255 0.1764706
0.26225492 0.9230392 0.1632353
0.34019607 0.9294118 0.1392157
0.4240196 0.9377451 0.101960786
0.52745104 0.95490193 0.06666667
0.64754903 0.9759804 0.039215688
0.7588235 0.9882353 0.018627452
0.87352943 0.99215686 0.011764706
0.9960785 0.99215686 0.015686275
0.010294118 0.028921569 0.09754902
0.08161765 0.02947304 0.10900736
0.17426471 0.031740196 0.1067402
0.2824755 0.033210784 0.11207108
0.4112745 0.04387255 0.11519608
0.5615196 0.041666668 0.123958334
0.71813726 0.026838236 0.1382353
0.85330886 0.017218139 0.1264706
0.9740196 0.015686275 0.13627452
0.01875 0.09601716 0.095159315
0.08412225 0.10317096 0.11797641
0.18380821 0.10709252 0.11246936
0.29943323 0.11435355 0.10520068
0.4238971 0.123468146 0.114491425
0.5721125 0.12934284 0.12649357
0.72048104 0.13132659 0.1344516
0.8615732 0.121246934 0.14528188
0.9803308 0.11881127 0.14485294
0.021323532 0.1817402 0.11017157
0.08573836 0.19410233 0.11432292
0.18817402 0.209712 0.10416667
0.30488667 0.22359069 0.09352022
0.43792892 0.23774509 0.093504906
0.57708335 0.24920344 0.10658701
0.72542894 0.25205272 0.11580883
0.8597886 0.25356925 0.120695464
0.98541665 0.24901962 0.13517158
0.023039216 0.2807598 0.1288603
0.09240196 0.28885573 0.1439951
0.1905484 0.30543813 0.1316636
0.33010876 0.33337167 0.11536458
0.47129288 0.34877452 0.112224266
0.61001074 0.36078435 0.11933977
0.7415595 0.36732537 0.12922794
0.8738435 0.36557138 0.13582262
0.99534315 0.36734068 0.1420956
0.042401962 0.39068627 0.17254902
0.10235907 0.40223652 0.16795345
0.19099265 0.41795343 0.1536152
0.3298407 0.44574144 0.12604167
0.48933825 0.48014706 0.11617648
0.6255209 0.49270836 0.11256128
0.7498162 0.5004902 0.11537991
0.87110907 0.4958027 0.12398898
0.9882353 0.5007353 0.12818629
0.06666667 0.51703435 0.19871324
0.13154106 0.5281327 0.19639246
0.21329656 0.5429841 0.18005514
0.3474112 0.56475186 0.1540288
0.4975184 0.60438114 0.12512256
0.62041205 0.626057 0.11135877
0.7480852 0.6312194 0.10860907
0.87100947 0.62874544 0.11734069
0.98523283 0.63455886 0.11672795
0.110049024 0.63958335 0.24877453
0.18152574 0.65099573 0.2429075
0.27064952 0.6619792 0.22570466
0.3792586 0.68402267 0.1897212
0.50710785 0.7175858 0.15827207
0.63538605 0.74296874 0.13561581
0.75487137 0.74911153 0.12925859
0.8769301 0.74560356 0.13252145
0.9843137 0.7558824 0.12757353
0.16182598 0.7735907 0.26893383
0.22704503 0.79025733 0.2518459
0.3131587 0.8005055 0.23446691
0.40350798 0.81182593 0.19871323
0.5141544 0.838511 0.1625
0.6366958 0.8646523 0.13180147
0.75660235 0.87538296 0.12699142
0.8685968 0.87647825 0.12279412
0.9860907 0.87990195 0.119852945
0.19313726 0.9122549 0.27205884
0.259375 0.9197304 0.24656864
0.33664215 0.93051475 0.21960784
0.42383578 0.9395221 0.19166666
0.5262255 0.9580882 0.16666667
0.6410539 0.97990197 0.1449755
0.75441176 0.98995095 0.122671574
0.872978 0.9960785 0.11525735
0.9882353 0.9931373 0.13431373
0.02254902 0.038235296 0.18235295
0.077696085 0.041544117 0.19411765
0.15784314 0.043137256 0.19436274
0.2642157 0.04522059 0.20661764
0.3892157 0.04656863 0.21715686
0.54607844 0.049509805 0.22696078
0.7105392 0.033578433 0.24289216
0.85294116 0.018995099 0.24276961
0.9833333 0.007843138 0.24705884
0.024632353 0.10870098 0.1810049
0.08927696 0.110677086 0.1931679
0.16691178 0.11645221 0.20101103
0.2821385 0.120465696 0.19955577
0.4074142 0.13094363 0.21580881
0.55945164 0.13681066 0.22910538
0.7162684 0.1332108 0.23697916
0.86243874 0.12847733 0.25456494
0.9845588 0.12254902 0.25992647
0.02892157 0.19313726 0.18431373
0.09283088 0.19696692 0.1949142
0.1764706 0.20692402 0.19362745
0.297549 0.21933211 0.20021446
0.4226716 0.23382352 0.19754902
0.5736214 0.24549633 0.20554535
0.72401965 0.24344364 0.22181374
0.861489 0.24932599 0.23743874
0.99240196 0.24485296 0.24705882
0.037132353 0.2824755 0.2172794
0.097809434 0.29047182 0.22740503
0.18618259 0.30128676 0.22944242
0.3208027 0.3264706 0.21318933
0.46439952 0.34485295 0.21268381
0.6024816 0.35805762 0.22008272
0.73575366 0.37003675 0.23952207
0.86312807 0.3728554 0.24716607
0.9917892 0.3654412 0.25379905
0.04509804 0.39264706 0.25441176
0.10980393 0.40410537 0.25349265
0.19632353 0.4177696 0.26164216
0.325674 0.44552696 0.23786765
0.48627454 0.4762255 0.2267157
0.6242647 0.4925858 0.22745097
0.7498775 0.4979167 0.23848039
0.8724878 0.49730393 0.24172795
0.98774505 0.4995098 0.25686276
0.07450981 0.5207108 0.2932598
0.14044118 0.5316023 0.29362747
0.2229473 0.5441177 0.29053313
0.33892465 0.566345 0.2619179
0.4887255 0.5993872 0.23253676
0.62421876 0.62378985 0.22688419
0.75376844 0.6253983 0.2395527
0.87199754 0.62985605 0.2344669
0.9862745 0.63186276 0.23517156
0.11470588 0.64607847 0.34142157
0.18250613 0.6528187 0.33970588
0.2728554 0.6655025 0.32328433
0.37981004 0.6827512 0.29442406
0.51004905 0.71372557 0.27377453
0.64237136 0.73740816 0.25965077
0.7644608 0.7466912 0.2572304
0.8780943 0.7473346 0.25661764
0.9845588 0.75661767 0.26053923
0.16004902 0.7737745 0.35465688
0.2227022 0.7889553 0.35412073
0.3045037 0.80049026 0.34117648
0.407307 0.8155024 0.3043505
0.521875 0.83756125 0.27640933
0.64535844 0.861397 0.2543352
0.7592524 0.87285537 0.25039828
0.872258 0.87605697 0.2506434
0.9792892 0.87769604 0.24791667
0.18431373 0.9147059 0.3539216
0.24289216 0.9209559 0.34387258
0.32843137 0.9365196 0.33333337
0.4279412 0.94411767 0.3034314
0.5205883 0.9583333 0.2779412
0.6431373 0.97340685 0.26066178
0.75661767 0.9857843 0.2389706
0.8709559 0.99460787 0.24129903
0.97843134 0.9892157 0.25490198
0.023529412 0.050980393 0.26862746
0.08155637 0.055208333 0.2711397
0.15220588 0.056250002 0.2692402
0.24074754 0.059252456 0.2844363
0.3615196 0.0629902 0.30514708
0.5208334 0.06286765 0.3353554
0.697304 0.046936274 0.36691174
0.85606617 0.02647059 0.37959558
0.98088235 0.007843138 0.38431373
0.026041668 0.12089461 0.25900736
0.085608155 0.12561275 0.27702972
0.16288297 0.12812501 0.28026962
0.24973959 0.13478096 0.29367343
0.3757966 0.14160539 0.3089767
0.5315028 0.1538986 0.33721662
0.7003676 0.1444853 0.36038604
0.8592448 0.13076746 0.3801241
0.9911152 0.12432598 0.38351718
0.03247549 0.20355393 0.26936275
0.09185049 0.21132046 0.27575064
0.16583946 0.21890318 0.27766544
0.26348042 0.22706802 0.28610602
0.39865196 0.24093138 0.30208334
0.55759805 0.25170037 0.32840076
0.71663606 0.25514707 0.35003063
0.86151963 0.24923408 0.36260724
0.9915441 0.2459559 0.36286765
0.045588236 0.28725493 0.30594364
0.10535386 0.29801625 0.30385265
0.19312194 0.30925244 0.313174
0.30873165 0.3268459 0.31979167
0.44065562 0.3485907 0.32987133
0.5900123 0.36347273 0.3445619
0.7318474 0.369807 0.362163
0.8683058 0.370481 0.36926317
0.98529404 0.3686887 0.37781864
0.054166667 0.40122548 0.33455884
0.11893383 0.4103554 0.33970588
0.20330882 0.42702204 0.34087014
0.3180147 0.4445159 0.3426777
0.47377452 0.4754902 0.33566177
0.6183517 0.4916973 0.34460783
0.74595594 0.49993873 0.3523897
0.8711704 0.49960172 0.3683824
0.9862745 0.5022059 0.37598038
0.08572304 0.53339463 0.37775737
0.1439951 0.5420114 0.37990195
0.23178616 0.55477947 0.3839614
0.34504443 0.5726716 0.375
0.4854167 0.60156256 0.35226718
0.6240809 0.62228864 0.34477636
0.7436887 0.6336857 0.3470435
0.86472887 0.63179386 0.36024052
0.9904412 0.6318015 0.37101716
0.1259804 0.6574755 0.4387255
0.19309129 0.66585475 0.43394607
0.2817402 0.67276347 0.43075982
0.38497242 0.68837315 0.41976103
0.50808823 0.7159927 0.39871323
0.64057904 0.737117 0.3815564
0.7632966 0.74730396 0.3772978
0.87694544 0.7495405 0.37924325
0.9916667 0.7519608 0.38541666
0.15839462 0.78903186 0.44730395
0.22265625 0.7966989 0.4466912
0.30528495 0.8065104 0.4314032
0.40827975 0.8223422 0.4209942
0.52383584 0.83731616 0.40153188
0.6377068 0.8641927 0.37448683
0.7571538 0.8736366 0.37562808
0.87374383 0.8787377 0.37426472
0.983701 0.87787986 0.37843138
0.17990196 0.9098039 0.45588237
0.23382354 0.92089456 0.446875
0.31666666 0.9354167 0.43566176
0.41562498 0.94558823 0.4182598
0.52500004 0.9605392 0.39191177
0.63529414 0.97248775 0.383701
0.76115197 0.98615193 0.3752451
0.87199754 0.9947917 0.37561277
0.9872549 0.99215686 0.37990198
0.025490196 0.060784318 0.34705883
0.085784316 0.06740196 0.35882354
0.15637255 0.07058824 0.35882354
0.23210785 0.07696079 0.364951
0.32156864 0.08235294 0.3745098
0.4757353 0.08210784 0.41470587
0.6666667 0.063725494 0.46029413
0.84093136 0.03504902 0.49534315
0.9823529 0.01372549 0.51176476
0.028431375 0.13014707 0.34534317
0.09197304 0.13872549 0.35882354
0.16292894 0.1447304 0.3726103
0.24056372 0.1488358 0.37478554
0.33713236 0.1560049 0.39215687
0.4894608 0.16299021 0.42928922
0.67849267 0.15949756 0.47101715
0.8468443 0.1367647 0.4971814
0.9877451 0.12426472 0.50980395
0.028431375 0.2127451 0.3485294
0.0884804 0.21936274 0.35906863
0.1627451 0.23063725 0.36409312
0.2504902 0.23939951 0.37064952
0.36421567 0.2502451 0.39436275
0.5209559 0.26182598 0.42677695
0.6998775 0.26409316 0.46740195
0.8523897 0.25465685 0.48872554
0.9897059 0.25049022 0.49754903
0.040441178 0.30269608 0.38480395
0.106219366 0.31268382 0.38936886
0.18615195 0.3229167 0.39056373
0.28817403 0.3342831 0.4011336
0.40857843 0.35355395 0.4254902
0.56507355 0.3685049 0.45713848
0.7177696 0.37579656 0.4873162
0.85934436 0.37561274 0.49457723
0.98774505 0.36740196 0.5029412
0.064705886 0.40784314 0.40980393
0.13406864 0.42561275 0.41899508
0.22205883 0.43872547 0.4286765
0.33075982 0.45563728 0.43860295
0.4612745 0.475 0.45392156
0.60563725 0.49485296 0.4709559
0.7431373 0.5 0.4897059
0.8696078 0.49901962 0.49656862
0.9911765 0.49607846 0.5029412
0.09558824 0.5409314 0.45539218
0.16470589 0.55557597 0.46930146
0.25257355 0.5665442 0.4671569
0.3635417 0.5818321 0.47055757
0.4909314 0.6026961 0.47181374
0.61780024 0.6269302 0.46568626
0.7502451 0.630576 0.47610295
0.8760723 0.629228 0.48318017
0.99803925 0.62254906 0.4931373
0.1397059 0.6666667 0.52500004
0.20992647 0.67806375 0.5329657
0.29840684 0.68737745 0.5268383
0.39859068 0.70625 0.5217525
0.51299024 0.7227942 0.51740193
0.64319855 0.73939955 0.513603
0.7616422 0.74914217 0.5036765
0.87769604 0.7457721 0.50753677
0.99313724 0.74852943 0.5137255
0.16176471 0.7987745 0.54877454
0.23244485 0.80977327 0.54583335
0.31219363 0.8173407 0.5310662
0.40796572 0.82999384 0.5204351
0.51776963 0.8448529 0.5120098
0.640625 0.86436886 0.50156254
0.7592524 0.8754289 0.49742648
0.87261033 0.8799326 0.49469978
0.97843134 0.8754902 0.49044117
0.17450981 0.91568625 0.55490196
0.23602942 0.9269608 0.54632354
0.31813726 0.9367647 0.5397059
0.4198529 0.9477941 0.5193628
0.52254903 0.9627451 0.5147059
0.6387255 0.97794116 0.50784314
0.75392157 0.9887255 0.49754903
0.87230396 0.9941177 0.49534315
0.9901961 0.9862745 0.50784314
0.024019608 0.075 0.42990193
0.08676471 0.08216912 0.4406863
0.1517157 0.09276961 0.43970588
0.22303921 0.0971201 0.44503677
0.3007353 0.10318628 0.4588235
0.41066176 0.10539216 0.47892156
0.61666673 0.08284314 0.55098045
0.82549024 0.04656863 0.60900736
0.9700981 0.018627452 0.64705884
0.026654411 0.14705883 0.42414215
0.08804382 0.15356924 0.44270068
0.15909927 0.16081496 0.45024508
0.22996324 0.1666054 0.45196077
0.31305146 0.17693016 0.46534926
0.43176317 0.1814568 0.4947457
0.6358456 0.17529106 0.5572305
0.83130366 0.15375307 0.6112822
0.97359073 0.1382353 0.6372549
0.025612745 0.22745098 0.4310049
0.09463848 0.23720893 0.43826595
0.16461398 0.2485294 0.44264707
0.2338695 0.25703126 0.4508272
0.32843137 0.26991424 0.4694853
0.47199753 0.2753064 0.5071998
0.66501224 0.27205884 0.5640931
0.84494483 0.26147366 0.6059896
0.9791667 0.25453433 0.6333333
0.04411765 0.31617647 0.44417894
0.10435049 0.32539067 0.46574757
0.18334866 0.33627453 0.4732077
0.2702359 0.34971663 0.48615962
0.37068015 0.36571693 0.5088235
0.5203278 0.38246787 0.5501685
0.7 0.38279718 0.5958793
0.856947 0.37964153 0.6285769
0.97867644 0.36911762 0.64460784
0.071078435 0.422549 0.48161766
0.13480392 0.4375919 0.492739
0.22665443 0.44932598 0.5106005
0.32074142 0.4634804 0.5239277
0.43566176 0.4832108 0.54264706
0.5855086 0.5007659 0.5752145
0.7377451 0.5053309 0.60238975
0.86856616 0.50726104 0.6238665
0.9911765 0.4968137 0.6335785
0.11776961 0.5490809 0.53333336
0.17924325 0.56975335 0.5494485
0.28305763 0.5825368 0.56674325
0.38536304 0.5993107 0.579473
0.5003064 0.61743265 0.5868873
0.626103 0.6240196 0.60203743
0.75199145 0.6296262 0.61352634
0.8685202 0.63520986 0.6174862
0.9960785 0.621875 0.6311275
0.15723039 0.67487746 0.6015932
0.2268076 0.6932905 0.6107537
0.3213235 0.703462 0.6192402
0.4209559 0.7158548 0.62166053
0.52830887 0.7299633 0.6249387
0.6397059 0.7420037 0.62847733
0.76415443 0.7502145 0.62723655
0.8738817 0.75148594 0.6316789
0.98946077 0.754902 0.6199755
0.1769608 0.8065564 0.64031863
0.23607537 0.8226104 0.6363205
0.32257968 0.8293046 0.6358456
0.41732535 0.8404641 0.6308364
0.52310055 0.8563726 0.63045347
0.63730854 0.86481315 0.63290447
0.7581648 0.8775888 0.62346816
0.87158394 0.87989426 0.6203049
0.978125 0.8761029 0.62530637
0.17745098 0.917647 0.6647059
0.24166667 0.9325368 0.6450981
0.327451 0.9375 0.6327206
0.41875002 0.953799 0.6254902
0.5284314 0.96764714 0.62598044
0.6405637 0.9798407 0.6313726
0.75968134 0.98786765 0.6221814
0.8715686 0.99197304 0.61746323
0.9901961 0.99264705 0.63235295
0.030392159 0.10098039 0.51274514
0.09031863 0.108333334 0.5289216
0.15686275 0.11397059 0.5296569
0.22512256 0.1189951 0.5278187
0.29215688 0.12843138 0.5357843
0.3794118 0.1322304 0.55049026
0.54632354 0.12009804 0.6125
0.79154414 0.06703432 0.69950986
0.9647059 0.025490196 0.7558824
0.036642157 0.16580883 0.5131128
0.09785539 0.17601103 0.5326747
0.16280638 0.18318015 0.536489
0.2250766 0.19148286 0.541682
0.30012256 0.20159313 0.55539215
0.3956189 0.20960477 0.57902884
0.5721814 0.20067403 0.63388485
0.8067862 0.16507353 0.710095
0.9639706 0.14154412 0.7625
0.031862747 0.24754903 0.5159314
0.09384191 0.25343138 0.5263481
0.16176471 0.26427698 0.5325368
0.22873776 0.2757966 0.5425245
0.30379903 0.2856618 0.55551475
0.42512256 0.29672182 0.5837623
0.60906863 0.2918505 0.6450368
0.8210172 0.27208948 0.71421576
0.9745098 0.2531863 0.7463236
0.049387254 0.336152 0.53186274
0.107981004 0.3422794 0.54806983
0.17791054 0.35321692 0.5572611
0.25523898 0.36783087 0.5651195
0.34197307 0.3836397 0.5865809
0.47192094 0.39954042 0.623989
0.6626226 0.39568013 0.6884191
0.83949137 0.3864277 0.73843443
0.9748775 0.37303925 0.76029414
0.07401961 0.43921572 0.5671569
0.13572305 0.45226717 0.57751226
0.2127451 0.46593136 0.59129906
0.30404413 0.48063725 0.60741425
0.40857843 0.49509805 0.6269608
0.53921574 0.5118873 0.66421574
0.7165441 0.50870097 0.7122549
0.8644608 0.5060049 0.7427083
0.98823535 0.49705884 0.7612745
0.11544118 0.5681373 0.61348045
0.19221814 0.5760876 0.6294118
0.281924 0.58927697 0.64004296
0.38118872 0.60865504 0.65758276
0.48308825 0.625674 0.674326
0.6012255 0.62948835 0.69606316
0.7432292 0.6320772 0.72643995
0.8735754 0.63336396 0.73694855
0.9911765 0.62414217 0.76017153
0.17303923 0.6870098 0.6757353
0.24329045 0.6979167 0.6957414
0.33498776 0.71378684 0.7099265
0.43367034 0.72567403 0.7183518
0.53627455 0.73811275 0.7324755
0.63973653 0.74586403 0.7445772
0.754902 0.7532476 0.75808823
0.88020825 0.7507353 0.76660544
0.9906863 0.7522059 0.76078427
0.19166666 0.81397057 0.7296569
0.25735295 0.82843137 0.72372854
0.34142157 0.8387867 0.7333027
0.4341299 0.84958637 0.73475796
0.53792894 0.8617647 0.73670346
0.6428462 0.87094057 0.74299943
0.762837 0.8733456 0.75358456
0.8779105 0.88031554 0.75389093
0.9829657 0.8806372 0.75625
0.1872549 0.9284314 0.75392157
0.26225492 0.93713236 0.7441177
0.3387255 0.9490196 0.7401961
0.42438725 0.95833325 0.73406863
0.52745104 0.96960783 0.73627454
0.63799024 0.9838235 0.7446079
0.75294125 0.9916667 0.75441176
0.8713235 0.99325985 0.7469363
0.9911765 0.9862745 0.74803925
0.040686276 0.13039216 0.6039216
0.095159315 0.14025736 0.6128064
0.15894608 0.14264706 0.61801475
0.22487745 0.15245098 0.62469363
0.2901961 0.15759805 0.6264706
0.36231616 0.16678922 0.6393995
0.48664218 0.16078432 0.6800245
0.7433824 0.09522059 0.7877451
0.96127456 0.034313727 0.8632353
0.041605394 0.19846815 0.6059437
0.09665288 0.2053079 0.61580884
0.16250001 0.20980392 0.62599576
0.22477022 0.22016697 0.6353554
0.29427084 0.2314951 0.6441789
0.37610295 0.23823531 0.6613358
0.5098958 0.23688726 0.7038144
0.76487434 0.18953738 0.8045573
0.9602941 0.14454658 0.8693015
0.04509804 0.27144608 0.6084559
0.1002451 0.2813113 0.61202514
0.16237745 0.29148287 0.6192096
0.23572303 0.30064338 0.6356771
0.30091912 0.31531864 0.64473045
0.3881434 0.3263174 0.6665901
0.545527 0.32561275 0.7198529
0.7943934 0.29062498 0.8115656
0.9757353 0.25563726 0.86286765
0.05772059 0.35833335 0.627451
0.11227022 0.3672181 0.63897824
0.17676166 0.37896752 0.645818
0.2526961 0.39355853 0.6605545
0.3337623 0.40854782 0.68342525
0.431227 0.42133883 0.70822614
0.59649205 0.41862747 0.7622243
0.8143382 0.39828432 0.84370404
0.9691176 0.37769607 0.8800245
0.07328431 0.45857844 0.6544118
0.13455883 0.4681679 0.6606005
0.21066175 0.4790441 0.6757966
0.29295343 0.4920956 0.69224876
0.38884804 0.5069853 0.7136029
0.49662992 0.5211704 0.7387868
0.6579657 0.5268995 0.79056376
0.85003066 0.51047796 0.8534007
0.985049 0.5009804 0.88161767
0.12132354 0.5801471 0.70049024
0.18884805 0.5878064 0.7082721
0.27014402 0.59607846 0.7221355
0.36384803 0.61247706 0.7426241
0.4616728 0.6273591 0.75995713
0.5740426 0.6383808 0.7906863
0.7123468 0.6426777 0.8269455
0.86967677 0.6331419 0.8621937
0.99283093 0.62530637 0.8857843
0.18517157 0.69031864 0.7625
0.25042892 0.7035999 0.77196693
0.33376226 0.71375614 0.7873775
0.42879903 0.7284926 0.80154717
0.52120095 0.7413603 0.8210784
0.6292739 0.7535846 0.84028804
0.7410846 0.75395226 0.85894614
0.8772671 0.7544118 0.8833793
0.9887255 0.75502455 0.8867647
0.21409313 0.8208946 0.813174
0.28094363 0.8298024 0.81235445
0.3620251 0.84211093 0.8219516
0.45318627 0.85655636 0.83638936
0.54862136 0.86764705 0.8472733
0.64899665 0.8726103 0.86171114
0.76332724 0.87653184 0.8704657
0.8707108 0.8850337 0.8747396
0.98382354 0.8765319 0.88707113
0.21029413 0.93284315 0.83480394
0.27653188 0.94938725 0.8367034
0.35931373 0.95624995 0.84154415
0.44632354 0.9668505 0.84785545
0.5436275 0.9752451 0.8517157
0.64528185 0.9903799 0.8661765
0.7564951 0.9927696 0.8651961
0.8670956 0.9960785 0.86354166
0.982353 0.99460787 0.8813725
0.047058824 0.16862746 0.68235296
0.10392157 0.16862746 0.70196074
0.16470589 0.17254902 0.70490193
0.2254902 0.18039216 0.71421576
0.28627452 0.1882353 0.72156864
0.354902 0.1995098 0.73284316
0.45392156 0.19607843 0.7627451
0.6627451 0.14460784 0.8485294
0.9607843 0.03529412 0.9764706
0.05245098 0.2254902 0.69166666
0.10637255 0.23633578 0.7072917
0.16862746 0.24080883 0.71360296
0.22971815 0.253125 0.7228554
0.3007353 0.25955883 0.73553926
0.36924022 0.2683211 0.7478554
0.4775735 0.27193627 0.7813726
0.6762255 0.23615196 0.8648284
0.96813726 0.14754903 0.9852941
0.05784314 0.30392158 0.70098037
0.10281863 0.31188726 0.7109069
0.16764706 0.3242647 0.7218138
0.2327206 0.33382353 0.7299019
0.3004902 0.34509805 0.74705887
0.38174018 0.35931373 0.7634804
0.49411765 0.3627451 0.80759805
0.6944853 0.33284312 0.8740196
0.9647059 0.2647059 0.98725486
0.063725494 0.38333336 0.71519613
0.12009804 0.39454657 0.72610295
0.18492648 0.40539217 0.74031866
0.25925246 0.41819853 0.75784314
0.3362745 0.43210787 0.7752451
0.42248777 0.44172794 0.80349267
0.54718137 0.44963235 0.8357843
0.7430147 0.4279412 0.9050858
0.95784307 0.38431373 0.9696079
0.08039216 0.47843137 0.74705887
0.1392157 0.49289215 0.7595588
0.2112745 0.5029412 0.76911765
0.29117647 0.51617646 0.7852941
0.377451 0.5294118 0.80490196
0.47401962 0.5428922 0.83063734
0.6004902 0.5480392 0.8710785
0.78406864 0.53357846 0.9289216
0.96862745 0.50980395 0.9823529
0.116666675 0.5862745 0.797549
0.18394609 0.6016544 0.8068628
0.25588238 0.61151963 0.811152
0.3465686 0.621875 0.83137256
0.4382353 0.63455886 0.8553922
0.5450368 0.64411765 0.87947303
0.66948533 0.65588236 0.9132353
0.8249388 0.6464461 0.9516544
0.9911765 0.6245098 0.9882353
0.16960785 0.70392156 0.84705883
0.24154411 0.7145834 0.8593137
0.32303923 0.72034323 0.8693628
0.40857846 0.7318628 0.8883579
0.50098044 0.74411774 0.90588236
0.6074755 0.7514706 0.9265932
0.72377455 0.7588235 0.9492647
0.85159314 0.7567402 0.9759804
0.9833333 0.74803925 0.9960785
0.22009805 0.82254905 0.87647057
0.2834559 0.8397059 0.8872549
0.36446077 0.85085785 0.9019608
0.44607842 0.8607843 0.9191176
0.5436275 0.86691177 0.93529415
0.64705884 0.8759804 0.95232844
0.7540441 0.88235295 0.97083336
0.8663603 0.8822917 0.98290443
0.98382354 0.872549 0.99460787
0.23529413 0.94117653 0.90588236
0.30539218 0.9490196 0.9191176
0.38333333 0.95980394 0.9284314
0.4617647 0.972549 0.9416667
0.5470588 0.98431367 0.9588235
0.652451 0.9916667 0.9686275
0.7617647 0.9892157 0.98431367
0.87107843 0.9960785 0.9882353
0.98431367 0.9882353 0.9960785
