assets/luts/LUTs/LEICA/LEICA CNT.cube
#Generated by PennL1 - 闲鱼号：LOOK胶片感 公众号：胶片感
TITLE LEICA CNT
LUT_3D_SIZE 5
0.007843138 0.0 0.019607844
0.25686276 0.007843138 0.03137255
0.582353 0.0058823535 0.07254902
0.80588233 0.019607844 0.14313726
0.972549 0.03137255 0.22352941
0.00882353 0.28333336 0.015686275
0.25637257 0.2901961 0.030637257
0.57549024 0.2916667 0.06960785
0.8068628 0.29485297 0.14558825
0.97450984 0.30392158 0.20980392
0.0058823535 0.59803927 0.07254902
0.22892156 0.60245097 0.087254904
0.5686275 0.6039216 0.12450981
0.8009804 0.60245097 0.18333334
0.9725491 0.6039216 0.24313726
0.003921569 0.81960785 0.16764706
0.16004902 0.8240196 0.18112746
0.55539215 0.82549024 0.20441177
0.7987745 0.8245098 0.24215685
0.9656863 0.8215686 0.28039217
0.0 0.9960785 0.24313726
0.097058825 0.9941176 0.24313726
0.5352942 0.9901961 0.2627451
0.7872549 0.99313724 0.28725493
0.9686275 1.0 0.33333334
0.04117647 0.003921569 0.27156863
0.2882353 0.004901961 0.28651962
0.5916667 0.008333333 0.31029412
0.81323534 0.014705883 0.34534314
0.97058827 0.024509804 0.38627452
0.02254902 0.28333336 0.26911765
0.27132353 0.28480393 0.27530637
0.57916665 0.28651962 0.29840687
0.8036152 0.29344365 0.3291054
0.96789217 0.29926473 0.38406864
0.0034313728 0.59901965 0.29901963
0.25085783 0.6017157 0.3140931
0.5715686 0.6036765 0.3294118
0.8036765 0.6036765 0.358701
0.9725491 0.60833335 0.40245098
0.00882353 0.8208333 0.34485292
0.19295344 0.8314951 0.3665441
0.56299025 0.82549024 0.37879902
0.7999387 0.8245711 0.3971814
0.97107846 0.82598037 0.43406862
0.0029411768 0.99215686 0.4019608
0.097794116 0.99264705 0.39681375
0.5392157 0.99264705 0.40245098
0.7897059 0.99215686 0.42647058
0.9647059 0.99705887 0.45980394
0.15490197 0.0 0.59019613
0.3411765 0.003921569 0.59852946
0.60784316 0.0058823535 0.6068628
0.8215686 0.0029411768 0.6161765
0.9843137 0.009803922 0.61960787
0.13480392 0.2740196 0.582353
0.3262255 0.2764706 0.58026963
0.597549 0.2791667 0.5875
0.81335783 0.2839461 0.60110295
0.97450984 0.29264706 0.6132353
0.09803922 0.5970589 0.59313726
0.3144608 0.5968138 0.59607846
0.5911765 0.6004902 0.5975491
0.8085785 0.60343134 0.6117647
0.9725491 0.6019608 0.6215687
0.032352943 0.8235294 0.6122549
0.2709559 0.82843137 0.6145834
0.58406866 0.8264706 0.6183824
0.8071078 0.8220588 0.6283089
0.9754902 0.8220588 0.6333333
0.0019607844 0.9901961 0.6254902
0.18921569 0.98725486 0.61421573
0.5617647 0.9911765 0.62352943
0.7985294 0.99264705 0.63284314
0.96862745 0.9960785 0.6529412
0.27156866 0.0058823535 0.80588233
0.41568628 0.0036764708 0.82009804
0.6348039 0.0034313728 0.8235294
0.8306372 0.0014705884 0.8247549
0.98137254 0.0009803922 0.83137256
0.25710785 0.2588235 0.80269605
0.40735295 0.2620098 0.8072304
0.6240196 0.2644608 0.8034314
0.8208333 0.26813725 0.80955887
0.97892153 0.27867648 0.81666666
0.23921567 0.5921569 0.8117647
0.39350492 0.5965687 0.81164217
0.6161765 0.5977942 0.81053925
0.8170343 0.5991422 0.81311274
0.97745097 0.59803927 0.8245098
0.20147058 0.8210784 0.8156862
0.37457108 0.8258579 0.81985295
0.6126226 0.82120097 0.8267157
0.82120097 0.8239584 0.8303309
0.97745097 0.8245098 0.8264706
0.12352942 0.9852941 0.8176471
0.3267157 0.98676467 0.8166667
0.59460783 0.9911765 0.81764704
0.81053925 0.98995095 0.8247549
0.972549 0.9911765 0.83431375
0.3529412 0.0 0.972549
0.4764706 0.003921569 0.97843134
0.6647059 0.0058823535 0.98039216
0.85 0.0 0.9833333
1.0 0.0 0.98039216
0.35588238 0.22843137 0.972549
0.475 0.23480392 0.97450984
0.6534314 0.23382354 0.9676471
0.84460783 0.24705884 0.9727941
0.99215686 0.25490198 0.98039216
0.34117648 0.5882353 0.9764706
0.46470588 0.59313726 0.9764706
0.6519608 0.5921569 0.97352946
0.8357843 0.5926471 0.9769608
0.9901961 0.59411764 0.97450984
0.31666666 0.8176471 0.9696079
0.44803923 0.82034314 0.97769606
0.64754903 0.8210784 0.97794116
0.83823526 0.82303923 0.97843134
0.99215686 0.81666666 0.9911765
0.2784314 0.9960785 0.9764706
0.42156863 0.99215686 0.97156864
0.6313726 0.9941177 0.97843134
0.8294118 0.99215686 0.9882353
0.99215686 0.99215686 0.98431367
