assets/luts/LEICA BW NAT.cube
#Generated by Pennl1
#闲鱼号：LOOK胶片感
#公众号：胶片感
TITLE LEICA BW NAT
LUT_3D_SIZE 5
0.003921569 0.003921569 0.003921569
0.11862745 0.11862745 0.11862745
0.25686276 0.25686276 0.25686276
0.40784317 0.40784317 0.40784317
0.5568628 0.5568628 0.5568628
0.19117647 0.19117647 0.19117647
0.22769609 0.22769609 0.22769609
0.32009804 0.32009804 0.32009804
0.45098042 0.45098042 0.45098042
0.59019613 0.59019613 0.59019613
0.4 0.4 0.4
0.42352942 0.42352942 0.42352942
0.47941178 0.47941178 0.47941178
0.5735295 0.5735295 0.5735295
0.68039215 0.68039215 0.68039215
0.6264706 0.6264706 0.6264706
0.639951 0.639951 0.639951
0.67598045 0.67598045 0.67598045
0.7401961 0.7401961 0.7401961
0.8245098 0.8245098 0.8245098
0.85490197 0.85490197 0.85490197
0.8598039 0.8598039 0.8598039
0.88627446 0.88627446 0.88627446
0.9313726 0.9313726 0.9313726
0.9960785 0.9960785 0.9960785
0.0 0.0 0.0
0.12450981 0.12450981 0.12450981
0.25784314 0.25784314 0.25784314
0.4056373 0.4056373 0.4056373
0.55784315 0.55784315 0.55784315
0.19583334 0.19583334 0.19583334
0.22886029 0.22886029 0.22886029
0.32279414 0.32279414 0.32279414
0.4480392 0.4480392 0.4480392
0.5894608 0.5894608 0.5894608
0.39901957 0.39901957 0.39901957
0.42414215 0.42414215 0.42414215
0.48161763 0.48161763 0.48161763
0.5741422 0.5741422 0.5741422
0.68039215 0.68039215 0.68039215
0.6254902 0.6254902 0.6254902
0.64215684 0.64215684 0.64215684
0.6765932 0.6765932 0.6765932
0.7403799 0.7403799 0.7403799
0.82671565 0.82671565 0.82671565
0.8568628 0.8568628 0.8568628
0.86274505 0.86274505 0.86274505
0.8877451 0.8877451 0.8877451
0.93357843 0.93357843 0.93357843
0.99705887 0.99705887 0.99705887
0.0 0.0 0.0
0.12401962 0.12401962 0.12401962
0.26078433 0.26078433 0.26078433
0.40784314 0.40784314 0.40784314
0.5588236 0.5588236 0.5588236
0.19509806 0.19509806 0.19509806
0.23112746 0.23112746 0.23112746
0.3213235 0.3213235 0.3213235
0.45085785 0.45085785 0.45085785
0.58970594 0.58970594 0.58970594
0.40392154 0.40392154 0.40392154
0.42401963 0.42401963 0.42401963
0.48186272 0.48186272 0.48186272
0.5735295 0.5735295 0.5735295
0.67941177 0.67941177 0.67941177
0.62647057 0.62647057 0.62647057
0.64031863 0.64031863 0.64031863
0.6779412 0.6779412 0.6779412
0.74191177 0.74191177 0.74191177
0.8254901 0.8254901 0.8254901
0.8568628 0.8568628 0.8568628
0.8622549 0.8622549 0.8622549
0.8882353 0.8882353 0.8882353
0.93235296 0.93235296 0.93235296
0.99803925 0.99803925 0.99803925
0.0029411765 0.0029411765 0.0029411765
0.1259804 0.1259804 0.1259804
0.25931373 0.25931373 0.25931373
0.40637255 0.40637255 0.40637255
0.55784315 0.55784315 0.55784315
0.19509806 0.19509806 0.19509806
0.22916667 0.22916667 0.22916667
0.32009804 0.32009804 0.32009804
0.44840685 0.44840685 0.44840685
0.5875 0.5875 0.5875
0.39901957 0.39901957 0.39901957
0.4267157 0.4267157 0.4267157
0.48284316 0.48284316 0.48284316
0.5724265 0.5724265 0.5724265
0.6843138 0.6843138 0.6843138
0.6247549 0.6247549 0.6247549
0.6415441 0.6415441 0.6415441
0.67732847 0.67732847 0.67732847
0.7409314 0.7409314 0.7409314
0.8245098 0.8245098 0.8245098
0.85490197 0.85490197 0.85490197
0.86274505 0.86274505 0.86274505
0.8848039 0.8848039 0.8848039
0.93063736 0.93063736 0.93063736
0.9990196 0.9990196 0.9990196
0.0 0.0 0.0
0.12450981 0.12450981 0.12450981
0.25882354 0.25882354 0.25882354
0.40686277 0.40686277 0.40686277
0.5568628 0.5568628 0.5568628
0.19411765 0.19411765 0.19411765
0.23014708 0.23014708 0.23014708
0.32205883 0.32205883 0.32205883
0.45171574 0.45171574 0.45171574
0.58725494 0.58725494 0.58725494
0.39999995 0.39999995 0.39999995
0.42352942 0.42352942 0.42352942
0.48137257 0.48137257 0.48137257
0.5710785 0.5710785 0.5710785
0.68235296 0.68235296 0.68235296
0.6245098 0.6245098 0.6245098
0.6406863 0.6406863 0.6406863
0.6769608 0.6769608 0.6769608
0.7433824 0.7433824 0.7433824
0.8245098 0.8245098 0.8245098
0.85490197 0.85490197 0.85490197
0.86176467 0.86176467 0.86176467
0.88627446 0.88627446 0.88627446
0.9303922 0.9303922 0.9303922
0.9960785 0.9960785 0.9960785
