assets/luts/LEICA BW NAT.cube
#Generated by Pennl1
#闲鱼号：LOOK胶片感
#公众号：胶片感
TITLE LEICA BW NAT
LUT_3D_SIZE 9
0.003921569 0.003921569 0.003921569
0.06176471 0.06176471 0.06176471
0.11862745 0.11862745 0.11862745
0.19068629 0.19068629 0.19068629
0.25686276 0.25686276 0.25686276
0.33137256 0.33137256 0.33137256
0.40784317 0.40784317 0.40784317
0.48186272 0.48186272 0.48186272
0.5568628 0.5568628 0.5568628
0.092156865 0.092156865 0.092156865
0.11525735 0.11525735 0.11525735
0.15686275 0.15686275 0.15686275
0.2127451 0.2127451 0.2127451
0.2762255 0.2762255 0.2762255
0.349326 0.349326 0.349326
0.4198529 0.4198529 0.4198529
0.49662992 0.49662992 0.49662992
0.57009804 0.57009804 0.57009804
0.19117647 0.19117647 0.19117647
0.20833333 0.20833333 0.20833333
0.22769609 0.22769609 0.22769609
0.26825982 0.26825982 0.26825982
0.32009804 0.32009804 0.32009804
0.38333333 0.38333333 0.38333333
0.45098042 0.45098042 0.45098042
0.517402 0.517402 0.517402
0.59019613 0.59019613 0.59019613
0.28921568 0.28921568 0.28921568
0.296875 0.296875 0.296875
0.3182598 0.3182598 0.3182598
0.34601712 0.34601712 0.34601712
0.39093137 0.39093137 0.39093137
0.44754905 0.44754905 0.44754905
0.50294125 0.50294125 0.50294125
0.5656863 0.5656863 0.5656863
0.6254902 0.6254902 0.6254902
0.4 0.4 0.4
0.4105392 0.4105392 0.4105392
0.42352942 0.42352942 0.42352942
0.44656864 0.44656864 0.44656864
0.47941178 0.47941178 0.47941178
0.52401966 0.52401966 0.52401966
0.5735295 0.5735295 0.5735295
0.6245098 0.6245098 0.6245098
0.68039215 0.68039215 0.68039215
0.51911765 0.51911765 0.51911765
0.5284927 0.5284927 0.5284927
0.5376226 0.5376226 0.5376226
0.5556985 0.5556985 0.5556985
0.58137256 0.58137256 0.58137256
0.6131128 0.6131128 0.6131128
0.6557598 0.6557598 0.6557598
0.7007966 0.7007966 0.7007966
0.7509804 0.7509804 0.7509804
0.6264706 0.6264706 0.6264706
0.6308824 0.6308824 0.6308824
0.639951 0.639951 0.639951
0.65379906 0.65379906 0.65379906
0.67598045 0.67598045 0.67598045
0.70624995 0.70624995 0.70624995
0.7401961 0.7401961 0.7401961
0.7813726 0.7813726 0.7813726
0.8245098 0.8245098 0.8245098
0.74509805 0.74509805 0.74509805
0.7534926 0.7534926 0.7534926
0.7583334 0.7583334 0.7583334
0.7720588 0.7720588 0.7720588
0.78921574 0.78921574 0.78921574
0.8151961 0.8151961 0.8151961
0.84191185 0.84191185 0.84191185
0.87205887 0.87205887 0.87205887
0.9142156 0.9142156 0.9142156
0.85490197 0.85490197 0.85490197
0.85637254 0.85637254 0.85637254
0.8598039 0.8598039 0.8598039
0.87058824 0.87058824 0.87058824
0.88627446 0.88627446 0.88627446
0.90588236 0.90588236 0.90588236
0.9313726 0.9313726 0.9313726
0.9632354 0.9632354 0.9632354
0.9960785 0.9960785 0.9960785
0.0024509805 0.0024509805 0.0024509805
0.06176471 0.06176471 0.06176471
0.12365197 0.12365197 0.12365197
0.19166666 0.19166666 0.19166666
0.26078433 0.26078433 0.26078433
0.33370098 0.33370098 0.33370098
0.40943632 0.40943632 0.40943632
0.48278183 0.48278183 0.48278183
0.5568628 0.5568628 0.5568628
0.092340685 0.092340685 0.092340685
0.11436122 0.11436122 0.11436122
0.15810356 0.15810356 0.15810356
0.21555607 0.21555607 0.21555607
0.2776348 0.2776348 0.2776348
0.3477252 0.3477252 0.3477252
0.41977635 0.41977635 0.41977635
0.49431682 0.49431682 0.49431682
0.5676471 0.5676471 0.5676471
0.19362745 0.19362745 0.19362745
0.20496325 0.20496325 0.20496325
0.23088235 0.23088235 0.23088235
0.26855087 0.26855087 0.26855087
0.321875 0.321875 0.321875
0.3837316 0.3837316 0.3837316
0.44957107 0.44957107 0.44957107
0.5196692 0.5196692 0.5196692
0.59068626 0.59068626 0.59068626
0.2897059 0.2897059 0.2897059
0.29835328 0.29835328 0.29835328
0.31660542 0.31660542 0.31660542
0.34762564 0.34762564 0.34762564
0.39197308 0.39197308 0.39197308
0.4451363 0.4451363 0.4451363
0.50352335 0.50352335 0.50352335
0.56550246 0.56550246 0.56550246
0.62647057 0.62647057 0.62647057
0.40171564 0.40171564 0.40171564
0.40989587 0.40989587 0.40989587
0.4253064 0.4253064 0.4253064
0.44754905 0.44754905 0.44754905
0.48100492 0.48100492 0.48100492
0.52466303 0.52466303 0.52466303
0.57212013 0.57212013 0.57212013
0.62742037 0.62742037 0.62742037
0.6811274 0.6811274 0.6811274
0.5159314 0.5159314 0.5159314
0.5254289 0.5254289 0.5254289
0.5370405 0.5370405 0.5370405
0.5550245 0.5550245 0.5550245
0.5825061 0.5825061 0.5825061
0.6122243 0.6122243 0.6122243
0.65825677 0.65825677 0.65825677
0.7040518 0.7040518 0.7040518
0.75361526 0.75361526 0.75361526
0.6265931 0.6265931 0.6265931
0.6318781 0.6318781 0.6318781
0.64313734 0.64313734 0.64313734
0.6544424 0.6544424 0.6544424
0.6770221 0.6770221 0.6770221
0.70534617 0.70534617 0.70534617
0.7420037 0.7420037 0.7420037
0.78405327 0.78405327 0.78405327
0.8256127 0.8256127 0.8256127
0.7471814 0.7471814 0.7471814
0.75230545 0.75230545 0.75230545
0.76230085 0.76230085 0.76230085
0.7704504 0.7704504 0.7704504
0.7900123 0.7900123 0.7900123
0.81365657 0.81365657 0.81365657
0.8414829 0.8414829 0.8414829
0.87395835 0.87395835 0.87395835
0.9148284 0.9148284 0.9148284
0.8558824 0.8558824 0.8558824
0.85729164 0.85729164 0.85729164
0.86274505 0.86274505 0.86274505
0.87236524 0.87236524 0.87236524
0.8862745 0.8862745 0.8862745
0.90931374 0.90931374 0.90931374
0.93210787 0.93210787 0.93210787
0.9617647 0.9617647 0.9617647
0.9960785 0.9960785 0.9960785
0.0 0.0 0.0
0.0632353 0.0632353 0.0632353
0.12450981 0.12450981 0.12450981
0.19289216 0.19289216 0.19289216
0.25784314 0.25784314 0.25784314
0.3339461 0.3339461 0.3339461
0.4056373 0.4056373 0.4056373
0.48639706 0.48639706 0.48639706
0.55784315 0.55784315 0.55784315
0.089215696 0.089215696 0.089215696
0.11321998 0.11321998 0.11321998
0.15818015 0.15818015 0.15818015
0.21761642 0.21761642 0.21761642
0.2796569 0.2796569 0.2796569
0.35088852 0.35088852 0.35088852
0.42135412 0.42135412 0.42135412
0.49687502 0.49687502 0.49687502
0.5667892 0.5667892 0.5667892
0.19583334 0.19583334 0.19583334
0.2057598 0.2057598 0.2057598
0.22886029 0.22886029 0.22886029
0.27037382 0.27037382 0.27037382
0.32279414 0.32279414 0.32279414
0.38149506 0.38149506 0.38149506
0.4480392 0.4480392 0.4480392
0.5185049 0.5185049 0.5185049
0.5894608 0.5894608 0.5894608
0.28737745 0.28737745 0.28737745
0.2944853 0.2944853 0.2944853
0.31596202 0.31596202 0.31596202
0.34863666 0.34863666 0.34863666
0.3911765 0.3911765 0.3911765
0.44716606 0.44716606 0.44716606
0.50294125 0.50294125 0.50294125
0.5674173 0.5674173 0.5674173
0.6254902 0.6254902 0.6254902
0.39901957 0.39901957 0.39901957
0.40753677 0.40753677 0.40753677
0.42414215 0.42414215 0.42414215
0.4485907 0.4485907 0.4485907
0.48161763 0.48161763 0.48161763
0.5248163 0.5248163 0.5248163
0.5741422 0.5741422 0.5741422
0.6279412 0.6279412 0.6279412
0.68039215 0.68039215 0.68039215
0.5165441 0.5165441 0.5165441
0.5251072 0.5251072 0.5251072
0.53710175 0.53710175 0.53710175
0.55683213 0.55683213 0.55683213
0.58302695 0.58302695 0.58302695
0.6152114 0.6152114 0.6152114
0.65545344 0.65545344 0.65545344
0.7002758 0.7002758 0.7002758
0.7536765 0.7536765 0.7536765
0.6254902 0.6254902 0.6254902
0.6293199 0.6293199 0.6293199
0.64215684 0.64215684 0.64215684
0.65462625 0.65462625 0.65462625
0.6765932 0.6765932 0.6765932
0.705576 0.705576 0.705576
0.7403799 0.7403799 0.7403799
0.78465074 0.78465074 0.78465074
0.82671565 0.82671565 0.82671565
0.74730396 0.74730396 0.74730396
0.7507966 0.7507966 0.7507966
0.75863975 0.75863975 0.75863975
0.77299327 0.77299327 0.77299327
0.7884804 0.7884804 0.7884804
0.81317407 0.81317407 0.81317407
0.8426777 0.8426777 0.8426777
0.87483144 0.87483144 0.87483144
0.916299 0.916299 0.916299
0.8568628 0.8568628 0.8568628
0.85882354 0.85882354 0.85882354
0.86274505 0.86274505 0.86274505
0.87352943 0.87352943 0.87352943
0.8877451 0.8877451 0.8877451
0.90931374 0.90931374 0.90931374
0.93357843 0.93357843 0.93357843
0.9621323 0.9621323 0.9621323
0.99705887 0.99705887 0.99705887
0.0 0.0 0.0
0.06409314 0.06409314 0.06409314
0.12463236 0.12463236 0.12463236
0.18768382 0.18768382 0.18768382
0.25906864 0.25906864 0.25906864
0.33180147 0.33180147 0.33180147
0.4105392 0.4105392 0.4105392
0.48694855 0.48694855 0.48694855
0.56029415 0.56029415 0.56029415
0.094607845 0.094607845 0.094607845
0.11343443 0.11343443 0.11343443
0.15814951 0.15814951 0.15814951
0.21259956 0.21259956 0.21259956
0.2782782 0.2782782 0.2782782
0.34967834 0.34967834 0.34967834
0.41924018 0.41924018 0.41924018
0.49406406 0.49406406 0.49406406
0.56666666 0.56666666 0.56666666
0.19607843 0.19607843 0.19607843
0.2064032 0.2064032 0.2064032
0.22680761 0.22680761 0.22680761
0.26893383 0.26893383 0.26893383
0.32205883 0.32205883 0.32205883
0.38638175 0.38638175 0.38638175
0.45042896 0.45042896 0.45042896
0.5205423 0.5205423 0.5205423
0.59105396 0.59105396 0.59105396
0.28590688 0.28590688 0.28590688
0.29852945 0.29852945 0.29852945
0.31493568 0.31493568 0.31493568
0.3485907 0.3485907 0.3485907
0.38921568 0.38921568 0.38921568
0.44448528 0.44448528 0.44448528
0.5006893 0.5006893 0.5006893
0.56617653 0.56617653 0.56617653
0.62849265 0.62849265 0.62849265
0.4002451 0.4002451 0.4002451
0.40974265 0.40974265 0.40974265
0.42248774 0.42248774 0.42248774
0.44865197 0.44865197 0.44865197
0.48063728 0.48063728 0.48063728
0.5244792 0.5244792 0.5244792
0.5730393 0.5730393 0.5730393
0.62653184 0.62653184 0.62653184
0.68455887 0.68455887 0.68455887
0.5216912 0.5216912 0.5216912
0.52313876 0.52313876 0.52313876
0.5373009 0.5373009 0.5373009
0.5549556 0.5549556 0.5549556
0.5800552 0.5800552 0.5800552
0.61312044 0.61312044 0.61312044
0.65511644 0.65511644 0.65511644
0.70251226 0.70251226 0.70251226
0.7509804 0.7509804 0.7509804
0.62953436 0.62953436 0.62953436
0.62910545 0.62910545 0.62910545
0.6421569 0.6421569 0.6421569
0.6545037 0.6545037 0.6545037
0.67647064 0.67647064 0.67647064
0.70341605 0.70341605 0.70341605
0.74022675 0.74022675 0.74022675
0.78419113 0.78419113 0.78419113
0.82622546 0.82622546 0.82622546
0.74656856 0.74656856 0.74656856
0.7519225 0.7519225 0.7519225
0.75620407 0.75620407 0.75620407
0.77081037 0.77081037 0.77081037
0.7884804 0.7884804 0.7884804
0.8137408 0.8137408 0.8137408
0.8376991 0.8376991 0.8376991
0.8748698 0.8748698 0.8748698
0.91452205 0.91452205 0.91452205
0.85490197 0.85490197 0.85490197
0.85833335 0.85833335 0.85833335
0.8618872 0.8618872 0.8618872
0.8745099 0.8745099 0.8745099
0.8879902 0.8879902 0.8879902
0.90839463 0.90839463 0.90839463
0.9338235 0.9338235 0.9338235
0.96292895 0.96292895 0.96292895
0.9960785 0.9960785 0.9960785
0.0 0.0 0.0
0.0625 0.0625 0.0625
0.12401962 0.12401962 0.12401962
0.19191176 0.19191176 0.19191176
0.26078433 0.26078433 0.26078433
0.33308825 0.33308825 0.33308825
0.40784314 0.40784314 0.40784314
0.4811274 0.4811274 0.4811274
0.5588236 0.5588236 0.5588236
0.09289216 0.09289216 0.09289216
0.11467525 0.11467525 0.11467525
0.15870097 0.15870097 0.15870097
0.21363358 0.21363358 0.21363358
0.27708334 0.27708334 0.27708334
0.34754905 0.34754905 0.34754905
0.4219363 0.4219363 0.4219363
0.49607843 0.49607843 0.49607843
0.5686275 0.5686275 0.5686275
0.19509806 0.19509806 0.19509806
0.20386027 0.20386027 0.20386027
0.23112746 0.23112746 0.23112746
0.26905638 0.26905638 0.26905638
0.3213235 0.3213235 0.3213235
0.38210785 0.38210785 0.38210785
0.45085785 0.45085785 0.45085785
0.5181373 0.5181373 0.5181373
0.58970594 0.58970594 0.58970594
0.28774512 0.28774512 0.28774512
0.29748777 0.29748777 0.29748777
0.31715685 0.31715685 0.31715685
0.34733456 0.34733456 0.34733456
0.39350492 0.39350492 0.39350492
0.44715074 0.44715074 0.44715074
0.50318635 0.50318635 0.50318635
0.5673101 0.5673101 0.5673101
0.62892157 0.62892157 0.62892157
0.40392154 0.40392154 0.40392154
0.40796575 0.40796575 0.40796575
0.42401963 0.42401963 0.42401963
0.44816178 0.44816178 0.44816178
0.48186272 0.48186272 0.48186272
0.5259805 0.5259805 0.5259805
0.5735295 0.5735295 0.5735295
0.6257353 0.6257353 0.6257353
0.67941177 0.67941177 0.67941177
0.52205884 0.52205884 0.52205884
0.5285233 0.5285233 0.5285233
0.5373775 0.5373775 0.5373775
0.55490196 0.55490196 0.55490196
0.5817402 0.5817402 0.5817402
0.6163603 0.6163603 0.6163603
0.6580882 0.6580882 0.6580882
0.7035846 0.7035846 0.7035846
0.7512255 0.7512255 0.7512255
0.62647057 0.62647057 0.62647057
0.6327206 0.6327206 0.6327206
0.64031863 0.64031863 0.64031863
0.6553309 0.6553309 0.6553309
0.6779412 0.6779412 0.6779412
0.7070466 0.7070466 0.7070466
0.74191177 0.74191177 0.74191177
0.78302693 0.78302693 0.78302693
0.8254901 0.8254901 0.8254901
0.7504902 0.7504902 0.7504902
0.7524816 0.7524816 0.7524816
0.7592524 0.7592524 0.7592524
0.7712623 0.7712623 0.7712623
0.78921574 0.78921574 0.78921574
0.81470585 0.81470585 0.81470585
0.8442401 0.8442401 0.8442401
0.87447923 0.87447923 0.87447923
0.9142156 0.9142156 0.9142156
0.8568628 0.8568628 0.8568628
0.85735303 0.85735303 0.85735303
0.8622549 0.8622549 0.8622549
0.8727941 0.8727941 0.8727941
0.8882353 0.8882353 0.8882353
0.90759796 0.90759796 0.90759796
0.93235296 0.93235296 0.93235296
0.96446085 0.96446085 0.96446085
0.99803925 0.99803925 0.99803925
0.003921569 0.003921569 0.003921569
0.061948534 0.061948534 0.061948534
0.12254902 0.12254902 0.12254902
0.18762255 0.18762255 0.18762255
0.26029414 0.26029414 0.26029414
0.3322304 0.3322304 0.3322304
0.40882355 0.40882355 0.40882355
0.48609066 0.48609066 0.48609066
0.5534314 0.5534314 0.5534314
0.089338236 0.089338236 0.089338236
0.11532629 0.11532629 0.11532629
0.15865503 0.15865503 0.15865503
0.2149663 0.2149663 0.2149663
0.27833948 0.27833948 0.27833948
0.34524357 0.34524357 0.34524357
0.4188419 0.4188419 0.4188419
0.49508274 0.49508274 0.49508274
0.5685049 0.5685049 0.5685049
0.1942402 0.1942402 0.1942402
0.20536152 0.20536152 0.20536152
0.2329657 0.2329657 0.2329657
0.26868874 0.26868874 0.26868874
0.32113972 0.32113972 0.32113972
0.3825368 0.3825368 0.3825368
0.45116425 0.45116425 0.45116425
0.5205117 0.5205117 0.5205117
0.59019613 0.59019613 0.59019613
0.2863358 0.2863358 0.2863358
0.2952053 0.2952053 0.2952053
0.31521142 0.31521142 0.31521142
0.34607077 0.34607077 0.34607077
0.3905331 0.3905331 0.3905331
0.44374233 0.44374233 0.44374233
0.5030485 0.5030485 0.5030485
0.5671952 0.5671952 0.5671952
0.6259191 0.6259191 0.6259191
0.3980392 0.3980392 0.3980392
0.4080882 0.4080882 0.4080882
0.42518383 0.42518383 0.42518383
0.4467218 0.4467218 0.4467218
0.48063728 0.48063728 0.48063728
0.52405024 0.52405024 0.52405024
0.5734682 0.5734682 0.5734682
0.62714463 0.62714463 0.62714463
0.6840687 0.6840687 0.6840687
0.52500004 0.52500004 0.52500004
0.5257353 0.5257353 0.5257353
0.5377451 0.5377451 0.5377451
0.55554533 0.55554533 0.55554533
0.5833946 0.5833946 0.5833946
0.61322767 0.61322767 0.61322767
0.6558517 0.6558517 0.6558517
0.70433515 0.70433515 0.70433515
0.7514093 0.7514093 0.7514093
0.6276961 0.6276961 0.6276961
0.6322917 0.6322917 0.6322917
0.6428616 0.6428616 0.6428616
0.652788 0.652788 0.652788
0.67665446 0.67665446 0.67665446
0.70508575 0.70508575 0.70508575
0.74047184 0.74047184 0.74047184
0.78161764 0.78161764 0.78161764
0.82622546 0.82622546 0.82622546
0.74638486 0.74638486 0.74638486
0.7531173 0.7531173 0.7531173
0.75825673 0.75825673 0.75825673
0.7708793 0.7708793 0.7708793
0.7887255 0.7887255 0.7887255
0.81325823 0.81325823 0.81325823
0.8432751 0.8432751 0.8432751
0.87437195 0.87437195 0.87437195
0.9142156 0.9142156 0.9142156
0.8514706 0.8514706 0.8514706
0.8566789 0.8566789 0.8566789
0.8618872 0.8618872 0.8618872
0.8710785 0.8710785 0.8710785
0.8843137 0.8843137 0.8843137
0.9084559 0.9084559 0.9084559
0.9339461 0.9339461 0.9339461
0.9619486 0.9619486 0.9619486
0.9960785 0.9960785 0.9960785
0.0029411765 0.0029411765 0.0029411765
0.061397057 0.061397057 0.061397057
0.1259804 0.1259804 0.1259804
0.19289216 0.19289216 0.19289216
0.25931373 0.25931373 0.25931373
0.3349265 0.3349265 0.3349265
0.40637255 0.40637255 0.40637255
0.48627454 0.48627454 0.48627454
0.55784315 0.55784315 0.55784315
0.09068628 0.09068628 0.09068628
0.113679536 0.113679536 0.113679536
0.16130514 0.16130514 0.16130514
0.21550244 0.21550244 0.21550244
0.27849266 0.27849266 0.27849266
0.3484988 0.3484988 0.3484988
0.4208027 0.4208027 0.4208027
0.4971354 0.4971354 0.4971354
0.56911767 0.56911767 0.56911767
0.19509806 0.19509806 0.19509806
0.20468748 0.20468748 0.20468748
0.22916667 0.22916667 0.22916667
0.2701287 0.2701287 0.2701287
0.32009804 0.32009804 0.32009804
0.383701 0.383701 0.383701
0.44840685 0.44840685 0.44840685
0.5173101 0.5173101 0.5173101
0.5875 0.5875 0.5875
0.28725493 0.28725493 0.28725493
0.29413298 0.29413298 0.29413298
0.31482846 0.31482846 0.31482846
0.34667584 0.34667584 0.34667584
0.39227942 0.39227942 0.39227942
0.44546568 0.44546568 0.44546568
0.5037071 0.5037071 0.5037071
0.567739 0.567739 0.567739
0.6276961 0.6276961 0.6276961
0.39901957 0.39901957 0.39901957
0.40986523 0.40986523 0.40986523
0.4267157 0.4267157 0.4267157
0.45036766 0.45036766 0.45036766
0.48284316 0.48284316 0.48284316
0.52450985 0.52450985 0.52450985
0.5724265 0.5724265 0.5724265
0.62696075 0.62696075 0.62696075
0.6843138 0.6843138 0.6843138
0.5185049 0.5185049 0.5185049
0.5238511 0.5238511 0.5238511
0.5387255 0.5387255 0.5387255
0.55597425 0.55597425 0.55597425
0.5833946 0.5833946 0.5833946
0.61343443 0.61343443 0.61343443
0.65814954 0.65814954 0.65814954
0.70562196 0.70562196 0.70562196
0.751348 0.751348 0.751348
0.6247549 0.6247549 0.6247549
0.63036156 0.63036156 0.63036156
0.6415441 0.6415441 0.6415441
0.654228 0.654228 0.654228
0.67732847 0.67732847 0.67732847
0.70597416 0.70597416 0.70597416
0.7409314 0.7409314 0.7409314
0.7846201 0.7846201 0.7846201
0.8245098 0.8245098 0.8245098
0.74693626 0.74693626 0.74693626
0.7523438 0.7523438 0.7523438
0.75937504 0.75937504 0.75937504
0.7696385 0.7696385 0.7696385
0.7889706 0.7889706 0.7889706
0.8131894 0.8131894 0.8131894
0.84304535 0.84304535 0.84304535
0.8751532 0.8751532 0.8751532
0.9142156 0.9142156 0.9142156
0.85490197 0.85490197 0.85490197
0.85637254 0.85637254 0.85637254
0.86274505 0.86274505 0.86274505
0.8707108 0.8707108 0.8707108
0.8848039 0.8848039 0.8848039
0.90894604 0.90894604 0.90894604
0.93063736 0.93063736 0.93063736
0.9632354 0.9632354 0.9632354
0.9990196 0.9990196 0.9990196
0.0053921575 0.0053921575 0.0053921575
0.0632353 0.0632353 0.0632353
0.124754906 0.124754906 0.124754906
0.18890932 0.18890932 0.18890932
0.26200983 0.26200983 0.26200983
0.33529413 0.33529413 0.33529413
0.40955883 0.40955883 0.40955883
0.48615193 0.48615193 0.48615193
0.5568628 0.5568628 0.5568628
0.09454658 0.09454658 0.09454658
0.11294424 0.11294424 0.11294424
0.16053922 0.16053922 0.16053922
0.21570158 0.21570158 0.21570158
0.27726716 0.27726716 0.27726716
0.35031405 0.35031405 0.35031405
0.4192555 0.4192555 0.4192555
0.49688268 0.49688268 0.49688268
0.56801474 0.56801474 0.56801474
0.1947304 0.1947304 0.1947304
0.20467216 0.20467216 0.20467216
0.22977942 0.22977942 0.22977942
0.26850492 0.26850492 0.26850492
0.32181373 0.32181373 0.32181373
0.38374692 0.38374692 0.38374692
0.45104164 0.45104164 0.45104164
0.5196232 0.5196232 0.5196232
0.59019613 0.59019613 0.59019613
0.2882353 0.2882353 0.2882353
0.29889706 0.29889706 0.29889706
0.31397063 0.31397063 0.31397063
0.3491805 0.3491805 0.3491805
0.39289218 0.39289218 0.39289218
0.44703585 0.44703585 0.44703585
0.50395226 0.50395226 0.50395226
0.5650735 0.5650735 0.5650735
0.62892157 0.62892157 0.62892157
0.4034314 0.4034314 0.4034314
0.41265315 0.41265315 0.41265315
0.42450982 0.42450982 0.42450982
0.44684437 0.44684437 0.44684437
0.48112747 0.48112747 0.48112747
0.52518386 0.52518386 0.52518386
0.5708334 0.5708334 0.5708334
0.62723655 0.62723655 0.62723655
0.6811274 0.6811274 0.6811274
0.5217525 0.5217525 0.5217525
0.529588 0.529588 0.529588
0.53700984 0.53700984 0.53700984
0.55530787 0.55530787 0.55530787
0.58118874 0.58118874 0.58118874
0.6144608 0.6144608 0.6144608
0.65539217 0.65539217 0.65539217
0.70324755 0.70324755 0.70324755
0.75147057 0.75147057 0.75147057
0.6276961 0.6276961 0.6276961
0.6297641 0.6297641 0.6297641
0.64031863 0.64031863 0.64031863
0.65353864 0.65353864 0.65353864
0.67604166 0.67604166 0.67604166
0.70787376 0.70787376 0.70787376
0.7375 0.7375 0.7375
0.78281254 0.78281254 0.78281254
0.8245098 0.8245098 0.8245098
0.74448526 0.74448526 0.74448526
0.7517539 0.7517539 0.7517539
0.75968146 0.75968146 0.75968146
0.7718291 0.7718291 0.7718291
0.78921574 0.78921574 0.78921574
0.81325823 0.81325823 0.81325823
0.8410693 0.8410693 0.8410693
0.8748545 0.8748545 0.8748545
0.9142156 0.9142156 0.9142156
0.85490197 0.85490197 0.85490197
0.85882354 0.85882354 0.85882354
0.8645834 0.8645834 0.8645834
0.8721814 0.8721814 0.8721814
0.8882353 0.8882353 0.8882353
0.9077206 0.9077206 0.9077206
0.9328431 0.9328431 0.9328431
0.9617647 0.9617647 0.9617647
0.9936275 0.9936275 0.9936275
0.0 0.0 0.0
0.06176471 0.06176471 0.06176471
0.12450981 0.12450981 0.12450981
0.19019608 0.19019608 0.19019608
0.25882354 0.25882354 0.25882354
0.33137256 0.33137256 0.33137256
0.40686277 0.40686277 0.40686277
0.48284316 0.48284316 0.48284316
0.5568628 0.5568628 0.5568628
0.0882353 0.0882353 0.0882353
0.114705876 0.114705876 0.114705876
0.15980393 0.15980393 0.15980393
0.21047796 0.21047796 0.21047796
0.2779412 0.2779412 0.2779412
0.34785542 0.34785542 0.34785542
0.4219363 0.4219363 0.4219363
0.4960785 0.4960785 0.4960785
0.5661765 0.5661765 0.5661765
0.19411765 0.19411765 0.19411765
0.20612745 0.20612745 0.20612745
0.23014708 0.23014708 0.23014708
0.26593137 0.26593137 0.26593137
0.32205883 0.32205883 0.32205883
0.38419122 0.38419122 0.38419122
0.45171574 0.45171574 0.45171574
0.5166667 0.5166667 0.5166667
0.58725494 0.58725494 0.58725494
0.28578433 0.28578433 0.28578433
0.2988358 0.2988358 0.2988358
0.31556374 0.31556374 0.31556374
0.34558824 0.34558824 0.34558824
0.39264706 0.39264706 0.39264706
0.44368872 0.44368872 0.44368872
0.5030638 0.5030638 0.5030638
0.5658701 0.5658701 0.5658701
0.6284314 0.6284314 0.6284314
0.39999995 0.39999995 0.39999995
0.40931374 0.40931374 0.40931374
0.42352942 0.42352942 0.42352942
0.44460785 0.44460785 0.44460785
0.48137257 0.48137257 0.48137257
0.5257354 0.5257354 0.5257354
0.5710785 0.5710785 0.5710785
0.6269608 0.6269608 0.6269608
0.68235296 0.68235296 0.68235296
0.5151961 0.5151961 0.5151961
0.5276348 0.5276348 0.5276348
0.53676474 0.53676474 0.53676474
0.55490196 0.55490196 0.55490196
0.58161765 0.58161765 0.58161765
0.6161765 0.6161765 0.6161765
0.65563726 0.65563726 0.65563726
0.7029412 0.7029412 0.7029412
0.75147057 0.75147057 0.75147057
0.6245098 0.6245098 0.6245098
0.6319853 0.6319853 0.6319853
0.6406863 0.6406863 0.6406863
0.6550245 0.6550245 0.6550245
0.6769608 0.6769608 0.6769608
0.7060048 0.7060048 0.7060048
0.7433824 0.7433824 0.7433824
0.7813726 0.7813726 0.7813726
0.8245098 0.8245098 0.8245098
0.74656856 0.74656856 0.74656856
0.75441176 0.75441176 0.75441176
0.7606618 0.7606618 0.7606618
0.7718751 0.7718751 0.7718751
0.79044116 0.79044116 0.79044116
0.81403184 0.81403184 0.81403184
0.8441176 0.8441176 0.8441176
0.8759804 0.8759804 0.8759804
0.9142156 0.9142156 0.9142156
0.85490197 0.85490197 0.85490197
0.85882354 0.85882354 0.85882354
0.86176467 0.86176467 0.86176467
0.8710785 0.8710785 0.8710785
0.88627446 0.88627446 0.88627446
0.90588236 0.90588236 0.90588236
0.9303922 0.9303922 0.9303922
0.9632354 0.9632354 0.9632354
0.9960785 0.9960785 0.9960785
