assets/luts/LEICA BW NAT.cube
#Generated by Pennl1
#闲鱼号：LOOK胶片感
#公众号：胶片感
TITLE LEICA BW NAT
LUT_3D_SIZE 33
0.003921569 0.003921569 0.003921569
0.018627452 0.018627452 0.018627452
0.04779412 0.04779412 0.04779412
0.053186275 0.053186275 0.053186275
0.06176471 0.06176471 0.06176471
0.072181374 0.072181374 0.072181374
0.087254904 0.087254904 0.087254904
0.10441177 0.10441177 0.10441177
0.11862745 0.11862745 0.11862745
0.14142157 0.14142157 0.14142157
0.15980393 0.15980393 0.15980393
0.1692402 0.1692402 0.1692402
0.19068629 0.19068629 0.19068629
0.21041667 0.21041667 0.21041667
0.22328432 0.22328432 0.22328432
0.2377451 0.2377451 0.2377451
0.25686276 0.25686276 0.25686276
0.27830884 0.27830884 0.27830884
0.29436275 0.29436275 0.29436275
0.31335786 0.31335786 0.31335786
0.33137256 0.33137256 0.33137256
0.3447304 0.3447304 0.3447304
0.36617646 0.36617646 0.36617646
0.39068627 0.39068627 0.39068627
0.40784317 0.40784317 0.40784317
0.42769608 0.42769608 0.42769608
0.45 0.45 0.45
0.46715686 0.46715686 0.46715686
0.48186272 0.48186272 0.48186272
0.5060049 0.5060049 0.5060049
0.5264706 0.5264706 0.5264706
0.5471814 0.5471814 0.5471814
0.5568628 0.5568628 0.5568628
0.026102943 0.026102943 0.026102943
0.044941027 0.044941027 0.044941027
0.05245098 0.05245098 0.05245098
0.05894608 0.05894608 0.05894608
0.07048101 0.07048101 0.07048101
0.08112745 0.08112745 0.08112745
0.09820006 0.09820006 0.09820006
0.114338234 0.114338234 0.114338234
0.12987132 0.12987132 0.12987132
0.14362745 0.14362745 0.14362745
0.16350338 0.16350338 0.16350338
0.18077129 0.18077129 0.18077129
0.19492953 0.19492953 0.19492953
0.2135608 0.2135608 0.2135608
0.22487745 0.22487745 0.22487745
0.2407399 0.2407399 0.2407399
0.25759804 0.25759804 0.25759804
0.27634805 0.27634805 0.27634805
0.29594824 0.29594824 0.29594824
0.31479013 0.31479013 0.31479013
0.33489585 0.33489585 0.33489585
0.34900817 0.34900817 0.34900817
0.36666662 0.36666662 0.36666662
0.38861057 0.38861057 0.38861057
0.41087624 0.41087624 0.41087624
0.42793733 0.42793733 0.42793733
0.44844514 0.44844514 0.44844514
0.46379828 0.46379828 0.46379828
0.4833487 0.4833487 0.4833487
0.5074755 0.5074755 0.5074755
0.52365196 0.52365196 0.52365196
0.54718137 0.54718137 0.54718137
0.56078434 0.56078434 0.56078434
0.053186275 0.053186275 0.053186275
0.05740656 0.05740656 0.05740656
0.061167285 0.061167285 0.061167285
0.06805301 0.06805301 0.06805301
0.08039216 0.08039216 0.08039216
0.093604475 0.093604475 0.093604475
0.10906864 0.10906864 0.10906864
0.12268689 0.12268689 0.12268689
0.13504903 0.13504903 0.13504903
0.14915748 0.14915748 0.14915748
0.16593137 0.16593137 0.16593137
0.18161766 0.18161766 0.18161766
0.19886643 0.19886643 0.19886643
0.215648 0.215648 0.215648
0.22939643 0.22939643 0.22939643
0.24775581 0.24775581 0.24775581
0.26544118 0.26544118 0.26544118
0.2816713 0.2816713 0.2816713
0.2980239 0.2980239 0.2980239
0.32107842 0.32107842 0.32107842
0.3365196 0.3365196 0.3365196
0.35318634 0.35318634 0.35318634
0.37455577 0.37455577 0.37455577
0.39596355 0.39596355 0.39596355
0.41250002 0.41250002 0.41250002
0.43100488 0.43100488 0.43100488
0.45041355 0.45041355 0.45041355
0.46963078 0.46963078 0.46963078
0.48851103 0.48851103 0.48851103
0.5110294 0.5110294 0.5110294
0.5278033 0.5278033 0.5278033
0.5501379 0.5501379 0.5501379
0.5615196 0.5615196 0.5615196
0.069362745 0.069362745 0.069362745
0.07338772 0.07338772 0.07338772
0.07565104 0.07565104 0.07565104
0.08333334 0.08333334 0.08333334
0.092968754 0.092968754 0.092968754
0.10646829 0.10646829 0.10646829
0.12179842 0.12179842 0.12179842
0.13171723 0.13171723 0.13171723
0.14181986 0.14181986 0.14181986
0.16102941 0.16102941 0.16102941
0.17776501 0.17776501 0.17776501
0.1870098 0.1870098 0.1870098
0.20451899 0.20451899 0.20451899
0.22266774 0.22266774 0.22266774
0.23578432 0.23578432 0.23578432
0.25245097 0.25245097 0.25245097
0.26973042 0.26973042 0.26973042
0.28999314 0.28999314 0.28999314
0.3040671 0.3040671 0.3040671
0.32474723 0.32474723 0.32474723
0.34163603 0.34163603 0.34163603
0.35857847 0.35857847 0.35857847
0.37897524 0.37897524 0.37897524
0.40183824 0.40183824 0.40183824
0.41623774 0.41623774 0.41623774
0.43601793 0.43601793 0.43601793
0.45379132 0.45379132 0.45379132
0.47294345 0.47294345 0.47294345
0.49149817 0.49149817 0.49149817
0.51164985 0.51164985 0.51164985
0.5312883 0.5312883 0.5312883
0.548652 0.548652 0.548652
0.56580883 0.56580883 0.56580883
0.092156865 0.092156865 0.092156865
0.09791667 0.09791667 0.09791667
0.10193015 0.10193015 0.10193015
0.106127456 0.106127456 0.106127456
0.11525735 0.11525735 0.11525735
0.1259038 0.1259038 0.1259038
0.13578433 0.13578433 0.13578433
0.14693628 0.14693628 0.14693628
0.15686275 0.15686275 0.15686275
0.17288604 0.17288604 0.17288604
0.18651961 0.18651961 0.18651961
0.19558825 0.19558825 0.19558825
0.2127451 0.2127451 0.2127451
0.2293658 0.2293658 0.2293658
0.24491423 0.24491423 0.24491423
0.2607537 0.2607537 0.2607537
0.2762255 0.2762255 0.2762255
0.29460788 0.29460788 0.29460788
0.31075367 0.31075367 0.31075367
0.327451 0.327451 0.327451
0.349326 0.349326 0.349326
0.362883 0.362883 0.362883
0.38455886 0.38455886 0.38455886
0.4047794 0.4047794 0.4047794
0.4198529 0.4198529 0.4198529
0.4411918 0.4411918 0.4411918
0.45931378 0.45931378 0.45931378
0.47855392 0.47855392 0.47855392
0.49662992 0.49662992 0.49662992
0.5142923 0.5142923 0.5142923
0.535049 0.535049 0.535049
0.5529412 0.5529412 0.5529412
0.57009804 0.57009804 0.57009804
0.116666675 0.116666675 0.116666675
0.12269455 0.12269455 0.12269455
0.123606004 0.123606004 0.123606004
0.12879902 0.12879902 0.12879902
0.13746937 0.13746937 0.13746937
0.14620098 0.14620098 0.14620098
0.15374541 0.15374541 0.15374541
0.16409314 0.16409314 0.16409314
0.17539829 0.17539829 0.17539829
0.18619408 0.18619408 0.18619408
0.19705115 0.19705115 0.19705115
0.20778568 0.20778568 0.20778568
0.22316176 0.22316176 0.22316176
0.23991652 0.23991652 0.23991652
0.25383732 0.25383732 0.25383732
0.26703432 0.26703432 0.26703432
0.2841912 0.2841912 0.2841912
0.30134806 0.30134806 0.30134806
0.31580883 0.31580883 0.31580883
0.33461243 0.33461243 0.33461243
0.35461092 0.35461092 0.35461092
0.36244255 0.36244255 0.36244255
0.3876226 0.3876226 0.3876226
0.4081304 0.4081304 0.4081304
0.42352942 0.42352942 0.42352942
0.4420343 0.4420343 0.4420343
0.4609605 0.4609605 0.4609605
0.47819015 0.47819015 0.47819015
0.49617034 0.49617034 0.49617034
0.516054 0.516054 0.516054
0.5375 0.5375 0.5375
0.5537263 0.5537263 0.5537263
0.57254905 0.57254905 0.57254905
0.14436275 0.14436275 0.14436275
0.15032935 0.15032935 0.15032935
0.1498315 0.1498315 0.1498315
0.15599725 0.15599725 0.15599725
0.16234681 0.16234681 0.16234681
0.16881894 0.16881894 0.16881894
0.1740196 0.1740196 0.1740196
0.18200828 0.18200828 0.18200828
0.19246323 0.19246323 0.19246323
0.20333178 0.20333178 0.20333178
0.21432291 0.21432291 0.21432291
0.22480851 0.22480851 0.22480851
0.2360294 0.2360294 0.2360294
0.2518459 0.2518459 0.2518459
0.26383272 0.26383272 0.26383272
0.27925092 0.27925092 0.27925092
0.29509807 0.29509807 0.29509807
0.30963543 0.30963543 0.30963543
0.32533702 0.32533702 0.32533702
0.34532782 0.34532782 0.34532782
0.3617341 0.3617341 0.3617341
0.3732154 0.3732154 0.3732154
0.39201897 0.39201897 0.39201897
0.411129 0.411129 0.411129
0.43014705 0.43014705 0.43014705
0.44789368 0.44789368 0.44789368
0.46542585 0.46542585 0.46542585
0.48161763 0.48161763 0.48161763
0.4998468 0.4998468 0.4998468
0.52046573 0.52046573 0.52046573
0.5419118 0.5419118 0.5419118
0.55625004 0.55625004 0.55625004
0.57475495 0.57475495 0.57475495
0.16838236 0.16838236 0.16838236
0.17365196 0.17365196 0.17365196
0.17438726 0.17438726 0.17438726
0.17940028 0.17940028 0.17940028
0.18604472 0.18604472 0.18604472
0.18997015 0.18997015 0.18997015
0.19289216 0.19289216 0.19289216
0.1997549 0.1997549 0.1997549
0.20833333 0.20833333 0.20833333
0.2202206 0.2202206 0.2202206
0.23067556 0.23067556 0.23067556
0.24191177 0.24191177 0.24191177
0.2514706 0.2514706 0.2514706
0.26691177 0.26691177 0.26691177
0.27755824 0.27755824 0.27755824
0.29227942 0.29227942 0.29227942
0.30710787 0.30710787 0.30710787
0.32266393 0.32266393 0.32266393
0.33788297 0.33788297 0.33788297
0.35465688 0.35465688 0.35465688
0.37181374 0.37181374 0.37181374
0.3851716 0.3851716 0.3851716
0.40236676 0.40236676 0.40236676
0.42214686 0.42214686 0.42214686
0.4397978 0.4397978 0.4397978
0.4567938 0.4567938 0.4567938
0.47507656 0.47507656 0.47507656
0.49207264 0.49207264 0.49207264
0.50842524 0.50842524 0.50842524
0.5283203 0.5283203 0.5283203
0.5463082 0.5463082 0.5463082
0.56434596 0.56434596 0.56434596
0.58161765 0.58161765 0.58161765
0.19117647 0.19117647 0.19117647
0.19537377 0.19537377 0.19537377
0.19822304 0.19822304 0.19822304
0.20122549 0.20122549 0.20122549
0.20833333 0.20833333 0.20833333
0.21216299 0.21216299 0.21216299
0.21427697 0.21427697 0.21427697
0.2179228 0.2179228 0.2179228
0.22769609 0.22769609 0.22769609
0.23783703 0.23783703 0.23783703
0.24656865 0.24656865 0.24656865
0.25621936 0.25621936 0.25621936
0.26825982 0.26825982 0.26825982
0.28177083 0.28177083 0.28177083
0.29387257 0.29387257 0.29387257
0.3067402 0.3067402 0.3067402
0.32009804 0.32009804 0.32009804
0.33403802 0.33403802 0.33403802
0.349326 0.349326 0.349326
0.36617652 0.36617652 0.36617652
0.38333333 0.38333333 0.38333333
0.39954048 0.39954048 0.39954048
0.41397065 0.41397065 0.41397065
0.4348039 0.4348039 0.4348039
0.45098042 0.45098042 0.45098042
0.46587008 0.46587008 0.46587008
0.48345587 0.48345587 0.48345587
0.50055146 0.50055146 0.50055146
0.517402 0.517402 0.517402
0.53734684 0.53734684 0.53734684
0.5526961 0.5526961 0.5526961
0.5700062 0.5700062 0.5700062
0.59019613 0.59019613 0.59019613
0.21593137 0.21593137 0.21593137
0.21691176 0.21691176 0.21691176
0.2210861 0.2210861 0.2210861
0.22504978 0.22504978 0.22504978
0.22977942 0.22977942 0.22977942
0.23251763 0.23251763 0.23251763
0.23470435 0.23470435 0.23470435
0.2408969 0.2408969 0.2408969
0.2497243 0.2497243 0.2497243
0.25845587 0.25845587 0.25845587
0.26703432 0.26703432 0.26703432
0.2756319 0.2756319 0.2756319
0.28570774 0.28570774 0.28570774
0.3007468 0.3007468 0.3007468
0.3099954 0.3099954 0.3099954
0.32193244 0.32193244 0.32193244
0.33676472 0.33676472 0.33676472
0.34963238 0.34963238 0.34963238
0.3629213 0.3629213 0.3629213
0.38162914 0.38162914 0.38162914
0.39661458 0.39661458 0.39661458
0.41335782 0.41335782 0.41335782
0.42683825 0.42683825 0.42683825
0.4466376 0.4466376 0.4466376
0.4580576 0.4580576 0.4580576
0.4747549 0.4747549 0.4747549
0.49046412 0.49046412 0.49046412
0.50927544 0.50927544 0.50927544
0.52746636 0.52746636 0.52746636
0.54620105 0.54620105 0.54620105
0.56396294 0.56396294 0.56396294
0.5780063 0.5780063 0.5780063
0.5954657 0.5954657 0.5954657
0.24534313 0.24534313 0.24534313
0.24571076 0.24571076 0.24571076
0.24931067 0.24931067 0.24931067
0.24957874 0.24957874 0.24957874
0.2512255 0.2512255 0.2512255
0.25539982 0.25539982 0.25539982
0.25955883 0.25955883 0.25955883
0.26400888 0.26400888 0.26400888
0.2740809 0.2740809 0.2740809
0.28357843 0.28357843 0.28357843
0.28871018 0.28871018 0.28871018
0.2971737 0.2971737 0.2971737
0.30937502 0.30937502 0.30937502
0.31918657 0.31918657 0.31918657
0.33063725 0.33063725 0.33063725
0.34240195 0.34240195 0.34240195
0.35759804 0.35759804 0.35759804
0.37046567 0.37046567 0.37046567
0.38333333 0.38333333 0.38333333
0.3994562 0.3994562 0.3994562
0.41323534 0.41323534 0.41323534
0.4227788 0.4227788 0.4227788
0.4429228 0.4429228 0.4429228
0.45678616 0.45678616 0.45678616
0.47352943 0.47352943 0.47352943
0.4906863 0.4906863 0.4906863
0.5061275 0.5061275 0.5061275
0.523292 0.523292 0.523292
0.5376532 0.5376532 0.5376532
0.55742186 0.55742186 0.55742186
0.5767157 0.5767157 0.5767157
0.58698684 0.58698684 0.58698684
0.61078435 0.61078435 0.61078435
0.2634804 0.2634804 0.2634804
0.2673905 0.2673905 0.2673905
0.2680147 0.2680147 0.2680147
0.2722695 0.2722695 0.2722695
0.27366728 0.27366728 0.27366728
0.27500767 0.27500767 0.27500767
0.27911305 0.27911305 0.27911305
0.28431374 0.28431374 0.28431374
0.29574144 0.29574144 0.29574144
0.29875538 0.29875538 0.29875538
0.30612746 0.30612746 0.30612746
0.31470206 0.31470206 0.31470206
0.3274663 0.3274663 0.3274663
0.33872548 0.33872548 0.33872548
0.34665287 0.34665287 0.34665287
0.36058903 0.36058903 0.36058903
0.3730392 0.3730392 0.3730392
0.38548943 0.38548943 0.38548943
0.39689797 0.39689797 0.39689797
0.41286764 0.41286764 0.41286764
0.42659312 0.42659312 0.42659312
0.43922335 0.43922335 0.43922335
0.45625767 0.45625767 0.45625767
0.4735103 0.4735103 0.4735103
0.49053308 0.49053308 0.49053308
0.50629216 0.50629216 0.50629216
0.5209559 0.5209559 0.5209559
0.53811276 0.53811276 0.53811276
0.55281866 0.55281866 0.55281866
0.5713236 0.5713236 0.5713236
0.5894838 0.5894838 0.5894838
0.6066177 0.6066177 0.6066177
0.6159314 0.6159314 0.6159314
0.28921568 0.28921568 0.28921568
0.29281557 0.29281557 0.29281557
0.2904412 0.2904412 0.2904412
0.29376534 0.29376534 0.29376534
0.296875 0.296875 0.296875
0.3014706 0.3014706 0.3014706
0.3036765 0.3036765 0.3036765
0.31021756 0.31021756 0.31021756
0.3182598 0.3182598 0.3182598
0.32382047 0.32382047 0.32382047
0.33186275 0.33186275 0.33186275
0.3369945 0.3369945 0.3369945
0.34601712 0.34601712 0.34601712
0.36027884 0.36027884 0.36027884
0.36740196 0.36740196 0.36740196
0.38007045 0.38007045 0.38007045
0.39093137 0.39093137 0.39093137
0.4017923 0.4017923 0.4017923
0.41681984 0.41681984 0.41681984
0.43382353 0.43382353 0.43382353
0.44754905 0.44754905 0.44754905
0.4537684 0.4537684 0.4537684
0.46985292 0.46985292 0.46985292
0.49007353 0.49007353 0.49007353
0.50294125 0.50294125 0.50294125
0.51715684 0.51715684 0.51715684
0.5340993 0.5340993 0.5340993
0.5509804 0.5509804 0.5509804
0.5656863 0.5656863 0.5656863
0.5841912 0.5841912 0.5841912
0.599663 0.599663 0.599663
0.6161765 0.6161765 0.6161765
0.6254902 0.6254902 0.6254902
0.314951 0.314951 0.314951
0.31887257 0.31887257 0.31887257
0.319447 0.319447 0.319447
0.32303923 0.32303923 0.32303923
0.32765013 0.32765013 0.32765013
0.33103937 0.33103937 0.33103937
0.33225337 0.33225337 0.33225337
0.3365426 0.3365426 0.3365426
0.34142157 0.34142157 0.34142157
0.34901962 0.34901962 0.34901962
0.35679382 0.35679382 0.35679382
0.3652229 0.3652229 0.3652229
0.3712163 0.3712163 0.3712163
0.3824755 0.3824755 0.3824755
0.39227942 0.39227942 0.39227942
0.4039024 0.4039024 0.4039024
0.41409314 0.41409314 0.41409314
0.42428383 0.42428383 0.42428383
0.43590686 0.43590686 0.43590686
0.45116806 0.45116806 0.45116806
0.4647059 0.4647059 0.4647059
0.4767425 0.4767425 0.4767425
0.4869562 0.4869562 0.4869562
0.5065066 0.5065066 0.5065066
0.5200981 0.5200981 0.5200981
0.5346086 0.5346086 0.5346086
0.5502375 0.5502375 0.5502375
0.5647059 0.5647059 0.5647059
0.57887566 0.57887566 0.57887566
0.5970589 0.5970589 0.5970589
0.61462164 0.61462164 0.61462164
0.6323951 0.6323951 0.6323951
0.64007354 0.64007354 0.64007354
0.3394608 0.3394608 0.3394608
0.34583336 0.34583336 0.34583336
0.34583336 0.34583336 0.34583336
0.34659165 0.34659165 0.34659165
0.351011 0.351011 0.351011
0.35698527 0.35698527 0.35698527
0.35603553 0.35603553 0.35603553
0.36059287 0.36059287 0.36059287
0.36807597 0.36807597 0.36807597
0.37494636 0.37494636 0.37494636
0.37965688 0.37965688 0.37965688
0.3879902 0.3879902 0.3879902
0.3964154 0.3964154 0.3964154
0.40418965 0.40418965 0.40418965
0.41418508 0.41418508 0.41418508
0.42536762 0.42536762 0.42536762
0.43553925 0.43553925 0.43553925
0.44498312 0.44498312 0.44498312
0.45651042 0.45651042 0.45651042
0.46899512 0.46899512 0.46899512
0.48186272 0.48186272 0.48186272
0.49211854 0.49211854 0.49211854
0.50399816 0.50399816 0.50399816
0.521921 0.521921 0.521921
0.5363358 0.5363358 0.5363358
0.55197614 0.55197614 0.55197614
0.56827515 0.56827515 0.56827515
0.58178616 0.58178616 0.58178616
0.59442407 0.59442407 0.59442407
0.61061585 0.61061585 0.61061585
0.6259957 0.6259957 0.6259957
0.6450904 0.6450904 0.6450904
0.64926475 0.64926475 0.64926475
0.36409315 0.36409315 0.36409315
0.37411532 0.37411532 0.37411532
0.3726715 0.3726715 0.3726715
0.37356764 0.37356764 0.37356764
0.37673098 0.37673098 0.37673098
0.38077134 0.38077134 0.38077134
0.38280484 0.38280484 0.38280484
0.38725492 0.38725492 0.38725492
0.39583334 0.39583334 0.39583334
0.39975876 0.39975876 0.39975876
0.40379903 0.40379903 0.40379903
0.41053924 0.41053924 0.41053924
0.41902572 0.41902572 0.41902572
0.42747012 0.42747012 0.42747012
0.4366421 0.4366421 0.4366421
0.44347045 0.44347045 0.44347045
0.45539212 0.45539212 0.45539212
0.46593136 0.46593136 0.46593136
0.4745098 0.4745098 0.4745098
0.48739663 0.48739663 0.48739663
0.50061274 0.50061274 0.50061274
0.5119371 0.5119371 0.5119371
0.52281713 0.52281713 0.52281713
0.5411803 0.5411803 0.5411803
0.5526655 0.5526655 0.5526655
0.56782705 0.56782705 0.56782705
0.5830806 0.5830806 0.5830806
0.597281 0.597281 0.597281
0.6102635 0.6102635 0.6102635
0.625697 0.625697 0.625697
0.64135265 0.64135265 0.64135265
0.6582108 0.6582108 0.6582108
0.6659314 0.6659314 0.6659314
0.4 0.4 0.4
0.40765932 0.40765932 0.40765932
0.40551472 0.40551472 0.40551472
0.40557602 0.40557602 0.40557602
0.4105392 0.4105392 0.4105392
0.41360295 0.41360295 0.41360295
0.41568628 0.41568628 0.41568628
0.41697305 0.41697305 0.41697305
0.42352942 0.42352942 0.42352942
0.43045342 0.43045342 0.43045342
0.4332108 0.4332108 0.4332108
0.4375 0.4375 0.4375
0.44656864 0.44656864 0.44656864
0.45772058 0.45772058 0.45772058
0.46262255 0.46262255 0.46262255
0.46985292 0.46985292 0.46985292
0.47941178 0.47941178 0.47941178
0.48897058 0.48897058 0.48897058
0.49620098 0.49620098 0.49620098
0.51029414 0.51029414 0.51029414
0.52401966 0.52401966 0.52401966
0.53308827 0.53308827 0.53308827
0.5441177 0.5441177 0.5441177
0.5606618 0.5606618 0.5606618
0.5735295 0.5735295 0.5735295
0.58707106 0.58707106 0.58707106
0.60036767 0.60036767 0.60036767
0.6131741 0.6131741 0.6131741
0.6245098 0.6245098 0.6245098
0.64295346 0.64295346 0.64295346
0.6585784 0.6585784 0.6585784
0.6714461 0.6714461 0.6714461
0.68039215 0.68039215 0.68039215
0.43590686 0.43590686 0.43590686
0.4412033 0.4412033 0.4412033
0.43923104 0.43923104 0.43923104
0.44027653 0.44027653 0.44027653
0.44201902 0.44201902 0.44201902
0.4441062 0.4441062 0.4441062
0.44754905 0.44754905 0.44754905
0.44821918 0.44821918 0.44821918
0.45355394 0.45355394 0.45355394
0.46347657 0.46347657 0.46347657
0.464951 0.464951 0.464951
0.4690449 0.4690449 0.4690449
0.47585782 0.47585782 0.47585782
0.48717067 0.48717067 0.48717067
0.49325985 0.49325985 0.49325985
0.4990005 0.4990005 0.4990005
0.50575984 0.50575984 0.50575984
0.5166667 0.5166667 0.5166667
0.52575064 0.52575064 0.52575064
0.53704816 0.53704816 0.53704816
0.5477176 0.5477176 0.5477176
0.5587508 0.5587508 0.5587508
0.56774664 0.56774664 0.56774664
0.58210784 0.58210784 0.58210784
0.59497553 0.59497553 0.59497553
0.60784316 0.60784316 0.60784316
0.6196921 0.6196921 0.6196921
0.63125 0.63125 0.63125
0.64312196 0.64312196 0.64312196
0.66050094 0.66050094 0.66050094
0.67536765 0.67536765 0.67536765
0.68679154 0.68679154 0.68679154
0.6995098 0.6995098 0.6995098
0.46323532 0.46323532 0.46323532
0.4645987 0.4645987 0.4645987
0.46616116 0.46616116 0.46616116
0.4686734 0.4686734 0.4686734
0.47356007 0.47356007 0.47356007
0.47455576 0.47455576 0.47455576
0.47446385 0.47446385 0.47446385
0.4785386 0.4785386 0.4785386
0.48425245 0.48425245 0.48425245
0.48760724 0.48760724 0.48760724
0.49304536 0.49304536 0.49304536
0.49481466 0.49481466 0.49481466
0.5026961 0.5026961 0.5026961
0.5135264 0.5135264 0.5135264
0.5178922 0.5178922 0.5178922
0.52388173 0.52388173 0.52388173
0.529902 0.529902 0.529902
0.53810513 0.53810513 0.53810513
0.54828435 0.54828435 0.54828435
0.56019455 0.56019455 0.56019455
0.56936276 0.56936276 0.56936276
0.5791284 0.5791284 0.5791284
0.5881587 0.5881587 0.5881587
0.60313267 0.60313267 0.60313267
0.6130515 0.6130515 0.6130515
0.62482387 0.62482387 0.62482387
0.63892466 0.63892466 0.63892466
0.65110296 0.65110296 0.65110296
0.66060054 0.66060054 0.66060054
0.67620254 0.67620254 0.67620254
0.6909314 0.6909314 0.6909314
0.7062425 0.7062425 0.7062425
0.7166667 0.7166667 0.7166667
0.49509805 0.49509805 0.49509805
0.49546567 0.49546567 0.49546567
0.49901962 0.49901962 0.49901962
0.49864054 0.49864054 0.49864054
0.5002911 0.5002911 0.5002911
0.5056909 0.5056909 0.5056909
0.50686276 0.50686276 0.50686276
0.5079887 0.5079887 0.5079887
0.5138174 0.5138174 0.5138174
0.5181488 0.5181488 0.5181488
0.52023596 0.52023596 0.52023596
0.52374774 0.52374774 0.52374774
0.53425246 0.53425246 0.53425246
0.53583413 0.53583413 0.53583413
0.5445083 0.5445083 0.5445083
0.5493873 0.5493873 0.5493873
0.5556373 0.5556373 0.5556373
0.56370634 0.56370634 0.56370634
0.57252604 0.57252604 0.57252604
0.58204275 0.58204275 0.58204275
0.59348965 0.59348965 0.59348965
0.605419 0.605419 0.605419
0.6084559 0.6084559 0.6084559
0.62486595 0.62486595 0.62486595
0.6360294 0.6360294 0.6360294
0.6462508 0.6462508 0.6462508
0.6596814 0.6596814 0.6596814
0.67092144 0.67092144 0.67092144
0.6812807 0.6812807 0.6812807
0.69473803 0.69473803 0.69473803
0.71057755 0.71057755 0.71057755
0.71924406 0.71924406 0.71924406
0.73382354 0.73382354 0.73382354
0.51911765 0.51911765 0.51911765
0.52323836 0.52323836 0.52323836
0.529902 0.529902 0.529902
0.5297641 0.5297641 0.5297641
0.5284927 0.5284927 0.5284927
0.528799 0.528799 0.528799
0.53281254 0.53281254 0.53281254
0.53431374 0.53431374 0.53431374
0.5376226 0.5376226 0.5376226
0.54492956 0.54492956 0.54492956
0.54607844 0.54607844 0.54607844
0.5501532 0.5501532 0.5501532
0.5556985 0.5556985 0.5556985
0.5623468 0.5623468 0.5623468
0.5684743 0.5684743 0.5684743
0.57512254 0.57512254 0.57512254
0.58137256 0.58137256 0.58137256
0.589951 0.589951 0.589951
0.59617037 0.59617037 0.59617037
0.6063572 0.6063572 0.6063572
0.6131128 0.6131128 0.6131128
0.62512255 0.62512255 0.62512255
0.6329044 0.6329044 0.6329044
0.64301467 0.64301467 0.64301467
0.6557598 0.6557598 0.6557598
0.6659007 0.6659007 0.6659007
0.675766 0.675766 0.675766
0.6903033 0.6903033 0.6903033
0.7007966 0.7007966 0.7007966
0.7123775 0.7123775 0.7123775
0.72843134 0.72843134 0.72843134
0.7380362 0.7380362 0.7380362
0.7509804 0.7509804 0.7509804
0.5443628 0.5443628 0.5443628
0.5521063 0.5521063 0.5521063
0.55232847 0.55232847 0.55232847
0.55232847 0.55232847 0.55232847
0.5522825 0.5522825 0.5522825
0.5540441 0.5540441 0.5540441
0.5561964 0.5561964 0.5561964
0.55625004 0.55625004 0.55625004
0.5648897 0.5648897 0.5648897
0.5679764 0.5679764 0.5679764
0.56801474 0.56801474 0.56801474
0.57205886 0.57205886 0.57205886
0.5773131 0.5773131 0.5773131
0.58835787 0.58835787 0.58835787
0.59268534 0.59268534 0.59268534
0.59860224 0.59860224 0.59860224
0.6071079 0.6071079 0.6071079
0.6134307 0.6134307 0.6134307
0.6203814 0.6203814 0.6203814
0.62901735 0.62901735 0.62901735
0.63751537 0.63751537 0.63751537
0.6461972 0.6461972 0.6461972
0.65881586 0.65881586 0.65881586
0.670975 0.670975 0.670975
0.6796875 0.6796875 0.6796875
0.68831575 0.68831575 0.68831575
0.69858307 0.69858307 0.69858307
0.71151966 0.71151966 0.71151966
0.71956193 0.71956193 0.71956193
0.7322649 0.7322649 0.7322649
0.7463005 0.7463005 0.7463005
0.7556373 0.7556373 0.7556373
0.7681372 0.7681372 0.7681372
0.5666667 0.5666667 0.5666667
0.5740196 0.5740196 0.5740196
0.57337624 0.57337624 0.57337624
0.5705193 0.5705193 0.5705193
0.5719056 0.5719056 0.5719056
0.57450986 0.57450986 0.57450986
0.5746477 0.5746477 0.5746477
0.57716763 0.57716763 0.57716763
0.5839461 0.5839461 0.5839461
0.58909315 0.58909315 0.58909315
0.59338236 0.59338236 0.59338236
0.59018844 0.59018844 0.59018844
0.59856004 0.59856004 0.59856004
0.6072993 0.6072993 0.6072993
0.6133119 0.6133119 0.6133119
0.6166667 0.6166667 0.6166667
0.6234069 0.6234069 0.6234069
0.63203895 0.63203895 0.63203895
0.6393842 0.6393842 0.6393842
0.64681375 0.64681375 0.64681375
0.65882355 0.65882355 0.65882355
0.66409314 0.66409314 0.66409314
0.67300856 0.67300856 0.67300856
0.6885187 0.6885187 0.6885187
0.6963848 0.6963848 0.6963848
