assets/luts/Pentax_CrossProcessing2__33_Rec709.cube
TITLE "Pentax_CrossProcessing2__33_Rec709"
LUT_3D_SIZE 5
DOMAIN_MIN 0 0 0
DOMAIN_MAX 1 1 1
0.0000000000 0.0000000000 0.0000000000
0.4392156863 0.0235294118 0.0000000000
0.6000000000 0.0627450980 0.0235294118
0.8000000000 0.1176470588 0.0509803922
0.9607843137 0.4078431373 0.2784313725
0.2470588235 0.3882352941 0.0627450980
0.4823529412 0.4000000000 0.0745098039
0.6313725490 0.4196078431 0.0784313725
0.8117647059 0.4470588235 0.1058823529
0.9568627451 0.6784313725 0.3882352941
0.3960784314 0.6784313725 0.1411764706
0.5411764706 0.6823529412 0.1529411765
0.6627450980 0.6901960784 0.1686274510
0.8274509804 0.7019607843 0.1960784314
0.9568627451 0.8000000000 0.4705882353
0.5529411765 0.8470588235 0.3960784314
0.6392156863 0.8470588235 0.4078431373
0.7333333333 0.8470588235 0.4196078431
0.8549019608 0.8470588235 0.4392156863
0.9607843137 0.8627450980 0.6117647059
0.7803921569 0.8666666667 0.7764705882
0.8156862745 0.8666666667 0.7803921569
0.8549019608 0.8666666667 0.7843137255
0.9098039216 0.8666666667 0.7882352941
0.9960784314 0.8666666667 0.8196078431
0.1960784314 0.1176470588 0.1960784314
0.4745098039 0.1333333333 0.2039215686
0.6196078431 0.1490196078 0.2274509804
0.8078431373 0.1960784314 0.2627450980
0.9568627451 0.5137254902 0.5019607843
0.3254901961 0.4470588235 0.2705882353
0.5137254902 0.4627450980 0.2823529412
0.6470588235 0.4705882353 0.3058823529
0.8196078431 0.4980392157 0.3333333333
0.9568627451 0.7098039216 0.5490196078
0.4392156863 0.7019607843 0.3843137255
0.5647058824 0.7098039216 0.3960784314
0.6745098039 0.7137254902 0.4078431373
0.8313725490 0.7254901961 0.4313725490
0.9568627451 0.8117647059 0.6039215686
0.5764705882 0.8470588235 0.5411764706
0.6549019608 0.8470588235 0.5411764706
0.7411764706 0.8470588235 0.5529411765
0.8588235294 0.8509803922 0.5647058824
0.9607843137 0.8627450980 0.7176470588
0.7882352941 0.8666666667 0.8313725490
0.8235294118 0.8666666667 0.8352941176
0.8627450980 0.8666666667 0.8352941176
0.9137254902 0.8666666667 0.8392156863
1.0000000000 0.8666666667 0.8588235294
0.3254901961 0.2352941176 0.4941176471
0.5098039216 0.2509803922 0.5019607843
0.6470588235 0.2666666667 0.5098039216
0.8196078431 0.3058823529 0.5215686275
0.9529411765 0.6000000000 0.6980392157
0.4117647059 0.5215686275 0.5333333333
0.5490196078 0.5294117647 0.5411764706
0.6666666667 0.5450980392 0.5411764706
0.8274509804 0.5686274510 0.5607843137
0.9529411765 0.7411764706 0.7294117647
0.4823529412 0.7333333333 0.5843137255
0.5921568627 0.7372549020 0.5921568627
0.6980392157 0.7411764706 0.5960784314
0.8392156863 0.7529411765 0.6117647059
0.9568627451 0.8196078431 0.7647058824
0.6000000000 0.8509803922 0.6980392157
0.6745098039 0.8549019608 0.7019607843
0.7568627451 0.8549019608 0.7019607843
0.8666666667 0.8549019608 0.7215686275
0.9607843137 0.8666666667 0.8274509804
0.8000000000 0.8666666667 0.8823529412
0.8313725490 0.8666666667 0.8823529412
0.8666666667 0.8666666667 0.8823529412
0.9176470588 0.8666666667 0.8901960784
1.0000000000 0.8666666667 0.9019607843
0.4745098039 0.4627450980 0.8196078431
0.5882352941 0.4745098039 0.8235294118
0.6980392157 0.4901960784 0.8274509804
0.8392156863 0.5176470588 0.8313725490
0.9568627451 0.7176470588 0.8980392157
0.5137254902 0.6549019608 0.8352941176
0.6117647059 0.6627450980 0.8352941176
0.7137254902 0.6666666667 0.8392156863
0.8470588235 0.6823529412 0.8470588235
0.9568627451 0.7882352941 0.9019607843
0.5607843137 0.7803921569 0.8509803922
0.6470588235 0.7803921569 0.8549019608
0.7411764706 0.7843137255 0.8549019608
0.8588235294 0.7921568627 0.8627450980
0.9607843137 0.8352941176 0.9098039216
0.6509803922 0.8588235294 0.8823529412
0.7176470588 0.8588235294 0.8862745098
0.7882352941 0.8588235294 0.8862745098
0.8784313725 0.8588235294 0.8941176471
0.9647058824 0.8666666667 0.9254901961
0.8235294118 0.8666666667 0.9411764706
0.8470588235 0.8666666667 0.9450980392
0.8784313725 0.8666666667 0.9450980392
0.9254901961 0.8666666667 0.9450980392
1.0000000000 0.8627450980 0.9490196078
0.6941176471 0.7882352941 0.9843137255
0.7490196078 0.7882352941 0.9843137255
0.8078431373 0.7882352941 0.9882352941
0.8901960784 0.7960784314 0.9882352941
0.9647058824 0.8352941176 1.0000000000
0.7098039216 0.8235294118 0.9921568627
0.7607843137 0.8235294118 0.9921568627
0.8196078431 0.8235294118 0.9921568627
0.8941176471 0.8274509804 0.9921568627
0.9686274510 0.8509803922 1.0000000000
0.7372549020 0.8470588235 0.9960784314
0.7843137255 0.8509803922 0.9960784314
0.8313725490 0.8509803922 0.9960784314
0.9019607843 0.8509803922 0.9960784314
0.9725490196 0.8627450980 1.0000000000
0.7882352941 0.8705882353 1.0000000000
0.8196078431 0.8705882353 1.0000000000
0.8588235294 0.8705882353 1.0000000000
0.9137254902 0.8705882353 1.0000000000
0.9764705882 0.8705882353 1.0000000000
0.8784313725 0.8627450980 1.0000000000
0.8941176471 0.8627450980 1.0000000000
0.9137254902 0.8627450980 1.0000000000
0.9450980392 0.8627450980 1.0000000000
1.0000000000 0.8627450980 1.0000000000
