assets/luts/Pentax_Fuyuno_33_Rec709.cube
TITLE "Pentax_Fuyuno_33_Rec709"
LUT_3D_SIZE 5
DOMAIN_MIN 0 0 0
DOMAIN_MAX 1 1 1
0.0000000000 0.0000000000 0.0000000000
0.3294117647 0.0039215686 0.0000000000
0.6784313725 0.0156862745 0.0039215686
0.9137254902 0.0627450980 0.0039215686
1.0000000000 0.3764705882 0.0745098039
0.0000000000 0.2745098039 0.0274509804
0.3254901961 0.2980392157 0.0313725490
0.6745098039 0.3254901961 0.0352941176
0.9137254902 0.3882352941 0.0392156863
0.9960784314 0.6627450980 0.2274509804
0.0000000000 0.6313725490 0.1137254902
0.3176470588 0.6392156863 0.1176470588
0.6705882353 0.6549019608 0.1176470588
0.9137254902 0.6784313725 0.1176470588
0.9960784314 0.8156862745 0.3607843137
0.0000000000 0.8901960784 0.3450980392
0.2745098039 0.8901960784 0.3450980392
0.6588235294 0.8941176471 0.3529411765
0.9098039216 0.9019607843 0.3490196078
0.9960784314 0.9450980392 0.5647058824
0.0000000000 0.9960784314 0.7411764706
0.1411764706 0.9960784314 0.7411764706
0.6078431373 0.9960784314 0.7450980392
0.9019607843 0.9960784314 0.7450980392
1.0000000000 1.0000000000 0.7490196078
0.0235294118 0.0196078431 0.2862745098
0.3764705882 0.0313725490 0.2941176471
0.6941176471 0.0509803922 0.3058823529
0.9176470588 0.1137254902 0.3098039216
0.9960784314 0.4745098039 0.5254901961
0.0196078431 0.3294117647 0.3568627451
0.3686274510 0.3529411765 0.3607843137
0.6941176471 0.3764705882 0.3686274510
0.9176470588 0.4352941176 0.3686274510
0.9960784314 0.6862745098 0.5764705882
0.0078431373 0.6549019608 0.4431372549
0.3568627451 0.6627450980 0.4470588235
0.6901960784 0.6745098039 0.4509803922
0.9176470588 0.6980392157 0.4549019608
0.9960784314 0.8274509804 0.6313725490
0.0000000000 0.8941176471 0.5960784314
0.3215686275 0.8980392157 0.5960784314
0.6784313725 0.9019607843 0.6000000000
0.9137254902 0.9058823529 0.6000000000
0.9960784314 0.9450980392 0.7215686275
0.0000000000 0.9960784314 0.8196078431
0.1843137255 0.9960784314 0.8196078431
0.6313725490 0.9960784314 0.8196078431
0.9058823529 0.9960784314 0.8196078431
1.0000000000 1.0000000000 0.8235294118
0.0705882353 0.0784313725 0.6470588235
0.4313725490 0.0980392157 0.6470588235
0.7176470588 0.1254901961 0.6470588235
0.9215686275 0.1960784314 0.6509803922
0.9960784314 0.5490196078 0.7686274510
0.0588235294 0.4078431373 0.6745098039
0.4274509804 0.4235294118 0.6745098039
0.7176470588 0.4470588235 0.6745098039
0.9215686275 0.5019607843 0.6745098039
0.9960784314 0.7137254902 0.7843137255
0.0470588235 0.6862745098 0.7058823529
0.4117647059 0.6941176471 0.7058823529
0.7137254902 0.7019607843 0.7058823529
0.9215686275 0.7254901961 0.7098039216
0.9960784314 0.8392156863 0.8039215686
0.0196078431 0.9019607843 0.7686274510
0.3764705882 0.9058823529 0.7725490196
0.7058823529 0.9058823529 0.7686274510
0.9176470588 0.9137254902 0.7725490196
0.9960784314 0.9490196078 0.8431372549
0.0000000000 0.9960784314 0.8901960784
0.2509803922 0.9960784314 0.8901960784
0.6588235294 0.9960784314 0.8901960784
0.9098039216 0.9960784314 0.8901960784
1.0000000000 1.0000000000 0.8941176471
0.2235294118 0.2705882353 0.8980392157
0.5450980392 0.2941176471 0.8980392157
0.7607843137 0.3176470588 0.8980392157
0.9333333333 0.3843137255 0.8980392157
0.9960784314 0.6549019608 0.9333333333
0.2078431373 0.5490196078 0.9019607843
0.5372549020 0.5607843137 0.9019607843
0.7607843137 0.5764705882 0.9019607843
0.9333333333 0.6117647059 0.9058823529
0.9960784314 0.7686274510 0.9372549020
0.1882352941 0.7450980392 0.9098039216
0.5254901961 0.7490196078 0.9098039216
0.7568627451 0.7568627451 0.9098039216
0.9294117647 0.7725490196 0.9137254902
0.9960784314 0.8666666667 0.9411764706
0.1450980392 0.9176470588 0.9294117647
0.5019607843 0.9176470588 0.9294117647
0.7490196078 0.9215686275 0.9294117647
0.9294117647 0.9254901961 0.9294117647
0.9960784314 0.9568627451 0.9490196078
0.0274509804 0.9960784314 0.9607843137
0.3921568627 0.9960784314 0.9607843137
0.7098039216 1.0000000000 0.9607843137
0.9215686275 1.0000000000 0.9607843137
1.0000000000 1.0000000000 0.9607843137
0.6078431373 0.6862745098 0.9960784314
0.7450980392 0.6941176471 0.9960784314
0.8549019608 0.7019607843 0.9960784314
0.9568627451 0.7254901961 0.9960784314
0.9960784314 0.8274509804 1.0000000000
0.6039215686 0.7803921569 0.9960784314
0.7411764706 0.7843137255 0.9960784314
0.8549019608 0.7921568627 0.9960784314
0.9568627451 0.8039215686 0.9960784314
0.9960784314 0.8784313725 1.0000000000
0.5960784314 0.8666666667 0.9960784314
0.7372549020 0.8666666667 0.9960784314
0.8509803922 0.8705882353 0.9960784314
0.9529411765 0.8784313725 0.9960784314
0.9960784314 0.9215686275 1.0000000000
0.5725490196 0.9529411765 1.0000000000
0.7254901961 0.9529411765 1.0000000000
0.8470588235 0.9529411765 1.0000000000
0.9529411765 0.9568627451 1.0000000000
0.9960784314 0.9725490196 1.0000000000
0.4862745098 1.0000000000 1.0000000000
0.6823529412 1.0000000000 1.0000000000
0.8235294118 1.0000000000 1.0000000000
0.9490196078 1.0000000000 1.0000000000
1.0000000000 1.0000000000 1.0000000000
