assets/luts/Pentax_Harubeni_33_Rec709.cube
# Rebuilt strictly from input/output TIFFs (no prior cube reference)
# Layout: tile=G, x=R, y=B | chart 8712x264
TITLE "Pentax_Harubeni_33_Rec709"
LUT_3D_SIZE 33
DOMAIN_MIN 0.0 0.0 0.0
DOMAIN_MAX 1.0 1.0 1.0
0.0196078438 0.0000000000 0.0000000000
0.0392156877 0.0000000000 0.0000000000
0.0627451017 0.0000000000 0.0000000000
0.0862745121 0.0000000000 0.0000000000
0.1137254909 0.0000000000 0.0000000000
0.1411764771 0.0000000000 0.0000000000
0.1686274558 0.0000000000 0.0000000000
0.2000000030 0.0000000000 0.0000000000
0.2313725501 0.0000000000 0.0000000000
0.2588235438 0.0000000000 0.0000000000
0.2941176593 0.0000000000 0.0000000000
0.3254902065 0.0000000000 0.0000000000
0.3568627536 0.0000000000 0.0000000000
0.3921568692 0.0039215689 0.0000000000
0.4274509847 0.0039215689 0.0000000000
0.4588235319 0.0078431377 0.0000000000
0.4980392158 0.0078431377 0.0000000000
0.5294117928 0.0117647061 0.0000000000
0.5647059083 0.0156862754 0.0000000000
0.6000000238 0.0196078438 0.0000000000
0.6313725710 0.0235294122 0.0000000000
0.6666666865 0.0274509806 0.0000000000
0.6980392337 0.0352941193 0.0000000000
0.7333333492 0.0392156877 0.0000000000
0.7647058964 0.0470588244 0.0000000000
0.7960784435 0.0549019612 0.0000000000
0.8274509907 0.0666666701 0.0000000000
0.8588235378 0.0784313753 0.0000000000
0.8941176534 0.0901960805 0.0000000000
0.9215686321 0.1058823541 0.0000000000
0.9529411793 0.1254902035 0.0000000000
0.9803921580 0.1490196139 0.0000000000
1.0000000000 0.1803921610 0.0000000000
0.0196078438 0.0039215689 0.0000000000
0.0352941193 0.0039215689 0.0000000000
0.0627451017 0.0078431377 0.0000000000
0.0862745121 0.0078431377 0.0000000000
0.1137254909 0.0078431377 0.0000000000
0.1411764771 0.0117647061 0.0000000000
0.1686274558 0.0117647061 0.0000000000
0.2000000030 0.0117647061 0.0000000000
0.2313725501 0.0156862754 0.0000000000
0.2588235438 0.0156862754 0.0000000000
0.2941176593 0.0196078438 0.0000000000
0.3254902065 0.0196078438 0.0000000000
0.3568627536 0.0196078438 0.0000000000
0.3921568692 0.0196078438 0.0000000000
0.4235294163 0.0235294122 0.0000000000
0.4588235319 0.0274509806 0.0000000000
0.4941176474 0.0313725509 0.0000000000
0.5294117928 0.0313725509 0.0000000000
0.5647059083 0.0352941193 0.0000000000
0.6000000238 0.0392156877 0.0000000000
0.6313725710 0.0431372561 0.0000000000
0.6666666865 0.0509803928 0.0000000000
0.6980392337 0.0549019612 0.0000000000
0.7333333492 0.0627451017 0.0000000000
0.7647058964 0.0705882385 0.0000000000
0.7960784435 0.0784313753 0.0000000000
0.8274509907 0.0862745121 0.0000000000
0.8588235378 0.0980392173 0.0000000000
0.8941176534 0.1137254909 0.0000000000
0.9215686321 0.1294117719 0.0000000000
0.9529411793 0.1450980455 0.0000000000
0.9803921580 0.1686274558 0.0000000000
1.0000000000 0.2039215714 0.0000000000
0.0196078438 0.0235294122 0.0000000000
0.0392156877 0.0235294122 0.0000000000
0.0588235296 0.0274509806 0.0000000000
0.0862745121 0.0274509806 0.0000000000
0.1137254909 0.0313725509 0.0000000000
0.1411764771 0.0313725509 0.0000000000
0.1686274558 0.0352941193 0.0000000000
0.1960784346 0.0352941193 0.0000000000
0.2313725501 0.0392156877 0.0000000000
0.2588235438 0.0392156877 0.0000000000
0.2901960909 0.0392156877 0.0000000000
0.3254902065 0.0392156877 0.0000000000
0.3568627536 0.0431372561 0.0000000000
0.3882353008 0.0431372561 0.0000000000
0.4235294163 0.0470588244 0.0000000000
0.4588235319 0.0509803928 0.0000000000
0.4941176474 0.0509803928 0.0000000000
0.5294117928 0.0549019612 0.0000000000
0.5647059083 0.0588235296 0.0000000000
0.6000000238 0.0627451017 0.0000000000
0.6313725710 0.0666666701 0.0000000000
0.6666666865 0.0745098069 0.0000000000
0.6980392337 0.0784313753 0.0000000000
0.7333333492 0.0862745121 0.0000000000
0.7647058964 0.0941176489 0.0000000000
0.7960784435 0.1019607857 0.0000000000
0.8274509907 0.1137254909 0.0000000000
0.8588235378 0.1254902035 0.0000000000
0.8941176534 0.1372549087 0.0000000000
0.9215686321 0.1529411823 0.0000000000
0.9529411793 0.1725490242 0.0000000000
0.9803921580 0.1960784346 0.0000000000
1.0000000000 0.2274509817 0.0039215689
0.0196078438 0.0470588244 0.0000000000
0.0352941193 0.0509803928 0.0000000000
0.0588235296 0.0509803928 0.0000000000
0.0823529437 0.0509803928 0.0000000000
0.1098039225 0.0549019612 0.0000000000
0.1411764771 0.0549019612 0.0000000000
0.1686274558 0.0549019612 0.0000000000
0.1960784346 0.0588235296 0.0000000000
0.2274509817 0.0588235296 0.0000000000
0.2588235438 0.0627451017 0.0000000000
0.2901960909 0.0627451017 0.0000000000
0.3254902065 0.0627451017 0.0000000000
0.3568627536 0.0666666701 0.0000000000
0.3882353008 0.0666666701 0.0000000000
0.4235294163 0.0705882385 0.0000000000
0.4588235319 0.0745098069 0.0000000000
0.4941176474 0.0784313753 0.0000000000
0.5294117928 0.0784313753 0.0000000000
0.5647059083 0.0823529437 0.0000000000
0.6000000238 0.0862745121 0.0000000000
0.6313725710 0.0901960805 0.0000000000
0.6666666865 0.0980392173 0.0000000000
0.6980392337 0.1058823541 0.0000000000
0.7333333492 0.1098039225 0.0000000000
0.7647058964 0.1176470593 0.0000000000
0.7960784435 0.1254902035 0.0000000000
0.8274509907 0.1372549087 0.0000000000
0.8588235378 0.1450980455 0.0000000000
0.8941176534 0.1607843190 0.0000000000
0.9215686321 0.1764705926 0.0039215689
0.9529411793 0.1960784346 0.0039215689
0.9803921580 0.2196078449 0.0039215689
1.0000000000 0.2509804070 0.0039215689
0.0196078438 0.0705882385 0.0000000000
0.0352941193 0.0705882385 0.0000000000
0.0588235296 0.0745098069 0.0000000000
0.0862745121 0.0745098069 0.0000000000
0.1098039225 0.0784313753 0.0000000000
0.1372549087 0.0784313753 0.0000000000
0.1686274558 0.0823529437 0.0000000000
0.1960784346 0.0823529437 0.0000000000
0.2274509817 0.0823529437 0.0000000000
0.2588235438 0.0862745121 0.0000000000
0.2862745225 0.0862745121 0.0000000000
0.3215686381 0.0901960805 0.0000000000
0.3568627536 0.0901960805 0.0000000000
0.3882353008 0.0941176489 0.0000000000
0.4235294163 0.0941176489 0.0000000000
0.4588235319 0.0980392173 0.0000000000
0.4941176474 0.1019607857 0.0000000000
0.5294117928 0.1019607857 0.0000000000
0.5647059083 0.1058823541 0.0000000000
0.5960784554 0.1098039225 0.0000000000
0.6313725710 0.1176470593 0.0000000000
0.6666666865 0.1215686277 0.0039215689
0.6980392337 0.1294117719 0.0000000000
0.7333333492 0.1333333403 0.0039215689
0.7647058964 0.1411764771 0.0039215689
0.7960784435 0.1490196139 0.0039215689
0.8274509907 0.1607843190 0.0039215689
0.8588235378 0.1725490242 0.0039215689
0.8941176534 0.1843137294 0.0039215689
0.9215686321 0.2000000030 0.0078431377
0.9529411793 0.2196078449 0.0078431377
0.9803921580 0.2431372553 0.0078431377
1.0000000000 0.2784313858 0.0078431377
0.0196078438 0.0980392173 0.0000000000
0.0352941193 0.0980392173 0.0000000000
0.0588235296 0.0980392173 0.0000000000
0.0862745121 0.1019607857 0.0000000000
0.1137254909 0.1019607857 0.0039215689
0.1411764771 0.1019607857 0.0039215689
0.1686274558 0.1058823541 0.0000000000
0.1960784346 0.1058823541 0.0039215689
0.2274509817 0.1098039225 0.0039215689
0.2588235438 0.1098039225 0.0039215689
0.2862745225 0.1137254909 0.0039215689
0.3215686381 0.1137254909 0.0039215689
0.3568627536 0.1137254909 0.0039215689
0.3882353008 0.1176470593 0.0039215689
0.4235294163 0.1215686277 0.0039215689
0.4588235319 0.1254902035 0.0039215689
0.4941176474 0.1254902035 0.0039215689
0.5294117928 0.1294117719 0.0039215689
0.5647059083 0.1333333403 0.0039215689
0.5960784554 0.1372549087 0.0039215689
0.6313725710 0.1411764771 0.0039215689
0.6666666865 0.1490196139 0.0039215689
0.6980392337 0.1529411823 0.0039215689
0.7294117808 0.1607843190 0.0078431377
0.7647058964 0.1686274558 0.0078431377
0.7960784435 0.1764705926 0.0078431377
0.8274509907 0.1882352978 0.0078431377
0.8588235378 0.1960784346 0.0078431377
0.8941176534 0.2117647082 0.0078431377
0.9215686321 0.2274509817 0.0117647061
0.9529411793 0.2470588237 0.0117647061
0.9803921580 0.2705882490 0.0117647061
1.0000000000 0.3019607961 0.0156862754
0.0196078438 0.1215686277 0.0039215689
0.0352941193 0.1215686277 0.0039215689
0.0588235296 0.1254902035 0.0039215689
0.0823529437 0.1254902035 0.0039215689
0.1137254909 0.1254902035 0.0039215689
0.1372549087 0.1294117719 0.0078431377
0.1647058874 0.1294117719 0.0078431377
0.1921568662 0.1333333403 0.0078431377
0.2274509817 0.1333333403 0.0078431377
0.2549019754 0.1333333403 0.0078431377
0.2862745225 0.1372549087 0.0078431377
0.3215686381 0.1372549087 0.0078431377
0.3529411852 0.1411764771 0.0078431377
0.3882353008 0.1411764771 0.0078431377
0.4235294163 0.1450980455 0.0078431377
0.4549019635 0.1490196139 0.0078431377
0.4941176474 0.1490196139 0.0078431377
0.5294117928 0.1529411823 0.0078431377
0.5607843399 0.1568627506 0.0078431377
0.5960784554 0.1607843190 0.0078431377
0.6313725710 0.1647058874 0.0117647061
0.6627451181 0.1725490242 0.0078431377
0.6980392337 0.1764705926 0.0117647061
0.7294117808 0.1843137294 0.0117647061
0.7647058964 0.1921568662 0.0117647061
0.7960784435 0.2000000030 0.0117647061
0.8274509907 0.2117647082 0.0117647061
0.8588235378 0.2235294133 0.0117647061
0.8941176534 0.2352941185 0.0156862754
0.9215686321 0.2509804070 0.0156862754
0.9529411793 0.2705882490 0.0156862754
0.9803921580 0.2941176593 0.0156862754
1.0000000000 0.3215686381 0.0156862754
0.0196078438 0.1450980455 0.0117647061
0.0352941193 0.1450980455 0.0117647061
0.0588235296 0.1490196139 0.0117647061
0.0823529437 0.1529411823 0.0117647061
0.1098039225 0.1529411823 0.0117647061
0.1411764771 0.1529411823 0.0117647061
0.1647058874 0.1568627506 0.0117647061
0.1921568662 0.1568627506 0.0117647061
0.2274509817 0.1607843190 0.0117647061
0.2549019754 0.1607843190 0.0117647061
0.2862745225 0.1607843190 0.0117647061
0.3176470697 0.1647058874 0.0117647061
0.3529411852 0.1647058874 0.0117647061
0.3882353008 0.1686274558 0.0117647061
0.4235294163 0.1686274558 0.0117647061
0.4549019635 0.1725490242 0.0117647061
0.4901960790 0.1764705926 0.0117647061
0.5254902244 0.1803921610 0.0117647061
0.5607843399 0.1843137294 0.0117647061
0.5960784554 0.1882352978 0.0117647061
0.6313725710 0.1921568662 0.0117647061
0.6627451181 0.2000000030 0.0156862754
0.6980392337 0.2039215714 0.0156862754
0.7294117808 0.2117647082 0.0156862754
0.7647058964 0.2156862766 0.0156862754
0.7960784435 0.2274509817 0.0156862754
0.8274509907 0.2352941185 0.0156862754
0.8588235378 0.2470588237 0.0156862754
0.8941176534 0.2588235438 0.0156862754
0.9215686321 0.2784313858 0.0196078438
0.9529411793 0.2941176593 0.0196078438
0.9803921580 0.3176470697 0.0196078438
1.0000000000 0.3411764801 0.0235294122
0.0196078438 0.1725490242 0.0117647061
0.0352941193 0.1725490242 0.0156862754
0.0588235296 0.1764705926 0.0156862754
0.0823529437 0.1764705926 0.0156862754
0.1098039225 0.1803921610 0.0156862754
0.1372549087 0.1803921610 0.0156862754
0.1686274558 0.1803921610 0.0156862754
0.1921568662 0.1843137294 0.0156862754
0.2235294133 0.1882352978 0.0156862754
0.2549019754 0.1882352978 0.0156862754
0.2862745225 0.1882352978 0.0156862754
0.3176470697 0.1921568662 0.0156862754
0.3529411852 0.1921568662 0.0156862754
0.3843137324 0.1960784346 0.0156862754
0.4196078479 0.1960784346 0.0156862754
0.4549019635 0.2000000030 0.0156862754
0.4901960790 0.2039215714 0.0156862754
0.5254902244 0.2078431398 0.0156862754
0.5607843399 0.2117647082 0.0156862754
0.5960784554 0.2156862766 0.0156862754
0.6313725710 0.2196078449 0.0196078438
0.6627451181 0.2235294133 0.0196078438
0.6980392337 0.2313725501 0.0196078438
0.7294117808 0.2392156869 0.0196078438
0.7647058964 0.2431372553 0.0196078438
0.7960784435 0.2549019754 0.0196078438
0.8274509907 0.2627451122 0.0196078438
0.8588235378 0.2745098174 0.0235294122
0.8941176534 0.2862745225 0.0235294122
0.9215686321 0.3019607961 0.0235294122
0.9529411793 0.3176470697 0.0235294122
0.9803921580 0.3372549117 0.0274509806
1.0000000000 0.3647058904 0.0274509806
0.0196078438 0.2000000030 0.0196078438
0.0313725509 0.2039215714 0.0196078438
0.0588235296 0.2039215714 0.0196078438
0.0823529437 0.2039215714 0.0196078438
0.1098039225 0.2039215714 0.0196078438
0.1372549087 0.2078431398 0.0196078438
0.1686274558 0.2078431398 0.0196078438
0.1960784346 0.2078431398 0.0196078438
0.2235294133 0.2117647082 0.0196078438
0.2549019754 0.2117647082 0.0196078438
0.2862745225 0.2156862766 0.0196078438
0.3176470697 0.2156862766 0.0196078438
0.3490196168 0.2196078449 0.0196078438
0.3843137324 0.2196078449 0.0196078438
0.4196078479 0.2235294133 0.0196078438
0.4549019635 0.2274509817 0.0196078438
0.4901960790 0.2313725501 0.0235294122
0.5254902244 0.2352941185 0.0235294122
0.5607843399 0.2352941185 0.0196078438
0.5960784554 0.2392156869 0.0235294122
0.6313725710 0.2431372553 0.0235294122
0.6627451181 0.2509804070 0.0235294122
0.6980392337 0.2588235438 0.0235294122
0.7294117808 0.2627451122 0.0235294122
0.7647058964 0.2705882490 0.0274509806
0.7960784435 0.2784313858 0.0274509806
0.8274509907 0.2901960909 0.0274509806
0.8588235378 0.2980392277 0.0274509806
0.8941176534 0.3098039329 0.0274509806
0.9215686321 0.3254902065 0.0274509806
0.9529411793 0.3411764801 0.0274509806
0.9803921580 0.3607843220 0.0313725509
1.0000000000 0.3843137324 0.0352941193
0.0196078438 0.2274509817 0.0235294122
0.0313725509 0.2313725501 0.0235294122
0.0549019612 0.2313725501 0.0235294122
0.0823529437 0.2313725501 0.0235294122
0.1098039225 0.2352941185 0.0235294122
0.1372549087 0.2352941185 0.0235294122
0.1647058874 0.2352941185 0.0235294122
0.1921568662 0.2392156869 0.0235294122
0.2274509817 0.2392156869 0.0235294122
0.2509804070 0.2431372553 0.0274509806
0.2823529541 0.2431372553 0.0274509806
0.3176470697 0.2470588237 0.0274509806
0.3490196168 0.2470588237 0.0274509806
0.3843137324 0.2509804070 0.0274509806
0.4196078479 0.2509804070 0.0274509806
0.4549019635 0.2549019754 0.0274509806
0.4901960790 0.2588235438 0.0274509806
0.5254902244 0.2627451122 0.0274509806
0.5607843399 0.2666666806 0.0274509806
0.5960784554 0.2705882490 0.0274509806
0.6313725710 0.2745098174 0.0274509806
0.6627451181 0.2784313858 0.0274509806
0.6980392337 0.2823529541 0.0274509806
0.7294117808 0.2901960909 0.0313725509
0.7647058964 0.2980392277 0.0274509806
0.7960784435 0.3058823645 0.0313725509
0.8274509907 0.3137255013 0.0313725509
0.8588235378 0.3254902065 0.0313725509
0.8941176534 0.3333333433 0.0313725509
0.9215686321 0.3490196168 0.0313725509
0.9529411793 0.3607843220 0.0352941193
0.9803921580 0.3803921640 0.0352941193
1.0000000000 0.4039215744 0.0352941193
0.0196078438 0.2588235438 0.0274509806
0.0313725509 0.2588235438 0.0313725509
0.0549019612 0.2588235438 0.0313725509
0.0784313753 0.2627451122 0.0313725509
0.1058823541 0.2627451122 0.0313725509
0.1372549087 0.2666666806 0.0313725509
0.1647058874 0.2666666806 0.0313725509
0.1921568662 0.2666666806 0.0313725509
0.2235294133 0.2705882490 0.0274509806
0.2549019754 0.2705882490 0.0313725509
0.2823529541 0.2745098174 0.0313725509
0.3176470697 0.2745098174 0.0313725509
0.3490196168 0.2784313858 0.0313725509
0.3843137324 0.2784313858 0.0313725509
0.4196078479 0.2823529541 0.0313725509
0.4509803951 0.2862745225 0.0313725509
0.4901960790 0.2862745225 0.0313725509
0.5254902244 0.2901960909 0.0313725509
0.5607843399 0.2941176593 0.0313725509
0.5960784554 0.2980392277 0.0313725509
0.6313725710 0.3019607961 0.0352941193
0.6627451181 0.3058823645 0.0352941193
0.6980392337 0.3137255013 0.0352941193
0.7294117808 0.3176470697 0.0352941193
0.7647058964 0.3254902065 0.0352941193
0.7960784435 0.3333333433 0.0352941193
0.8274509907 0.3411764801 0.0352941193
0.8588235378 0.3490196168 0.0392156877
0.8901960850 0.3568627536 0.0392156877
0.9215686321 0.3725490272 0.0392156877
0.9529411793 0.3843137324 0.0392156877
0.9803921580 0.4039215744 0.0431372561
1.0000000000 0.4235294163 0.0431372561
0.0196078438 0.2901960909 0.0352941193
0.0313725509 0.2901960909 0.0352941193
0.0549019612 0.2941176593 0.0352941193
0.0784313753 0.2941176593 0.0352941193
0.1058823541 0.2941176593 0.0352941193
0.1372549087 0.2980392277 0.0352941193
0.1607843190 0.2980392277 0.0352941193
0.1921568662 0.3019607961 0.0352941193
0.2235294133 0.3019607961 0.0352941193
0.2509804070 0.3019607961 0.0352941193
0.2823529541 0.3019607961 0.0352941193
0.3176470697 0.3058823645 0.0352941193
0.3490196168 0.3058823645 0.0352941193
0.3843137324 0.3098039329 0.0352941193
0.4196078479 0.3098039329 0.0392156877
0.4509803951 0.3137255013 0.0392156877
0.4901960790 0.3176470697 0.0392156877
0.5254902244 0.3215686381 0.0392156877
0.5607843399 0.3215686381 0.0392156877
0.5960784554 0.3254902065 0.0392156877
0.6274510026 0.3294117749 0.0392156877
0.6627451181 0.3333333433 0.0392156877
0.6980392337 0.3411764801 0.0392156877
0.7294117808 0.3450980484 0.0392156877
0.7647058964 0.3529411852 0.0431372561
0.7960784435 0.3568627536 0.0431372561
0.8274509907 0.3647058904 0.0431372561
0.8588235378 0.3725490272 0.0431372561
0.8901960850 0.3843137324 0.0431372561
0.9215686321 0.3960784376 0.0470588244
0.9529411793 0.4078431427 0.0470588244
0.9803921580 0.4235294163 0.0470588244
1.0000000000 0.4431372583 0.0509803928
0.0196078438 0.3215686381 0.0431372561
0.0274509806 0.3254902065 0.0431372561
0.0509803928 0.3254902065 0.0431372561
0.0784313753 0.3254902065 0.0431372561
0.1058823541 0.3294117749 0.0431372561
0.1333333403 0.3294117749 0.0431372561
0.1607843190 0.3294117749 0.0431372561
0.1882352978 0.3333333433 0.0431372561
0.2196078449 0.3333333433 0.0431372561
0.2509804070 0.3333333433 0.0431372561
0.2823529541 0.3333333433 0.0431372561
0.3176470697 0.3372549117 0.0431372561
0.3490196168 0.3411764801 0.0431372561
0.3803921640 0.3411764801 0.0431372561
0.4196078479 0.3450980484 0.0431372561
0.4509803951 0.3450980484 0.0431372561
0.4901960790 0.3490196168 0.0431372561
0.5215686560 0.3490196168 0.0470588244
0.5607843399 0.3529411852 0.0431372561
0.5921568871 0.3568627536 0.0470588244
0.6274510026 0.3607843220 0.0470588244
0.6627451181 0.3647058904 0.0470588244
0.6980392337 0.3686274588 0.0470588244
0.7294117808 0.3725490272 0.0470588244
0.7647058964 0.3803921640 0.0470588244
0.7960784435 0.3882353008 0.0470588244
0.8274509907 0.3921568692 0.0509803928
0.8588235378 0.4000000060 0.0509803928
0.8901960850 0.4078431427 0.0509803928
0.9215686321 0.4196078479 0.0509803928
0.9529411793 0.4313725531 0.0549019612
0.9803921580 0.4470588267 0.0549019612
1.0000000000 0.4666666687 0.0549019612
0.0196078438 0.3568627536 0.0470588244
0.0274509806 0.3568627536 0.0509803928
0.0509803928 0.3607843220 0.0509803928
0.0745098069 0.3607843220 0.0509803928
0.1019607857 0.3607843220 0.0509803928
0.1333333403 0.3607843220 0.0509803928
0.1607843190 0.3647058904 0.0509803928
0.1882352978 0.3647058904 0.0509803928
0.2196078449 0.3647058904 0.0509803928
0.2470588237 0.3686274588 0.0509803928
0.2823529541 0.3686274588 0.0509803928
0.3137255013 0.3686274588 0.0509803928
0.3490196168 0.3725490272 0.0509803928
0.3803921640 0.3725490272 0.0509803928
0.4156862795 0.3764705956 0.0509803928
0.4509803951 0.3764705956 0.0509803928
0.4862745106 0.3803921640 0.0509803928
0.5215686560 0.3803921640 0.0549019612
0.5568627715 0.3843137324 0.0549019612
0.5921568871 0.3882353008 0.0549019612
0.6274510026 0.3921568692 0.0549019612
0.6627451181 0.3960784376 0.0549019612
0.6941176653 0.4000000060 0.0549019612
0.7294117808 0.4039215744 0.0549019612
0.7607843280 0.4078431427 0.0549019612
0.7960784435 0.4156862795 0.0588235296
0.8274509907 0.4196078479 0.0549019612
0.8588235378 0.4274509847 0.0588235296
0.8901960850 0.4352941215 0.0588235296
0.9215686321 0.4470588267 0.0588235296
0.9529411793 0.4588235319 0.0627451017
0.9803921580 0.4705882370 0.0627451017
1.0000000000 0.4901960790 0.0627451017
0.0196078438 0.3882353008 0.0588235296
0.0274509806 0.3921568692 0.0588235296
0.0509803928 0.3921568692 0.0588235296
0.0745098069 0.3921568692 0.0588235296
0.1019607857 0.3960784376 0.0588235296
0.1294117719 0.3960784376 0.0588235296
0.1607843190 0.3960784376 0.0588235296
0.1882352978 0.3960784376 0.0588235296
0.2196078449 0.4000000060 0.0588235296
0.2470588237 0.4000000060 0.0588235296
0.2784313858 0.4000000060 0.0588235296
0.3137255013 0.4039215744 0.0588235296
0.3490196168 0.4039215744 0.0588235296
0.3803921640 0.4039215744 0.0588235296
0.4156862795 0.4078431427 0.0588235296
0.4509803951 0.4078431427 0.0627451017
0.4862745106 0.4117647111 0.0627451017
0.5215686560 0.4117647111 0.0627451017
0.5568627715 0.4156862795 0.0627451017
0.5921568871 0.4196078479 0.0627451017
0.6274510026 0.4196078479 0.0627451017
0.6627451181 0.4235294163 0.0627451017
0.6941176653 0.4274509847 0.0627451017
0.7294117808 0.4352941215 0.0627451017
0.7607843280 0.4392156899 0.0666666701
0.7960784435 0.4431372583 0.0627451017
0.8274509907 0.4509803951 0.0666666701
0.8588235378 0.4549019635 0.0666666701
0.8901960850 0.4627451003 0.0666666701
0.9215686321 0.4705882370 0.0666666701
0.9529411793 0.4823529422 0.0705882385
0.9803921580 0.4941176474 0.0705882385
1.0000000000 0.5098039508 0.0745098069
0.0196078438 0.4235294163 0.0666666701
0.0235294122 0.4274509847 0.0666666701
0.0470588244 0.4274509847 0.0666666701
0.0745098069 0.4274509847 0.0666666701
0.1019607857 0.4274509847 0.0666666701
0.1294117719 0.4313725531 0.0705882385
0.1568627506 0.4313725531 0.0666666701
0.1843137294 0.4313725531 0.0666666701
0.2196078449 0.4313725531 0.0666666701
0.2470588237 0.4352941215 0.0705882385
0.2784313858 0.4352941215 0.0705882385
0.3137255013 0.4352941215 0.0705882385
0.3450980484 0.4352941215 0.0705882385
0.3803921640 0.4392156899 0.0705882385
0.4156862795 0.4392156899 0.0705882385
0.4509803951 0.4431372583 0.0705882385
0.4862745106 0.4431372583 0.0705882385
0.5215686560 0.4470588267 0.0705882385
0.5568627715 0.4470588267 0.0705882385
0.5921568871 0.4509803951 0.0745098069
0.6274510026 0.4549019635 0.0745098069
0.6588235497 0.4549019635 0.0745098069
0.6941176653 0.4588235319 0.0745098069
0.7294117808 0.4627451003 0.0745098069
0.7607843280 0.4666666687 0.0745098069
0.7960784435 0.4745098054 0.0745098069
0.8274509907 0.4784313738 0.0745098069
0.8588235378 0.4862745106 0.0745098069
0.8901960850 0.4901960790 0.0784313753
0.9215686321 0.4980392158 0.0784313753
0.9529411793 0.5098039508 0.0784313753
0.9803921580 0.5215686560 0.0823529437
1.0000000000 0.5372549295 0.0823529437
0.0196078438 0.4588235319 0.0784313753
0.0235294122 0.4627451003 0.0784313753
0.0470588244 0.4627451003 0.0784313753
0.0705882385 0.4627451003 0.0784313753
0.0980392173 0.4627451003 0.0784313753
0.1294117719 0.4627451003 0.0784313753
0.1529411823 0.4666666687 0.0784313753
0.1843137294 0.4666666687 0.0784313753
0.2156862766 0.4666666687 0.0823529437
0.2431372553 0.4666666687 0.0784313753
0.2745098174 0.4705882370 0.0823529437
0.3098039329 0.4705882370 0.0823529437
0.3450980484 0.4705882370 0.0823529437
0.3803921640 0.4705882370 0.0823529437
0.4156862795 0.4745098054 0.0823529437
0.4470588267 0.4745098054 0.0823529437
0.4862745106 0.4784313738 0.0823529437
0.5215686560 0.4784313738 0.0823529437
0.5568627715 0.4823529422 0.0823529437
0.5921568871 0.4823529422 0.0823529437
0.6274510026 0.4862745106 0.0823529437
0.6588235497 0.4901960790 0.0823529437
0.6941176653 0.4901960790 0.0823529437
0.7294117808 0.4941176474 0.0862745121
0.7607843280 0.4980392158 0.0862745121
0.7921568751 0.5019608140 0.0862745121
0.8274509907 0.5098039508 0.0862745121
0.8588235378 0.5137255192 0.0862745121
0.8901960850 0.5215686560 0.0862745121
0.9215686321 0.5294117928 0.0901960805
0.9529411793 0.5372549295 0.0901960805
0.9803921580 0.5450980663 0.0901960805
1.0000000000 0.5607843399 0.0941176489
0.0196078438 0.4941176474 0.0901960805
0.0235294122 0.4941176474 0.0901960805
0.0431372561 0.4980392158 0.0901960805
0.0705882385 0.4980392158 0.0901960805
0.0980392173 0.4980392158 0.0901960805
0.1254902035 0.4980392158 0.0901960805
0.1529411823 0.4980392158 0.0941176489
0.1803921610 0.5019608140 0.0901960805
0.2117647082 0.5019608140 0.0901960805
0.2431372553 0.5019608140 0.0941176489
0.2745098174 0.5019608140 0.0941176489
0.3058823645 0.5019608140 0.0941176489
0.3411764801 0.5058823824 0.0941176489
0.3764705956 0.5058823824 0.0941176489
0.4117647111 0.5058823824 0.0941176489
0.4470588267 0.5098039508 0.0941176489
