assets/luts/Pentax_Harubeni_33_Rec709.cube
# Rebuilt strictly from input/output TIFFs (no prior cube reference)
# Layout: tile=G, x=R, y=B | chart 8712x264
TITLE "Pentax_Harubeni_33_Rec709"
LUT_3D_SIZE 5
DOMAIN_MIN 0.0 0.0 0.0
DOMAIN_MAX 1.0 1.0 1.0
0.0196078438 0.0000000000 0.0000000000
0.2313725501 0.0000000000 0.0000000000
0.4980392158 0.0078431377 0.0000000000
0.7647058964 0.0470588244 0.0000000000
1.0000000000 0.1803921610 0.0000000000
0.0196078438 0.1725490242 0.0117647061
0.2235294133 0.1882352978 0.0156862754
0.4901960790 0.2039215714 0.0156862754
0.7647058964 0.2431372553 0.0196078438
1.0000000000 0.3647058904 0.0274509806
0.0196078438 0.4235294163 0.0666666701
0.2196078449 0.4313725531 0.0666666701
0.4862745106 0.4431372583 0.0705882385
0.7607843280 0.4666666687 0.0745098069
1.0000000000 0.5372549295 0.0823529437
0.0196078438 0.6980392337 0.2039215714
0.1921568662 0.7019608021 0.2039215714
0.4705882370 0.7058823705 0.2078431398
0.7568627596 0.7176470757 0.2078431398
1.0000000000 0.7450980544 0.2196078449
0.0196078438 0.9568627477 0.5215686560
0.1137254909 0.9607843161 0.5215686560
0.4235294163 0.9607843161 0.5215686560
0.7372549176 0.9607843161 0.5215686560
1.0000000000 0.9686274529 0.5254902244
0.0392156877 0.0117647061 0.1725490242
0.2588235438 0.0235294122 0.1764705926
0.5098039508 0.0392156877 0.1803921610
0.7725490332 0.0784313753 0.1803921610
1.0000000000 0.2117647082 0.1921568662
0.0392156877 0.2078431398 0.2117647082
0.2509804070 0.2196078449 0.2156862766
0.5058823824 0.2352941185 0.2196078449
0.7686274648 0.2784313858 0.2196078449
1.0000000000 0.3882353008 0.2274509817
0.0274509806 0.4470588267 0.2666666806
0.2431372553 0.4549019635 0.2705882490
0.5019608140 0.4627451003 0.2745098174
0.7686274648 0.4862745106 0.2784313858
1.0000000000 0.5490196347 0.2862745225
0.0196078438 0.7058823705 0.3843137324
0.2196078449 0.7098039389 0.3843137324
0.4862745106 0.7137255073 0.3843137324
0.7607843280 0.7215686440 0.3882353008
1.0000000000 0.7490196228 0.3921568692
0.0196078438 0.9607843161 0.6000000238
0.1372549087 0.9607843161 0.6039215922
0.4392156899 0.9607843161 0.6039215922
0.7450980544 0.9647058845 0.6039215922
1.0000000000 0.9686274529 0.6078431606
0.0745098069 0.0588235296 0.4274509847
0.2941176593 0.0705882385 0.4313725531
0.5294117928 0.0862745121 0.4313725531
0.7803921700 0.1254902035 0.4352941215
1.0000000000 0.2627451122 0.4392156899
0.0705882385 0.2549019754 0.4549019635
0.2901960909 0.2666666806 0.4549019635
0.5254902244 0.2823529541 0.4549019635
0.7764706016 0.3215686381 0.4549019635
1.0000000000 0.4196078479 0.4627451003
0.0588235296 0.4745098054 0.4823529422
0.2784313858 0.4823529422 0.4862745106
0.5215686560 0.4901960790 0.4862745106
0.7764706016 0.5098039508 0.4862745106
1.0000000000 0.5686274767 0.4901960790
0.0392156877 0.7176470757 0.5490196347
0.2588235438 0.7215686440 0.5490196347
0.5098039508 0.7254902124 0.5490196347
0.7686274648 0.7333333492 0.5529412031
1.0000000000 0.7607843280 0.5529412031
0.0196078438 0.9607843161 0.6901960969
0.1764705926 0.9647058845 0.6901960969
0.4627451003 0.9647058845 0.6901960969
0.7529411912 0.9647058845 0.6901960969
1.0000000000 0.9725490212 0.6941176653
0.1647058874 0.1725490242 0.7019608021
0.3764705956 0.1843137294 0.7019608021
0.5725490451 0.2000000030 0.7019608021
0.7960784435 0.2431372553 0.7058823705
1.0000000000 0.3607843220 0.7058823705
0.1568627506 0.3568627536 0.7098039389
0.3725490272 0.3686274588 0.7098039389
0.5686274767 0.3803921640 0.7137255073
0.7960784435 0.4078431427 0.7137255073
1.0000000000 0.4901960790 0.7137255073
0.1490196139 0.5333333611 0.7254902124
0.3647058904 0.5372549295 0.7254902124
0.5647059083 0.5450980663 0.7254902124
0.7921568751 0.5607843399 0.7254902124
1.0000000000 0.6117647290 0.7254902124
0.1254902035 0.7411764860 0.7529411912
0.3411764801 0.7450980544 0.7529411912
0.5529412031 0.7490196228 0.7529411912
0.7882353067 0.7568627596 0.7529411912
1.0000000000 0.7803921700 0.7529411912
0.0509803928 0.9686274529 0.8235294223
0.2627451122 0.9686274529 0.8235294223
0.5176470876 0.9686274529 0.8235294223
0.7725490332 0.9725490212 0.8235294223
1.0000000000 0.9764705896 0.8235294223
0.4274509847 0.4705882370 0.9607843161
0.5529412031 0.4784313738 0.9607843161
0.6784313917 0.4862745106 0.9607843161
0.8431372643 0.5098039508 0.9607843161
1.0000000000 0.5921568871 0.9568627477
0.4235294163 0.5647059083 0.9607843161
0.5529412031 0.5725490451 0.9607843161
0.6745098233 0.5764706135 0.9607843161
0.8431372643 0.5921568871 0.9607843161
1.0000000000 0.6549019814 0.9607843161
0.4196078479 0.6627451181 0.9647058845
0.5450980663 0.6666666865 0.9647058845
0.6745098233 0.6705882549 0.9647058845
0.8392156959 0.6823529601 0.9647058845
1.0000000000 0.7294117808 0.9647058845
0.4000000060 0.8078431487 0.9686274529
0.5333333611 0.8117647171 0.9686274529
0.6666666865 0.8117647171 0.9686274529
0.8392156959 0.8196078539 0.9686274529
1.0000000000 0.8431372643 0.9686274529
0.3333333433 0.9803921580 0.9803921580
0.4941176474 0.9803921580 0.9803921580
0.6392157078 0.9843137264 0.9803921580
0.8235294223 0.9843137264 0.9803921580
1.0000000000 0.9882352948 0.9843137264
