assets/luts/Ricoh_GR2_Vivid_33_Rec709.cube
# Generated from DCU output TIFF (16-bit) sampled at patch centers
# Input chart: 33x33x33 full cube packed into 4928x3264 JPEG
# Intended use: apply on Rec.709/Display-referred footage AFTER any log->709 transform.
TITLE "Ricoh_GR2_Vivid_33_Rec709"
LUT_3D_SIZE 33
DOMAIN_MIN 0.0 0.0 0.0
DOMAIN_MAX 1.0 1.0 1.0
0.0000000000 0.0000000000 0.0000000000
0.0156862754 0.0000000000 0.0000000000
0.0431372561 0.0000000000 0.0000000000
0.0705882385 0.0000000000 0.0000000000
0.1019607857 0.0000000000 0.0000000000
0.1333333403 0.0000000000 0.0000000000
0.1686274558 0.0000000000 0.0000000000
0.2078431398 0.0000000000 0.0000000000
0.2392156869 0.0000000000 0.0000000000
0.2823529541 0.0000000000 0.0000000000
0.3137255013 0.0000000000 0.0000000000
0.3529411852 0.0000000000 0.0000000000
0.3921568692 0.0000000000 0.0000000000
0.4352941215 0.0000000000 0.0000000000
0.4666666687 0.0000000000 0.0000000000
0.5176470876 0.0000000000 0.0000000000
0.5529412031 0.0000000000 0.0000000000
0.5843137503 0.0000000000 0.0000000000
0.6235294342 0.0000000000 0.0000000000
0.6627451181 0.0000000000 0.0000000000
0.6980392337 0.0000000000 0.0000000000
0.7294117808 0.0000000000 0.0000000000
0.7607843280 0.0000000000 0.0000000000
0.8000000119 0.0000000000 0.0000000000
0.8274509907 0.0000000000 0.0000000000
0.8588235378 0.0000000000 0.0000000000
0.8823529482 0.0000000000 0.0000000000
0.9098039269 0.0000000000 0.0000000000
0.9372549057 0.0000000000 0.0000000000
0.9607843161 0.0000000000 0.0000000000
0.9764705896 0.0000000000 0.0000000000
0.9960784316 0.0000000000 0.0000000000
1.0000000000 0.0627451017 0.0627451017
0.0000000000 0.0156862754 0.0000000000
0.0156862754 0.0117647061 0.0000000000
0.0431372561 0.0156862754 0.0000000000
0.0745098069 0.0117647061 0.0000000000
0.1019607857 0.0117647061 0.0000000000
0.1372549087 0.0117647061 0.0000000000
0.1725490242 0.0078431377 0.0000000000
0.2039215714 0.0039215689 0.0000000000
0.2470588237 0.0039215689 0.0000000000
0.2745098174 0.0039215689 0.0000000000
0.3176470697 0.0039215689 0.0000000000
0.3568627536 0.0000000000 0.0000000000
0.3921568692 0.0000000000 0.0000000000
0.4392156899 0.0000000000 0.0000000000
0.4745098054 0.0000000000 0.0000000000
0.5215686560 0.0000000000 0.0000000000
0.5568627715 0.0000000000 0.0000000000
0.5882353187 0.0000000000 0.0000000000
0.6274510026 0.0000000000 0.0000000000
0.6627451181 0.0000000000 0.0000000000
0.6980392337 0.0000000000 0.0000000000
0.7333333492 0.0000000000 0.0000000000
0.7686274648 0.0000000000 0.0000000000
0.7960784435 0.0000000000 0.0000000000
0.8313725591 0.0000000000 0.0000000000
0.8588235378 0.0000000000 0.0000000000
0.8901960850 0.0000000000 0.0000000000
0.9137254953 0.0000000000 0.0000000000
0.9372549057 0.0000000000 0.0000000000
0.9607843161 0.0000000000 0.0000000000
0.9803921580 0.0000000000 0.0000000000
0.9921568632 0.0000000000 0.0000000000
1.0000000000 0.0862745121 0.0862745121
0.0000000000 0.0431372561 0.0000000000
0.0156862754 0.0431372561 0.0000000000
0.0352941193 0.0392156877 0.0000000000
0.0666666701 0.0392156877 0.0000000000
0.0980392173 0.0352941193 0.0000000000
0.1294117719 0.0352941193 0.0000000000
0.1647058874 0.0313725509 0.0000000000
0.2000000030 0.0313725509 0.0000000000
0.2352941185 0.0274509806 0.0000000000
0.2745098174 0.0274509806 0.0000000000
0.3098039329 0.0235294122 0.0000000000
0.3490196168 0.0196078438 0.0000000000
0.3843137324 0.0156862754 0.0000000000
0.4274509847 0.0156862754 0.0000000000
0.4705882370 0.0117647061 0.0000000000
0.5098039508 0.0078431377 0.0000000000
0.5490196347 0.0039215689 0.0000000000
0.5921568871 0.0039215689 0.0000000000
0.6235294342 0.0000000000 0.0000000000
0.6666666865 0.0000000000 0.0000000000
0.6980392337 0.0000000000 0.0000000000
0.7294117808 0.0000000000 0.0000000000
0.7647058964 0.0000000000 0.0000000000
0.7960784435 0.0000000000 0.0000000000
0.8313725591 0.0000000000 0.0000000000
0.8588235378 0.0000000000 0.0000000000
0.8862745166 0.0000000000 0.0000000000
0.9176470637 0.0000000000 0.0000000000
0.9372549057 0.0000000000 0.0000000000
0.9607843161 0.0000000000 0.0000000000
0.9764705896 0.0000000000 0.0000000000
0.9921568632 0.0000000000 0.0000000000
1.0000000000 0.0823529437 0.0823529437
0.0000000000 0.0705882385 0.0000000000
0.0117647061 0.0705882385 0.0000000000
0.0431372561 0.0705882385 0.0000000000
0.0666666701 0.0627451017 0.0000000000
0.0980392173 0.0666666701 0.0000000000
0.1294117719 0.0627451017 0.0000000000
0.1647058874 0.0588235296 0.0000000000
0.2039215714 0.0588235296 0.0000000000
0.2392156869 0.0588235296 0.0000000000
0.2745098174 0.0549019612 0.0000000000
0.3137255013 0.0509803928 0.0000000000
0.3529411852 0.0431372561 0.0000000000
0.3960784376 0.0470588244 0.0000000000
0.4274509847 0.0352941193 0.0000000000
0.4745098054 0.0352941193 0.0000000000
0.5137255192 0.0274509806 0.0000000000
0.5568627715 0.0235294122 0.0000000000
0.5803921819 0.0196078438 0.0000000000
0.6235294342 0.0196078438 0.0000000000
0.6588235497 0.0117647061 0.0000000000
0.7019608021 0.0117647061 0.0000000000
0.7294117808 0.0039215689 0.0000000000
0.7647058964 0.0000000000 0.0000000000
0.7960784435 0.0000000000 0.0000000000
0.8313725591 0.0000000000 0.0000000000
0.8588235378 0.0000000000 0.0000000000
0.8862745166 0.0000000000 0.0000000000
0.9098039269 0.0000000000 0.0000000000
0.9411764741 0.0000000000 0.0000000000
0.9568627477 0.0000000000 0.0000000000
0.9803921580 0.0000000000 0.0000000000
0.9921568632 0.0000000000 0.0000000000
1.0000000000 0.0627451017 0.0627451017
0.0000000000 0.0980392173 0.0000000000
0.0156862754 0.0980392173 0.0000000000
0.0392156877 0.0941176489 0.0000000000
0.0705882385 0.0941176489 0.0000000000
0.0901960805 0.0901960805 0.0000000000
0.1333333403 0.0901960805 0.0000000000
0.1607843190 0.0862745121 0.0000000000
0.2039215714 0.0901960805 0.0000000000
0.2352941185 0.0823529437 0.0000000000
0.2705882490 0.0823529437 0.0000000000
0.3137255013 0.0784313753 0.0000000000
0.3529411852 0.0745098069 0.0000000000
0.3882353008 0.0666666701 0.0000000000
0.4352941215 0.0666666701 0.0000000000
0.4666666687 0.0588235296 0.0000000000
0.5176470876 0.0588235296 0.0000000000
0.5490196347 0.0470588244 0.0000000000
0.5843137503 0.0470588244 0.0000000000
0.6274510026 0.0431372561 0.0000000000
0.6627451181 0.0352941193 0.0000000000
0.6941176653 0.0235294122 0.0000000000
0.7333333492 0.0235294122 0.0000000000
0.7607843280 0.0156862754 0.0000000000
0.8000000119 0.0117647061 0.0000000000
0.8274509907 0.0000000000 0.0000000000
0.8549019694 0.0000000000 0.0000000000
0.8862745166 0.0000000000 0.0000000000
0.9137254953 0.0000000000 0.0000000000
0.9333333373 0.0000000000 0.0000000000
0.9607843161 0.0000000000 0.0000000000
0.9764705896 0.0000000000 0.0000000000
0.9960784316 0.0000000000 0.0000000000
1.0000000000 0.0784313753 0.0784313753
0.0000000000 0.1333333403 0.0000000000
0.0117647061 0.1333333403 0.0000000000
0.0352941193 0.1372549087 0.0000000000
0.0627451017 0.1294117719 0.0000000000
0.0941176489 0.1333333403 0.0000000000
0.1215686277 0.1254902035 0.0000000000
0.1607843190 0.1254902035 0.0000000000
0.1921568662 0.1215686277 0.0000000000
0.2352941185 0.1254902035 0.0000000000
0.2705882490 0.1176470593 0.0000000000
0.3098039329 0.1176470593 0.0000000000
0.3490196168 0.1098039225 0.0000000000
0.3882353008 0.1098039225 0.0000000000
0.4274509847 0.1058823541 0.0000000000
0.4705882370 0.0980392173 0.0000000000
0.5058823824 0.0901960805 0.0000000000
0.5529412031 0.0901960805 0.0000000000
0.5882353187 0.0823529437 0.0000000000
0.6274510026 0.0745098069 0.0000000000
0.6627451181 0.0705882385 0.0000000000
0.7019608021 0.0588235296 0.0000000000
0.7294117808 0.0509803928 0.0000000000
0.7686274648 0.0470588244 0.0000000000
0.7960784435 0.0313725509 0.0000000000
0.8352941275 0.0235294122 0.0000000000
0.8588235378 0.0156862754 0.0000000000
0.8862745166 0.0039215689 0.0000000000
0.9176470637 0.0000000000 0.0000000000
0.9372549057 0.0000000000 0.0000000000
0.9607843161 0.0000000000 0.0000000000
0.9803921580 0.0000000000 0.0000000000
0.9921568632 0.0000000000 0.0000000000
1.0000000000 0.0862745121 0.0862745121
0.0000000000 0.1647058874 0.0000000000
0.0117647061 0.1686274558 0.0000000000
0.0313725509 0.1607843190 0.0000000000
0.0627451017 0.1607843190 0.0000000000
0.0941176489 0.1607843190 0.0000000000
0.1215686277 0.1607843190 0.0000000000
0.1647058874 0.1607843190 0.0000000000
0.1960784346 0.1529411823 0.0000000000
0.2274509817 0.1529411823 0.0000000000
0.2705882490 0.1568627506 0.0000000000
0.3058823645 0.1450980455 0.0000000000
0.3450980484 0.1411764771 0.0000000000
0.3843137324 0.1372549087 0.0000000000
0.4313725531 0.1372549087 0.0000000000
0.4666666687 0.1333333403 0.0000000000
0.5098039508 0.1254902035 0.0000000000
0.5490196347 0.1176470593 0.0000000000
0.5843137503 0.1254902035 0.0000000000
0.6156862974 0.1098039225 0.0000000000
0.6549019814 0.1058823541 0.0000000000
0.6941176653 0.0980392173 0.0000000000
0.7254902124 0.0901960805 0.0000000000
0.7607843280 0.0823529437 0.0000000000
0.7960784435 0.0705882385 0.0000000000
0.8235294223 0.0549019612 0.0000000000
0.8549019694 0.0509803928 0.0000000000
0.8823529482 0.0313725509 0.0000000000
0.9098039269 0.0156862754 0.0000000000
0.9372549057 0.0000000000 0.0000000000
0.9568627477 0.0000000000 0.0000000000
0.9764705896 0.0000000000 0.0000000000
0.9921568632 0.0000000000 0.0000000000
1.0000000000 0.0588235296 0.0588235296
0.0000000000 0.2039215714 0.0000000000
0.0078431377 0.2000000030 0.0000000000
0.0352941193 0.2000000030 0.0000000000
0.0627451017 0.2000000030 0.0000000000
0.0941176489 0.1960784346 0.0000000000
0.1294117719 0.1960784346 0.0000000000
0.1607843190 0.1921568662 0.0000000000
0.1921568662 0.1882352978 0.0000000000
0.2352941185 0.1921568662 0.0000000000
0.2666666806 0.1843137294 0.0000000000
0.3137255013 0.1843137294 0.0000000000
0.3450980484 0.1803921610 0.0000000000
0.3921568692 0.1803921610 0.0000000000
0.4313725531 0.1725490242 0.0000000000
0.4705882370 0.1725490242 0.0000000000
0.5137255192 0.1647058874 0.0000000000
0.5529412031 0.1607843190 0.0000000000
0.5803921819 0.1529411823 0.0000000000
0.6235294342 0.1529411823 0.0000000000
0.6588235497 0.1450980455 0.0000000000
0.6941176653 0.1372549087 0.0000000000
0.7294117808 0.1294117719 0.0000000000
0.7647058964 0.1215686277 0.0000000000
0.8000000119 0.1098039225 0.0000000000
0.8313725591 0.1019607857 0.0000000000
0.8549019694 0.0823529437 0.0000000000
0.8862745166 0.0705882385 0.0000000000
0.9137254953 0.0549019612 0.0000000000
0.9411764741 0.0352941193 0.0000000000
0.9607843161 0.0078431377 0.0000000000
0.9803921580 0.0000000000 0.0000000000
0.9921568632 0.0000000000 0.0000000000
1.0000000000 0.0823529437 0.0823529437
0.0000000000 0.2392156869 0.0000000000
0.0039215689 0.2431372553 0.0000000000
0.0274509806 0.2392156869 0.0000000000
0.0588235296 0.2392156869 0.0000000000
0.0823529437 0.2313725501 0.0000000000
0.1254902035 0.2352941185 0.0000000000
0.1529411823 0.2313725501 0.0000000000
0.1882352978 0.2313725501 0.0000000000
0.2274509817 0.2274509817 0.0000000000
0.2627451122 0.2235294133 0.0000000000
0.2980392277 0.2196078449 0.0000000000
0.3450980484 0.2196078449 0.0000000000
0.3803921640 0.2156862766 0.0000000000
0.4274509847 0.2156862766 0.0000000000
0.4627451003 0.2078431398 0.0000000000
0.5019608140 0.2039215714 0.0000000000
0.5490196347 0.1960784346 0.0000000000
0.5843137503 0.1960784346 0.0000000000
0.6196078658 0.1843137294 0.0000000000
0.6666666865 0.1843137294 0.0000000000
0.6941176653 0.1725490242 0.0000000000
0.7333333492 0.1725490242 0.0000000000
0.7607843280 0.1607843190 0.0000000000
0.7960784435 0.1490196139 0.0000000000
0.8313725591 0.1372549087 0.0000000000
0.8588235378 0.1294117719 0.0000000000
0.8823529482 0.1058823541 0.0000000000
0.9137254953 0.0941176489 0.0000000000
0.9333333373 0.0666666701 0.0000000000
0.9647058845 0.0470588244 0.0000000000
0.9764705896 0.0196078438 0.0000000000
0.9960784316 0.0000000000 0.0000000000
1.0000000000 0.0823529437 0.0823529437
0.0000000000 0.2784313858 0.0000000000
0.0078431377 0.2784313858 0.0000000000
0.0274509806 0.2784313858 0.0000000000
0.0509803928 0.2705882490 0.0000000000
0.0901960805 0.2745098174 0.0000000000
0.1176470593 0.2705882490 0.0000000000
0.1568627506 0.2745098174 0.0000000000
0.1921568662 0.2666666806 0.0000000000
0.2235294133 0.2627451122 0.0000000000
0.2666666806 0.2627451122 0.0000000000
0.3019607961 0.2588235438 0.0000000000
0.3490196168 0.2588235438 0.0000000000
0.3843137324 0.2588235438 0.0000000000
0.4235294163 0.2509804070 0.0000000000
0.4705882370 0.2509804070 0.0000000000
0.5019608140 0.2392156869 0.0000000000
0.5568627715 0.2431372553 0.0000000000
0.5803921819 0.2392156869 0.0000000000
0.6196078658 0.2352941185 0.0000000000
0.6509804130 0.2196078449 0.0000000000
0.6980392337 0.2235294133 0.0000000000
0.7254902124 0.2156862766 0.0000000000
0.7647058964 0.2078431398 0.0000000000
0.7921568751 0.1960784346 0.0000000000
0.8274509907 0.1921568662 0.0000000000
0.8549019694 0.1725490242 0.0000000000
0.8862745166 0.1647058874 0.0000000000
0.9098039269 0.1450980455 0.0000000000
0.9372549057 0.1294117719 0.0000000000
0.9568627477 0.1019607857 0.0000000000
0.9803921580 0.0705882385 0.0000000000
0.9921568632 0.0274509806 0.0000000000
1.0000000000 0.0862745121 0.0862745121
0.0000000000 0.3137255013 0.0000000000
0.0039215689 0.3137255013 0.0000000000
0.0235294122 0.3098039329 0.0000000000
0.0509803928 0.3137255013 0.0000000000
0.0862745121 0.3098039329 0.0000000000
0.1176470593 0.3098039329 0.0000000000
0.1490196139 0.3019607961 0.0000000000
0.1921568662 0.3019607961 0.0000000000
0.2274509817 0.2980392277 0.0000000000
0.2627451122 0.2980392277 0.0000000000
0.3019607961 0.2941176593 0.0000000000
0.3411764801 0.2941176593 0.0000000000
0.3843137324 0.2901960909 0.0000000000
0.4274509847 0.2901960909 0.0000000000
0.4627451003 0.2823529541 0.0000000000
0.5058823824 0.2823529541 0.0000000000
0.5450980663 0.2745098174 0.0000000000
0.5803921819 0.2745098174 0.0000000000
0.6156862974 0.2705882490 0.0000000000
0.6549019814 0.2627451122 0.0000000000
0.6941176653 0.2588235438 0.0000000000
0.7254902124 0.2549019754 0.0000000000
0.7568627596 0.2431372553 0.0000000000
0.7960784435 0.2352941185 0.0000000000
0.8235294223 0.2274509817 0.0000000000
0.8549019694 0.2156862766 0.0000000000
0.8823529482 0.2039215714 0.0000000000
0.9098039269 0.1921568662 0.0000000000
0.9372549057 0.1647058874 0.0000000000
0.9607843161 0.1490196139 0.0000000000
0.9764705896 0.1137254909 0.0000000000
0.9921568632 0.0666666701 0.0000000000
1.0000000000 0.0745098069 0.0745098069
0.0000000000 0.3529411852 0.0000000000
0.0000000000 0.3568627536 0.0000000000
0.0235294122 0.3529411852 0.0000000000
0.0509803928 0.3529411852 0.0000000000
0.0784313753 0.3529411852 0.0000000000
0.1137254909 0.3529411852 0.0000000000
0.1490196139 0.3490196168 0.0000000000
0.1803921610 0.3490196168 0.0000000000
0.2235294133 0.3450980484 0.0000000000
0.2588235438 0.3450980484 0.0000000000
0.2980392277 0.3450980484 0.0000000000
0.3372549117 0.3372549117 0.0000000000
0.3764705956 0.3372549117 0.0000000000
0.4196078479 0.3333333433 0.0000000000
0.4588235319 0.3294117749 0.0000000000
0.5058823824 0.3254902065 0.0000000000
0.5450980663 0.3254902065 0.0000000000
0.5764706135 0.3176470697 0.0000000000
0.6196078658 0.3137255013 0.0000000000
0.6588235497 0.3098039329 0.0000000000
0.6980392337 0.3019607961 0.0000000000
0.7294117808 0.2980392277 0.0000000000
0.7647058964 0.2941176593 0.0000000000
0.7921568751 0.2784313858 0.0000000000
0.8352941275 0.2784313858 0.0000000000
0.8549019694 0.2627451122 0.0000000000
0.8901960850 0.2549019754 0.0000000000
0.9137254953 0.2313725501 0.0000000000
0.9372549057 0.2156862766 0.0000000000
0.9647058845 0.2000000030 0.0000000000
0.9803921580 0.1686274558 0.0000000000
0.9960784316 0.1176470593 0.0000000000
1.0000000000 0.0941176489 0.0823529437
0.0000000000 0.3882353008 0.0000000000
0.0000000000 0.3921568692 0.0000000000
0.0196078438 0.3882353008 0.0000000000
0.0470588244 0.3921568692 0.0000000000
0.0705882385 0.3843137324 0.0000000000
0.1098039225 0.3882353008 0.0000000000
0.1450980455 0.3803921640 0.0000000000
0.1843137294 0.3803921640 0.0000000000
0.2156862766 0.3803921640 0.0000000000
0.2588235438 0.3803921640 0.0000000000
0.2941176593 0.3764705956 0.0000000000
0.3411764801 0.3764705956 0.0000000000
0.3764705956 0.3764705956 0.0000000000
0.4156862795 0.3686274588 0.0000000000
0.4588235319 0.3647058904 0.0000000000
0.4980392158 0.3647058904 0.0000000000
0.5450980663 0.3607843220 0.0000000000
0.5764706135 0.3647058904 0.0000000000
0.6078431606 0.3568627536 0.0000000000
0.6509804130 0.3529411852 0.0000000000
0.6862745285 0.3411764801 0.0000000000
0.7215686440 0.3411764801 0.0000000000
0.7568627596 0.3333333433 0.0000000000
0.7921568751 0.3294117749 0.0000000000
0.8196078539 0.3137255013 0.0000000000
0.8549019694 0.3137255013 0.0000000000
0.8784313798 0.3019607961 0.0000000000
0.9098039269 0.2862745225 0.0000000000
0.9333333373 0.2705882490 0.0000000000
0.9568627477 0.2509804070 0.0000000000
0.9764705896 0.2235294133 0.0000000000
0.9921568632 0.1921568662 0.0000000000
1.0000000000 0.1568627506 0.0823529437
0.0000000000 0.4352941215 0.0000000000
0.0000000000 0.4313725531 0.0000000000
0.0156862754 0.4352941215 0.0000000000
0.0352941193 0.4352941215 0.0000000000
0.0705882385 0.4352941215 0.0000000000
0.1019607857 0.4274509847 0.0000000000
0.1372549087 0.4313725531 0.0000000000
0.1725490242 0.4274509847 0.0000000000
0.2117647082 0.4313725531 0.0000000000
0.2549019754 0.4274509847 0.0000000000
0.2901960909 0.4274509847 0.0000000000
0.3294117749 0.4196078479 0.0000000000
0.3725490272 0.4196078479 0.0000000000
0.4078431427 0.4196078479 0.0000000000
0.4588235319 0.4156862795 0.0000000000
0.4980392158 0.4078431427 0.0000000000
0.5372549295 0.4117647111 0.0000000000
0.5725490451 0.4000000060 0.0000000000
0.6196078658 0.4000000060 0.0000000000
0.6509804130 0.3921568692 0.0000000000
0.6941176653 0.3921568692 0.0000000000
0.7254902124 0.3843137324 0.0000000000
0.7607843280 0.3764705956 0.0000000000
0.7960784435 0.3764705956 0.0000000000
0.8274509907 0.3686274588 0.0000000000
0.8549019694 0.3568627536 0.0000000000
0.8862745166 0.3450980484 0.0000000000
0.9098039269 0.3294117749 0.0000000000
0.9411764741 0.3215686381 0.0000000000
0.9607843161 0.3019607961 0.0000000000
0.9843137264 0.2823529541 0.0000000000
0.9921568632 0.2431372553 0.0000000000
1.0000000000 0.2078431398 0.0862745121
0.0000000000 0.4705882370 0.0000000000
0.0000000000 0.4745098054 0.0000000000
0.0117647061 0.4745098054 0.0000000000
0.0352941193 0.4745098054 0.0000000000
0.0627451017 0.4666666687 0.0000000000
0.0980392173 0.4705882370 0.0000000000
0.1333333403 0.4666666687 0.0000000000
0.1686274558 0.4627451003 0.0000000000
0.2117647082 0.4627451003 0.0000000000
0.2470588237 0.4627451003 0.0000000000
0.2862745225 0.4627451003 0.0000000000
0.3254902065 0.4588235319 0.0000000000
0.3647058904 0.4549019635 0.0000000000
0.4156862795 0.4588235319 0.0000000000
0.4509803951 0.4509803951 0.0000000000
0.5019608140 0.4549019635 0.0000000000
0.5333333611 0.4470588267 0.0000000000
0.5725490451 0.4431372583 0.0000000000
0.6156862974 0.4352941215 0.0000000000
0.6549019814 0.4392156899 0.0000000000
0.6862745285 0.4274509847 0.0000000000
0.7294117808 0.4313725531 0.0000000000
0.7568627596 0.4156862795 0.0000000000
0.7921568751 0.4156862795 0.0000000000
0.8274509907 0.4078431427 0.0000000000
0.8549019694 0.4000000060 0.0000000000
0.8823529482 0.3921568692 0.0000000000
0.9137254953 0.3803921640 0.0000000000
0.9333333373 0.3647058904 0.0000000000
0.9647058845 0.3529411852 0.0000000000
0.9764705896 0.3294117749 0.0000000000
0.9960784316 0.2941176593 0.0000000000
1.0000000000 0.2666666806 0.0862745121
0.0000000000 0.5137255192 0.0000000000
0.0000000000 0.5098039508 0.0000000000
0.0117647061 0.5137255192 0.0000000000
0.0313725509 0.5098039508 0.0000000000
0.0627451017 0.5098039508 0.0000000000
0.0941176489 0.5058823824 0.0000000000
0.1333333403 0.5098039508 0.0000000000
0.1686274558 0.5058823824 0.0000000000
0.2078431398 0.5098039508 0.0000000000
0.2470588237 0.5019608140 0.0000000000
0.2862745225 0.5019608140 0.0000000000
0.3294117749 0.5019608140 0.0000000000
0.3686274588 0.5019608140 0.0000000000
0.4156862795 0.4980392158 0.0000000000
0.4549019635 0.4980392158 0.0000000000
0.4901960790 0.4901960790 0.0000000000
0.5411764979 0.4941176474 0.0000000000
0.5725490451 0.4901960790 0.0000000000
0.6117647290 0.4901960790 0.0000000000
0.6509804130 0.4823529422 0.0000000000
0.6901960969 0.4823529422 0.0000000000
0.7176470757 0.4705882370 0.0000000000
0.7607843280 0.4745098054 0.0000000000
0.7882353067 0.4666666687 0.0000000000
0.8274509907 0.4666666687 0.0000000000
0.8549019694 0.4470588267 0.0000000000
0.8823529482 0.4431372583 0.0000000000
0.9098039269 0.4313725531 0.0000000000
0.9372549057 0.4235294163 0.0000000000
0.9607843161 0.4078431427 0.0000000000
0.9803921580 0.3882353008 0.0000000000
0.9921568632 0.3607843220 0.0000000000
1.0000000000 0.3333333433 0.0941176489
0.0000000000 0.5529412031 0.0000000000
0.0000000000 0.5607843399 0.0000000000
0.0039215689 0.5529412031 0.0000000000
0.0235294122 0.5490196347 0.0000000000
0.0509803928 0.5568627715 0.0000000000
0.0901960805 0.5529412031 0.0000000000
0.1215686277 0.5490196347 0.0000000000
0.1607843190 0.5490196347 0.0000000000
0.1921568662 0.5450980663 0.0000000000
0.2431372553 0.5529412031 0.0000000000
0.2784313858 0.5490196347 0.0000000000
0.3176470697 0.5450980663 0.0000000000
0.3607843220 0.5450980663 0.0000000000
0.4000000060 0.5411764979 0.0000000000
0.4470588267 0.5372549295 0.0000000000
0.4862745106 0.5411764979 0.0000000000
0.5254902244 0.5294117928 0.0000000000
0.5764706135 0.5294117928 0.0000000000
0.6078431606 0.5294117928 0.0000000000
0.6470588446 0.5215686560 0.0000000000
0.6862745285 0.5176470876 0.0000000000
0.7215686440 0.5176470876 0.0000000000
0.7529411912 0.5098039508 0.0000000000
0.7921568751 0.5058823824 0.0000000000
0.8196078539 0.5019608140 0.0000000000
0.8549019694 0.4980392158 0.0000000000
0.8784313798 0.4862745106 0.0000000000
0.9098039269 0.4784313738 0.0000000000
0.9333333373 0.4666666687 0.0000000000
0.9568627477 0.4549019635 0.0000000000
0.9803921580 0.4392156899 0.0000000000
0.9960784316 0.4156862795 0.0000000000
1.0000000000 0.3764705956 0.0941176489
0.0000000000 0.5921568871 0.0000000000
0.0000000000 0.5921568871 0.0000000000
0.0039215689 0.5882353187 0.0000000000
0.0196078438 0.5843137503 0.0000000000
0.0509803928 0.5882353187 0.0000000000
0.0823529437 0.5882353187 0.0000000000
0.1215686277 0.5882353187 0.0000000000
0.1529411823 0.5843137503 0.0000000000
0.1960784346 0.5843137503 0.0000000000
0.2352941185 0.5803921819 0.0000000000
0.2745098174 0.5803921819 0.0000000000
0.3176470697 0.5843137503 0.0000000000
0.3607843220 0.5803921819 0.0000000000
0.3960784376 0.5725490451 0.0000000000
0.4470588267 0.5803921819 0.0000000000
0.4823529422 0.5686274767 0.0000000000
0.5333333611 0.5725490451 0.0000000000
0.5686274767 0.5686274767 0.0000000000
0.6078431606 0.5647059083 0.0000000000
0.6431372762 0.5568627715 0.0000000000
0.6862745285 0.5607843399 0.0000000000
0.7176470757 0.5529412031 0.0000000000
0.7607843280 0.5529412031 0.0000000000
0.7882353067 0.5450980663 0.0000000000
0.8235294223 0.5372549295 0.0000000000
0.8509804010 0.5333333611 0.0000000000
0.8823529482 0.5333333611 0.0000000000
0.9137254953 0.5215686560 0.0000000000
0.9372549057 0.5098039508 0.0000000000
0.9568627477 0.4980392158 0.0000000000
0.9803921580 0.4784313738 0.0000000000
0.9921568632 0.4549019635 0.0000000000
1.0000000000 0.4274509847 0.0980392173
0.0000000000 0.6235294342 0.0000000000
0.0000000000 0.6235294342 0.0000000000
0.0000000000 0.6274510026 0.0000000000
0.0196078438 0.6274510026 0.0000000000
0.0431372561 0.6274510026 0.0000000000
0.0784313753 0.6235294342 0.0000000000
0.1058823541 0.6196078658 0.0000000000
0.1529411823 0.6235294342 0.0000000000
0.1843137294 0.6196078658 0.0000000000
0.2274509817 0.6196078658 0.0000000000
0.2745098174 0.6156862974 0.0000000000
0.3137255013 0.6156862974 0.0000000000
0.3568627536 0.6196078658 0.0000000000
