assets/luts/Ricoh_GR2_Vivid_33_Rec709.cube
# Generated from DCU output TIFF (16-bit) sampled at patch centers
# Input chart: 33x33x33 full cube packed into 4928x3264 JPEG
# Intended use: apply on Rec.709/Display-referred footage AFTER any log->709 transform.
TITLE "Ricoh_GR2_Vivid_33_Rec709"
LUT_3D_SIZE 5
DOMAIN_MIN 0.0 0.0 0.0
DOMAIN_MAX 1.0 1.0 1.0
0.0000000000 0.0000000000 0.0000000000
0.2392156869 0.0000000000 0.0000000000
0.5529412031 0.0000000000 0.0000000000
0.8274509907 0.0000000000 0.0000000000
1.0000000000 0.0627451017 0.0627451017
0.0000000000 0.2392156869 0.0000000000
0.2274509817 0.2274509817 0.0000000000
0.5490196347 0.1960784346 0.0000000000
0.8313725591 0.1372549087 0.0000000000
1.0000000000 0.0823529437 0.0823529437
0.0000000000 0.5529412031 0.0000000000
0.1921568662 0.5450980663 0.0000000000
0.5254902244 0.5294117928 0.0000000000
0.8196078539 0.5019608140 0.0000000000
1.0000000000 0.3764705956 0.0941176489
0.0000000000 0.8274509907 0.0000000000
0.1450980455 0.8274509907 0.0000000000
0.4980392158 0.8196078539 0.0000000000
0.8117647171 0.8078431487 0.0000000000
1.0000000000 0.7529411912 0.1254902035
0.0862745121 1.0000000000 0.0862745121
0.0823529437 1.0000000000 0.0823529437
0.3803921640 1.0000000000 0.0941176489
0.7607843280 1.0000000000 0.1254902035
1.0000000000 1.0000000000 0.1843137294
0.0000000000 0.0000000000 0.2392156869
0.2235294133 0.0000000000 0.2235294133
0.5490196347 0.0000000000 0.1960784346
0.8196078539 0.0000000000 0.1372549087
1.0000000000 0.0823529437 0.0823529437
0.0000000000 0.2274509817 0.2235294133
0.2156862766 0.2156862766 0.2156862766
0.5411764979 0.1803921610 0.1803921610
0.8196078539 0.1254902035 0.1294117719
1.0000000000 0.0549019612 0.0549019612
0.0000000000 0.5450980663 0.2000000030
0.1882352978 0.5372549295 0.1843137294
0.5254902244 0.5254902244 0.1568627506
0.8235294223 0.4941176474 0.0901960805
1.0000000000 0.3686274588 0.0901960805
0.0000000000 0.8196078539 0.1411764771
0.1294117719 0.8274509907 0.1254902035
0.4980392158 0.8196078539 0.0941176489
0.8078431487 0.8156862855 0.0274509806
1.0000000000 0.7568627596 0.1254902035
0.0823529437 1.0000000000 0.0823529437
0.0784313753 1.0000000000 0.0784313753
0.3647058904 1.0000000000 0.0901960805
0.7529411912 1.0000000000 0.1215686277
1.0000000000 1.0000000000 0.2470588237
0.0000000000 0.0000000000 0.5529412031
0.2000000030 0.0000000000 0.5490196347
0.5411764979 0.0000000000 0.5294117928
0.8196078539 0.0000000000 0.5019608140
1.0000000000 0.0941176489 0.3803921640
0.0000000000 0.2000000030 0.5490196347
0.1843137294 0.1803921610 0.5411764979
0.5254902244 0.1490196139 0.5254902244
0.8156862855 0.0901960805 0.4980392158
1.0000000000 0.0784313753 0.3647058904
0.0000000000 0.5333333611 0.5333333611
0.1607843190 0.5254902244 0.5254902244
0.5098039508 0.5098039508 0.5098039508
0.8156862855 0.4823529422 0.4784313738
1.0000000000 0.3568627536 0.3607843220
0.0000000000 0.8196078539 0.5058823824
0.0980392173 0.8196078539 0.4901960790
0.4784313738 0.8156862855 0.4784313738
0.8039215803 0.8039215803 0.4392156899
1.0000000000 0.7529411912 0.3372549117
0.0745098069 1.0000000000 0.4039215744
0.0705882385 1.0000000000 0.3843137324
0.3607843220 1.0000000000 0.3607843220
0.7450980544 1.0000000000 0.3333333433
1.0000000000 1.0000000000 0.1686274558
0.0000000000 0.0000000000 0.8274509907
0.1372549087 0.0000000000 0.8274509907
0.4941176474 0.0000000000 0.8235294223
0.8117647171 0.0000000000 0.8078431487
1.0000000000 0.1215686277 0.7529411912
0.0000000000 0.1372549087 0.8235294223
0.1254902035 0.1215686277 0.8196078539
0.4980392158 0.0941176489 0.8196078539
0.8078431487 0.0274509806 0.8078431487
1.0000000000 0.1215686277 0.7529411912
0.0000000000 0.5019608140 0.8196078539
0.0941176489 0.4941176474 0.8156862855
0.4745098054 0.4823529422 0.8117647171
0.8000000119 0.4431372583 0.8039215803
1.0000000000 0.3333333433 0.7490196228
0.0000000000 0.8117647171 0.8078431487
0.0274509806 0.8117647171 0.8078431487
0.4352941215 0.8039215803 0.8039215803
0.7921568751 0.7921568751 0.7921568751
1.0000000000 0.7411764860 0.7372549176
0.1058823541 1.0000000000 0.7647058964
0.1215686277 1.0000000000 0.7568627596
0.3450980484 1.0000000000 0.7490196228
0.7450980544 1.0000000000 0.7450980544
1.0000000000 1.0000000000 0.6901960969
0.0588235296 0.0588235296 1.0000000000
0.0784313753 0.0784313753 1.0000000000
0.3686274588 0.0862745121 1.0000000000
0.7568627596 0.1098039225 1.0000000000
1.0000000000 0.2392156869 0.9960784316
0.0784313753 0.0784313753 1.0000000000
0.0705882385 0.0705882385 1.0000000000
0.3607843220 0.0901960805 1.0000000000
0.7568627596 0.1176470593 1.0000000000
1.0000000000 0.1803921610 1.0000000000
0.0862745121 0.3764705956 1.0000000000
0.0705882385 0.3607843220 1.0000000000
0.3254902065 0.3294117749 1.0000000000
0.7450980544 0.3333333433 1.0000000000
1.0000000000 0.1529411823 1.0000000000
0.1176470593 0.7607843280 1.0000000000
0.0823529437 0.7647058964 1.0000000000
0.3254902065 0.7490196228 1.0000000000
0.7411764860 0.7411764860 1.0000000000
1.0000000000 0.6901960969 1.0000000000
0.1882352978 1.0000000000 1.0000000000
0.1764705926 1.0000000000 1.0000000000
0.1803921610 1.0000000000 1.0000000000
0.6862745285 1.0000000000 1.0000000000
1.0000000000 1.0000000000 1.0000000000
