assets/luts/LUTs/Fujifilm_ClassicNeg_33_Rec709.cube
#LUMIXPHOTOSTYLE STD
TITLE "Fujifilm_ClassicNeg_33_Rec709"
LUT_3D_SIZE 33
DOMAIN_MIN 0.0 0.0 0.0
DOMAIN_MAX 1.0 1.0 1.0
0.023529 0.023529 0.023529
0.027328 0.019731 0.023529
0.046079 0.023529 0.023774
0.069485 0.023529 0.023897
0.091667 0.023039 0.015686
0.108579 0.026838 0.022916
0.127206 0.029902 0.015686
0.165196 0.031373 0.023529
0.186274 0.032353 0.017647
0.212990 0.040931 0.017402
0.248775 0.045833 0.015686
0.276961 0.054902 0.010539
0.306372 0.065196 0.002941
0.343382 0.068995 0.008579
0.387500 0.080147 0.003431
0.418260 0.092525 0.000000
0.456863 0.100000 0.001961
0.506986 0.111642 0.000000
0.543627 0.121569 0.003922
0.587623 0.128676 0.002329
0.636274 0.141176 0.002941
0.690441 0.143872 0.000000
0.740686 0.154167 0.000000
0.781985 0.161887 0.000000
0.825490 0.161765 0.005882
0.867034 0.169485 0.000000
0.905637 0.169362 0.000000
0.939706 0.183701 0.007230
0.975490 0.184804 0.003432
1.000000 0.192892 0.000368
0.999755 0.200490 0.000245
0.996201 0.207966 0.004045
1.000000 0.215686 0.011765
0.023406 0.031250 0.027328
0.031132 0.031132 0.023770
0.046331 0.031128 0.019976
0.069374 0.031963 0.023874
0.087546 0.035064 0.022365
0.112480 0.038377 0.016421
0.131862 0.041444 0.018061
0.162201 0.042988 0.024238
0.181557 0.044056 0.022426
0.218049 0.052014 0.011363
0.249878 0.058625 0.013151
0.279454 0.065238 0.014258
0.309222 0.072886 0.005270
0.339683 0.080564 0.003186
0.383510 0.092172 0.003799
0.423855 0.098219 0.000057
0.460968 0.111458 0.000061
0.507230 0.119182 0.000188
0.545887 0.127206 0.000000
0.589951 0.141030 0.000000
0.639277 0.145373 0.000000
0.691747 0.150245 0.000080
0.741873 0.160615 0.000000
0.785819 0.165652 0.003799
0.828308 0.169485 0.002850
0.866230 0.177110 0.000096
0.908088 0.181817 0.000712
0.940319 0.184927 0.000000
0.977972 0.193091 0.000000
0.993091 0.203811 0.000467
0.999763 0.203930 0.000000
0.999881 0.211884 0.000119
1.000000 0.219485 0.003922
0.019363 0.042402 0.027451
0.023659 0.042647 0.027206
0.042647 0.045650 0.026961
0.065464 0.046569 0.030760
0.085080 0.043811 0.020833
0.114376 0.050084 0.022135
0.138036 0.050735 0.020098
0.166421 0.057476 0.016054
0.193566 0.055699 0.018934
0.219117 0.066177 0.019187
0.246155 0.070021 0.012669
0.279450 0.076516 0.007606
0.316360 0.085601 0.009804
0.341399 0.094217 0.003087
0.381127 0.102206 0.004274
0.418750 0.111512 0.000000
0.460784 0.121201 0.003799
0.507115 0.132843 0.001953
0.549617 0.138725 0.000000
0.594018 0.147940 0.000000
0.641636 0.155453 0.004596
0.690525 0.163235 0.001670
0.736857 0.168213 0.000000
0.782231 0.178623 0.000352
0.828492 0.178125 0.000368
0.864162 0.183931 0.000054
0.905592 0.188924 0.004611
0.940357 0.192808 0.003309
0.971538 0.200705 0.000000
0.993091 0.211520 0.000245
0.996323 0.215441 0.000490
1.000000 0.219723 0.003807
0.999755 0.223774 0.000000
0.015686 0.058456 0.034191
0.023395 0.061431 0.030749
0.039070 0.058089 0.034681
0.058789 0.054868 0.034260
0.083349 0.058456 0.021278
0.104412 0.064821 0.026838
0.127505 0.065633 0.017157
0.161275 0.073120 0.019321
0.183088 0.073958 0.020956
0.221569 0.080354 0.013867
0.246699 0.082866 0.009459
0.277443 0.091793 0.005879
0.314813 0.099249 0.004749
0.342796 0.109804 0.000149
0.387500 0.114828 0.003998
0.424069 0.124950 0.000172
0.464155 0.134559 0.000000
0.503504 0.145956 0.002256
0.545504 0.154573 0.000000
0.590169 0.161343 0.002329
0.639967 0.171584 0.002221
0.685777 0.173403 0.000368
0.740066 0.180882 0.000115
0.785275 0.187603 0.002555
0.827543 0.189920 0.000276
0.863971 0.202042 0.000000
0.909421 0.200597 0.000597
0.939568 0.203612 0.000057
0.977865 0.211397 0.000368
0.996779 0.215652 0.001000
0.999778 0.222694 0.000000
0.996078 0.231116 0.003443
0.999265 0.238113 0.000000
0.023039 0.074020 0.038726
0.023529 0.073530 0.038726
0.035478 0.073530 0.042616
0.060018 0.073162 0.045389
0.078247 0.077451 0.039645
0.103431 0.077941 0.038772
0.132476 0.081127 0.030484
0.155791 0.089216 0.021599
0.190318 0.096691 0.014461
0.228937 0.096094 0.018290
0.250919 0.103186 0.015012
0.288327 0.111075 0.010631
0.315993 0.119302 0.004473
0.355116 0.126348 0.002788
0.386795 0.138725 0.000000
0.429764 0.142065 0.002329
0.471078 0.151716 0.001716
0.513832 0.162990 0.001823
0.553340 0.170864 0.000000
0.600337 0.175536 0.000000
0.645589 0.184927 0.000306
0.694240 0.192356 0.001180
0.744853 0.196170 0.003922
0.785554 0.203906 0.000705
0.826838 0.206863 0.000000
0.866651 0.213358 0.002681
0.909375 0.212316 0.000000
0.947258 0.219317 0.000536
0.981311 0.223468 0.000429
0.999556 0.231158 0.003753
1.000000 0.230668 0.000000
0.999985 0.238465 0.000000
1.000000 0.246079 0.000000
0.016299 0.092893 0.047059
0.022729 0.092299 0.046465
0.028393 0.089139 0.046446
0.047492 0.092835 0.046193
0.060632 0.098683 0.041146
0.096201 0.100544 0.046350
0.118137 0.103431 0.039691
0.150601 0.108310 0.032342
0.181832 0.112040 0.027359
0.217793 0.117793 0.022400
0.259505 0.128431 0.020044
0.284069 0.126034 0.007633
0.324356 0.136811 0.003477
0.356851 0.147297 0.001344
0.395198 0.155369 0.001861
0.431664 0.163687 0.003309
0.468627 0.170282 0.000000
0.513277 0.182268 0.000000
0.559536 0.188457 0.000000
0.602811 0.193505 0.000000
0.656556 0.203171 0.000230
0.703344 0.207966 0.004446
0.748338 0.217961 0.001647
0.788898 0.223062 0.001053
0.832353 0.225245 0.000919
0.875601 0.230013 0.005649
0.911129 0.231388 0.000498
0.943110 0.239844 0.000000
0.981817 0.241375 0.002896
1.000000 0.246201 0.003619
0.999793 0.249961 0.006411
0.996794 0.254393 0.003819
0.999387 0.261520 0.000613
0.011765 0.115441 0.058089
0.018673 0.111619 0.058089
0.023284 0.108579 0.058135
0.041138 0.111290 0.058227
0.055300 0.118137 0.056740
0.087982 0.122051 0.056855
0.114108 0.125138 0.054305
0.145588 0.126884 0.049670
0.176777 0.135907 0.041544
0.211849 0.136680 0.031947
0.247319 0.145588 0.020098
0.288220 0.152214 0.008709
0.325245 0.159099 0.002666
0.355147 0.170044 0.000437
0.399035 0.177528 0.000000
0.433012 0.185685 0.001494
0.469730 0.192647 0.000368
0.515119 0.202252 0.003776
0.560953 0.207767 0.002788
0.606036 0.214476 0.000000
0.657138 0.223253 0.000000
0.705645 0.230768 0.002091
0.748070 0.237745 0.000000
0.791751 0.239377 0.000896
0.832230 0.240809 0.005944
0.873445 0.248613 0.003064
0.912745 0.249510 0.000138
0.947664 0.256503 0.003309
0.980209 0.256802 0.000888
0.996446 0.261274 0.000666
1.000000 0.264706 0.000000
1.000000 0.269163 0.000000
1.000000 0.276960 0.000000
0.003922 0.134681 0.069730
0.008552 0.136818 0.072699
0.013373 0.137691 0.067050
0.028225 0.137458 0.068746
0.053416 0.135064 0.067095
0.073564 0.138848 0.067915
0.107843 0.143796 0.063611
0.141667 0.148840 0.058636
0.176225 0.148836 0.058732
0.202087 0.157104 0.045829
0.244163 0.167892 0.038427
0.282598 0.177034 0.026153
0.324402 0.181893 0.019853
0.370485 0.188339 0.005553
0.397909 0.197426 0.000483
0.432510 0.207161 0.000804
0.471691 0.215931 0.003064
0.515475 0.221569 0.001628
0.561887 0.231005 0.003922
0.610803 0.236416 0.001019
0.658946 0.243505 0.000536
0.706618 0.251371 0.002011
0.751172 0.258946 0.000000
0.793505 0.263235 0.002819
0.834191 0.263664 0.000000
0.875065 0.268202 0.003064
0.913320 0.269447 0.000000
0.943037 0.278922 0.002585
0.978064 0.283426 0.000000
0.999222 0.284559 0.000858
1.000000 0.284751 0.001049
1.000000 0.288480 0.004726
1.000000 0.288480 0.000000
0.000981 0.167647 0.079412
0.000981 0.167647 0.079412
0.000981 0.164889 0.076654
0.010141 0.158211 0.077451
0.037500 0.164951 0.081005
0.069026 0.165318 0.080392
0.103002 0.170466 0.074632
0.127052 0.173959 0.062592
0.166422 0.181127 0.065931
0.203309 0.185846 0.068352
0.240809 0.187010 0.055086
0.276532 0.200276 0.042218
0.323407 0.205883 0.035539
0.357139 0.216023 0.018474
0.400429 0.228677 0.004228
0.437990 0.232598 0.000521
0.482843 0.240196 0.001961
0.522610 0.248039 0.004688
0.564399 0.257476 0.000429
0.614124 0.266084 0.001563
0.661519 0.268505 0.002084
0.711060 0.273928 0.003585
0.753125 0.278738 0.000000
0.796967 0.287102 0.002114
0.837255 0.288235 0.000000
0.878156 0.293260 0.000000
0.917095 0.293260 0.003922
0.946722 0.301287 0.004136
0.979412 0.306495 0.000000
0.995557 0.306863 0.000368
0.999081 0.307905 0.003983
0.998101 0.310845 0.003983
1.000000 0.311764 0.004902
0.000000 0.196691 0.091299
0.000000 0.201137 0.095745
0.002643 0.195941 0.093191
0.004657 0.191111 0.089197
0.023636 0.191804 0.097273
0.055052 0.193037 0.097944
0.095228 0.197925 0.099517
0.123165 0.196074 0.088235
0.159099 0.204657 0.078983
0.194355 0.209559 0.074820
0.233089 0.217892 0.074364
0.271446 0.220220 0.068872
0.314400 0.229458 0.054197
0.349065 0.241261 0.035340
0.391559 0.251593 0.017793
0.429764 0.258510 0.001838
0.475613 0.267279 0.003370
0.522698 0.274536 0.002084
0.570458 0.283931 0.000483
0.614626 0.290154 0.000655
0.666315 0.296615 0.002451
0.709325 0.302573 0.000000
0.757667 0.304557 0.000758
0.797982 0.307598 0.000000
0.841850 0.314338 0.000981
0.879902 0.317885 0.005021
0.915449 0.316337 0.000000
0.950808 0.321741 0.000000
0.988250 0.322319 0.002558
0.997445 0.326103 0.001999
1.000000 0.328921 0.000000
1.000000 0.330147 0.001191
0.998897 0.333946 0.003922
0.000000 0.223774 0.099510
0.000000 0.226387 0.102122
0.000000 0.223774 0.099510
0.002444 0.221553 0.100850
0.007690 0.216024 0.110662
0.028485 0.217999 0.105269
0.069087 0.221078 0.106357
0.106817 0.222549 0.100467
0.141360 0.234927 0.097549
0.182843 0.239461 0.096645
0.225459 0.244225 0.088205
0.259299 0.248269 0.078554
0.305576 0.253217 0.079718
0.344608 0.261528 0.068520
0.380086 0.276869 0.043827
0.427014 0.284107 0.020221
0.473407 0.296324 0.007353
0.522059 0.299510 0.001432
0.570925 0.310003 0.000536
0.621331 0.317034 0.001455
0.672702 0.322672 0.002145
0.717471 0.328431 0.002413
0.759069 0.330668 0.001226
0.800345 0.333042 0.000881
0.847059 0.339399 0.000919
0.880637 0.340464 0.000000
0.920358 0.345573 0.000000
0.953133 0.346377 0.000000
0.983119 0.347090 0.000000
0.998889 0.348154 0.000000
0.999847 0.350659 0.000337
0.998813 0.354535 0.005346
0.998774 0.359804 0.005392
0.000000 0.252206 0.118873
0.002493 0.254699 0.121365
0.000161 0.253715 0.119118
0.003554 0.251225 0.114951
0.001992 0.248820 0.122135
0.012833 0.244975 0.119485
0.048009 0.249640 0.119125
0.088504 0.253359 0.118578
0.129136 0.262286 0.118137
0.166498 0.263213 0.109057
0.209383 0.269324 0.107613
0.249046 0.278186 0.095424
0.292540 0.286275 0.092004
0.329592 0.284003 0.083874
0.376716 0.299487 0.076792
0.416705 0.307701 0.055025
0.464767 0.316850 0.029902
0.513764 0.323123 0.006185
0.565541 0.338626 0.000000
0.617950 0.346748 0.000000
0.669256 0.346952 0.005653
0.718313 0.355392 0.004262
0.760715 0.360118 0.000000
0.802217 0.363614 0.001348
0.843199 0.366513 0.001655
0.881667 0.368210 0.003064
0.919240 0.368505 0.002443
0.953853 0.369941 0.000402
0.983532 0.371094 0.000322
0.998652 0.374016 0.004664
0.998491 0.376509 0.000000
0.997507 0.380270 0.001348
1.000000 0.378922 0.000000
0.000000 0.287745 0.137745
0.002375 0.289292 0.134314
0.000245 0.287010 0.132108
0.000000 0.284544 0.129642
0.005086 0.280883 0.137745
0.001624 0.281219 0.134697
0.016820 0.280117 0.138970
0.067846 0.279948 0.137408
0.110907 0.291912 0.134314
0.151716 0.294976 0.131357
0.193443 0.302237 0.125521
0.236520 0.304687 0.114078
0.276838 0.312378 0.110784
0.319133 0.320006 0.098438
0.364828 0.319822 0.097519
0.407965 0.330637 0.089874
0.456373 0.342402 0.064951
0.505990 0.355269 0.031832
0.558058 0.364155 0.011183
0.614752 0.370726 0.001455
0.669118 0.380821 0.000000
0.718872 0.386275 0.000000
0.762837 0.386581 0.000000
0.808379 0.390885 0.007062
0.847304 0.392034 0.006495
0.883701 0.393888 0.003064
0.926409 0.398039 0.000000
0.960294 0.399724 0.000000
0.985846 0.399510 0.002451
1.000000 0.399602 0.002451
0.999816 0.401961 0.000000
1.000000 0.404933 0.000000
1.000000 0.399510 0.000000
0.001593 0.319118 0.145098
0.003849 0.321373 0.147354
0.002474 0.323284 0.152329
0.001662 0.319485 0.154193
0.002987 0.316330 0.148943
0.000862 0.311638 0.151969
0.001295 0.311711 0.152359
0.036842 0.311275 0.149181
0.091452 0.315778 0.153646
0.129615 0.322955 0.148120
0.177091 0.327558 0.147656
0.222051 0.332475 0.135964
0.262898 0.340181 0.125230
0.302397 0.352520 0.124108
0.355109 0.358334 0.120918
0.397415 0.358433 0.112477
0.445527 0.368934 0.101471
0.497059 0.378443 0.079845
0.550689 0.390809 0.045749
0.607230 0.398706 0.013461
0.661412 0.406403 0.002941
0.710099 0.411454 0.003374
0.763113 0.416651 0.001226
0.811478 0.420060 0.003267
0.851379 0.423805 0.001747
0.886068 0.421588 0.001245
0.925268 0.423706 0.001731
0.955021 0.423541 0.001965
0.989063 0.426884 0.004274
1.000000 0.428922 0.001444
0.998407 0.430369 0.000146
0.998456 0.430564 0.000000
1.000000 0.432108 0.000000
0.002206 0.346078 0.159559
0.002137 0.356059 0.165617
0.001854 0.354166 0.168550
0.000368 0.352573 0.167279
0.003860 0.351501 0.164185
0.002206 0.344485 0.161397
0.003600 0.338235 0.166912
0.008318 0.341291 0.169018
0.058763 0.344669 0.175735
0.115556 0.344493 0.163136
0.153676 0.359313 0.153140
0.202214 0.361006 0.154121
0.239553 0.370159 0.149878
0.288021 0.378347 0.142846
0.336933 0.389215 0.136014
0.387553 0.391774 0.127681
0.433701 0.395343 0.121201
0.489201 0.403485 0.117440
0.542157 0.414935 0.093336
0.595289 0.426708 0.059475
0.649418 0.435294 0.025766
0.703064 0.445144 0.002796
0.755009 0.451961 0.002895
0.800352 0.452581 0.000000
0.844730 0.454473 0.000429
0.883578 0.452344 0.002681
0.925322 0.451547 0.002436
0.957866 0.452229 0.001716
0.987776 0.456893 0.001501
1.000000 0.453677 0.000000
0.997687 0.455745 0.000138
0.997863 0.455867 0.000000
1.000000 0.453677 0.000000
0.001838 0.382966 0.174877
0.004159 0.392647 0.178742
0.002084 0.390809 0.180392
0.000195 0.386837 0.180587
0.001823 0.384773 0.178523
0.000287 0.379331 0.174920
0.000000 0.373430 0.180392
0.000000 0.369765 0.182230
0.012929 0.374387 0.186520
0.076306 0.377478 0.182433
0.131250 0.384804 0.179780
0.177716 0.393930 0.174606
0.226593 0.397029 0.166682
0.268838 0.412255 0.165307
0.317471 0.413864 0.157667
0.367264 0.428056 0.142528
0.424326 0.433946 0.136581
0.478428 0.430886 0.135776
0.529412 0.442226 0.130499
0.580882 0.453665 0.104412
0.645129 0.462255 0.075888
0.695711 0.470504 0.037944
0.749754 0.479573 0.006380
0.792839 0.483360 0.000000
0.838419 0.482384 0.003125
0.880637 0.481985 0.006127
0.920634 0.481151 0.001494
0.957269 0.482518 0.001758
0.984452 0.482583 0.000000
1.000000 0.480955 0.000000
0.999755 0.478807 0.003562
0.996143 0.480825 0.003627
1.000000 0.484681 0.003922
0.001961 0.417647 0.194117
0.001961 0.421446 0.196017
0.000123 0.417892 0.192034
0.001961 0.421569 0.198039
0.000000 0.415931 0.190686
0.000000 0.413725 0.192157
0.005147 0.406250 0.199265
0.002390 0.402389 0.200429
0.002941 0.403921 0.203431
0.030944 0.405331 0.200000
0.100735 0.414583 0.198039
0.155270 0.420221 0.190257
0.202941 0.429902 0.185784
0.252022 0.437623 0.187071
0.300000 0.444485 0.179289
0.346997 0.453064 0.166666
0.412745 0.463726 0.161765
0.466606 0.471507 0.155147
0.520465 0.475613 0.148162
0.578615 0.482353 0.139522
0.634804 0.492402 0.122794
0.690502 0.498101 0.099203
0.745221 0.507108 0.064461
0.794853 0.514277 0.029473
0.834804 0.510294 0.004412
0.874877 0.514828 0.000000
0.913480 0.515686 0.002329
0.949816 0.514767 0.004963
0.979412 0.514951 0.002451
1.000000 0.507843 0.000000
0.999877 0.507966 0.000123
0.996201 0.505944 0.000184
1.000000 0.503922 0.001961
0.000000 0.450245 0.209681
0.000000 0.456120 0.213538
0.000000 0.456250 0.213603
0.000000 0.456446 0.216935
0.003217 0.451195 0.217264
0.000000 0.449996 0.210294
0.003577 0.444241 0.211933
0.003520 0.440564 0.215809
0.000521 0.430362 0.220282
0.004316 0.437446 0.214461
0.042693 0.446201 0.208173
0.120588 0.450490 0.209907
0.178385 0.456924 0.208824
0.226068 0.464683 0.202941
0.282476 0.474510 0.195711
0.333712 0.485915 0.189713
0.386642 0.490870 0.181985
0.446569 0.504040 0.175609
0.506112 0.515181 0.159053
0.567413 0.518003 0.161975
0.626547 0.522227 0.162408
0.681476 0.531637 0.144420
0.731541 0.536558 0.115724
0.783157 0.544539 0.093857
0.827390 0.544608 0.070527
0.870554 0.544661 0.034107
0.913182 0.550222 0.010041
0.947262 0.548529 0.000000
0.979152 0.545496 0.000000
0.999805 0.542575 0.003727
0.997916 0.540571 0.001724
0.995964 0.536642 0.000065
1.000000 0.533088 0.004167
0.000000 0.487009 0.225245
0.000054 0.492593 0.229167
0.000000 0.494715 0.229167
0.000000 0.491015 0.227328
0.000000 0.485509 0.226532
0.002206 0.483088 0.224065
0.000000 0.482675 0.227696
0.000000 0.474380 0.225146
0.001655 0.468382 0.224571
0.000000 0.466920 0.233081
0.004550 0.472503 0.235877
0.069754 0.481151 0.230561
0.146170 0.488817 0.225337
0.203010 0.497595 0.223935
0.257766 0.507598 0.213465
0.314254 0.519608 0.210103
0.369975 0.521691 0.204044
0.432054 0.533931 0.195573
0.492586 0.545557 0.188450
0.557238 0.557476 0.174632
0.615227 0.557751 0.168842
0.668582 0.558287 0.175054
0.724694 0.561673 0.161810
0.781503 0.568268 0.146438
0.826470 0.574081 0.130943
0.859666 0.579036 0.103056
0.907430 0.579504 0.088634
0.942524 0.579067 0.057009
0.972273 0.579136 0.025429
0.998284 0.573124 0.013649
1.000000 0.569577 0.000138
1.000000 0.565388 0.002260
1.000000 0.563726 0.003922
0.002329 0.529534 0.240074
0.001616 0.531078 0.246128
0.000000 0.529534 0.244730
0.000149 0.528240 0.247767
0.000000 0.523866 0.241697
0.000000 0.523035 0.240809
0.000299 0.519064 0.241666
0.003987 0.514706 0.242911
0.003125 0.509375 0.247917
0.001593 0.506005 0.249510
0.004795 0.506878 0.253439
0.016889 0.514028 0.244126
0.096492 0.521951 0.242754
0.175456 0.528887 0.242103
0.240028 0.539782 0.238603
0.297771 0.547695 0.231338
0.345405 0.559314 0.225551
0.412366 0.567414 0.218237
0.474717 0.579327 0.212914
0.534402 0.589951 0.203186
0.605117 0.595818 0.195129
0.660352 0.596764 0.188840
0.715694 0.591054 0.197656
0.769688 0.595263 0.193911
0.820772 0.601256 0.177451
0.857946 0.604044 0.160623
0.898391 0.610294 0.145343
0.934191 0.610045 0.127574
0.966958 0.611948 0.112194
0.993409 0.606154 0.085945
1.000000 0.598529 0.052160
0.999927 0.598529 0.023698
0.997671 0.598529 0.014338
0.000000 0.567157 0.261765
0.002375 0.569531 0.264139
0.000000 0.570588 0.257843
0.000000 0.569118 0.265410
0.003616 0.563848 0.266422
0.000000 0.561765 0.257843
0.000000 0.560294 0.259314
0.000000 0.558823 0.259314
0.002574 0.550858 0.264216
0.001762 0.543903 0.264216
0.001685 0.547763 0.268934
0.002436 0.551945 0.270114
0.026961 0.560907 0.267096
0.137730 0.563220 0.268168
0.203309 0.576532 0.257506
0.275781 0.583916 0.254642
0.332598 0.593382 0.250735
0.395098 0.603339 0.243122
0.460662 0.612562 0.238419
0.521952 0.618842 0.232200
0.583946 0.627573 0.219669
0.644470 0.636994 0.219409
0.704872 0.636520 0.212010
0.758900 0.630959 0.213082
0.811275 0.631127 0.220833
0.847519 0.635018 0.211887
0.891759 0.638266 0.198529
0.924035 0.640793 0.183242
0.960968 0.638726 0.172978
0.986658 0.638404 0.161152
1.000000 0.636121 0.140778
0.999801 0.633777 0.119332
0.993627 0.632353 0.110784
0.001348 0.608088 0.279902
0.001348 0.608088 0.279902
0.003922 0.610662 0.284888
0.003681 0.610903 0.285049
0.000000 0.612423 0.274372
0.000211 0.604779 0.276593
0.000253 0.599655 0.277712
0.000000 0.599192 0.278554
0.001685 0.595251 0.282690
0.000379 0.588959 0.284046
0.002574 0.583632 0.289093
0.000885 0.586669 0.292429
0.003722 0.594684 0.289798
0.069615 0.602206 0.285302
0.179504 0.610072 0.283433
0.251980 0.617402 0.281127
0.318321 0.626899 0.277206
0.383268 0.635229 0.270768
0.440564 0.644440 0.265663
0.506242 0.653791 0.262075
0.566560 0.659666 0.256511
0.634191 0.668601 0.252370
0.692035 0.676402 0.239040
0.749900 0.673062 0.244953
0.795067 0.667249 0.244547
0.844462 0.664216 0.252577
0.884429 0.666782 0.252352
0.917716 0.668941 0.239775
0.952696 0.670405 0.228814
0.981752 0.673040 0.216912
1.000000 0.669240 0.205024
0.999958 0.665606 0.187255
0.998652 0.666912 0.187255
0.002696 0.650736 0.308333
0.003838 0.651877 0.309474
0.002696 0.650736 0.308333
0.000115 0.648154 0.305752
0.003585 0.646906 0.306863
0.001226 0.642647 0.302941
0.000000 0.641421 0.304412
0.000000 0.641421 0.295397
0.000674 0.640135 0.303799
0.003041 0.628822 0.303944
0.000383 0.623422 0.308716
0.000927 0.623123 0.311290
0.003462 0.630790 0.317923
0.025176 0.637500 0.305040
0.147258 0.644807 0.308732
0.229833 0.651754 0.306135
0.302696 0.659069 0.304289
0.362385 0.668628 0.302252
0.425827 0.674801 0.299908
0.488626 0.682598 0.293130
0.549571 0.687714 0.285018
0.609682 0.696485 0.287676
0.672120 0.702558 0.282736
0.733456 0.709022 0.276325
0.780760 0.709436 0.268199
0.827772 0.700345 0.279044
0.868612 0.698284 0.287990
0.911014 0.697794 0.286014
0.946906 0.697947 0.275858
0.972051 0.702688 0.268030
0.998851 0.696323 0.260769
0.999831 0.695098 0.250161
0.994853 0.697794 0.243628
0.000000 0.687868 0.329902
0.000000 0.687868 0.329902
0.000000 0.690511 0.332544
0.000000 0.687132 0.329167
0.003432 0.686550 0.332368
0.000440 0.683456 0.329239
0.000000 0.679129 0.324878
0.000862 0.679163 0.324878
0.000705 0.674816 0.329933
0.003922 0.668260 0.324878
0.000000 0.669409 0.327152
0.004167 0.659915 0.340931
0.001103 0.667157 0.346201
0.004657 0.673327 0.332682
0.122534 0.676716 0.338227
0.215005 0.687745 0.332502
0.291054 0.689277 0.332414
0.353282 0.693042 0.330488
0.414476 0.701969 0.331625
0.477248 0.708621 0.324709
0.536030 0.714981 0.319501
0.590418 0.723273 0.315663
0.649632 0.730737 0.312278
0.710294 0.732238 0.310294
0.766452 0.739737 0.302574
0.816667 0.742773 0.301589
0.860501 0.734191 0.313365
0.900440 0.726471 0.323775
0.938113 0.725981 0.330913
0.968995 0.725981 0.319420
0.988901 0.724878 0.303049
0.999912 0.728711 0.297829
1.000000 0.728799 0.297917
0.000000 0.723529 0.356862
0.000000 0.723529 0.355882
0.000000 0.723591 0.355944
0.000000 0.722549 0.355882
0.005515 0.722181 0.356495
0.000460 0.717126 0.351440
0.000552 0.718076 0.354902
0.000000 0.716881 0.352175
0.000735 0.715196 0.346814
0.002114 0.711611 0.350980
0.000919 0.702206 0.354351
0.001930 0.701992 0.370527
0.000613 0.697426 0.370833
0.006403 0.705453 0.366330
0.124694 0.707169 0.368934
0.218290 0.715931 0.364124
0.286765 0.719608 0.366667
0.351042 0.723805 0.362531
0.409559 0.734743 0.359007
0.469578 0.737837 0.361550
0.525000 0.743505 0.360172
0.578738 0.752911 0.355178
0.635723 0.754841 0.354289
0.694148 0.762041 0.355208
0.744363 0.766912 0.350490
0.794669 0.773192 0.338879
0.850245 0.776899 0.337255
0.887684 0.765441 0.345803
0.924632 0.755147 0.365686
0.956740 0.751348 0.364798
0.988848 0.753493 0.359866
0.997150 0.755944 0.355944
1.000000 0.756862 0.357843
0.000000 0.761152 0.384681
0.000000 0.765073 0.388603
0.000000 0.764216 0.388603
0.005553 0.760581 0.387745
0.000766 0.756863 0.391927
0.003788 0.756372 0.385907
0.006947 0.753026 0.384520
0.001716 0.753791 0.388415
0.000000 0.752451 0.384008
0.000000 0.750977 0.387745
0.001226 0.745833 0.393750
0.000563 0.741249 0.401493
0.000536 0.741223 0.409099
0.054676 0.739667 0.407514
0.169731 0.744983 0.410302
0.242104 0.748583 0.409838
0.306495 0.755270 0.409927
0.365897 0.759839 0.413446
0.420228 0.764698 0.411382
0.477470 0.771484 0.410378
0.531756 0.775766 0.404304
0.578626 0.784877 0.406668
0.631518 0.786328 0.402742
0.684191 0.791291 0.398889
0.732598 0.797579 0.400153
0.780385 0.801038 0.397116
0.833786 0.805798 0.390288
0.882119 0.802953 0.386286
0.916636 0.793168 0.386336
0.943014 0.795140 0.415725
0.977926 0.787079 0.418873
0.997032 0.790713 0.426417
0.999142 0.788603 0.424755
0.000000 0.791911 0.423285
0.003799 0.794976 0.427083
0.003233 0.794409 0.426516
0.003187 0.786658 0.422618
0.000490 0.793474 0.421998
0.000000 0.787868 0.413128
0.000000 0.789844 0.420757
0.000000 0.786198 0.422266
0.003187 0.781924 0.428554
0.001057 0.780806 0.421523
0.000460 0.782598 0.425444
0.001448 0.774494 0.435532
0.021783 0.774295 0.436244
0.153891 0.767647 0.447848
0.218367 0.772396 0.450750
0.287201 0.778531 0.452428
0.335784 0.781740 0.445834
0.388948 0.788358 0.447939
0.438817 0.794363 0.452129
0.483348 0.798721 0.452504
0.535325 0.803677 0.452175
0.576578 0.805285 0.445098
0.629366 0.810279 0.448744
0.678761 0.813810 0.447135
0.721997 0.819669 0.446814
0.762707 0.823246 0.437952
