assets/luts/LUTs/Fujifilm_ClassicNeg_33_Rec709.cube
#LUMIXPHOTOSTYLE STD
TITLE "Fujifilm_ClassicNeg_33_Rec709"
LUT_3D_SIZE 9
DOMAIN_MIN 0.0 0.0 0.0
DOMAIN_MAX 1.0 1.0 1.0
0.023529 0.023529 0.023529
0.091667 0.023039 0.015686
0.186274 0.032353 0.017647
0.306372 0.065196 0.002941
0.456863 0.100000 0.001961
0.636274 0.141176 0.002941
0.825490 0.161765 0.005882
0.975490 0.184804 0.003432
1.000000 0.215686 0.011765
0.023039 0.074020 0.038726
0.078247 0.077451 0.039645
0.190318 0.096691 0.014461
0.315993 0.119302 0.004473
0.471078 0.151716 0.001716
0.645589 0.184927 0.000306
0.826838 0.206863 0.000000
0.981311 0.223468 0.000429
1.000000 0.246079 0.000000
0.000981 0.167647 0.079412
0.037500 0.164951 0.081005
0.166422 0.181127 0.065931
0.323407 0.205883 0.035539
0.482843 0.240196 0.001961
0.661519 0.268505 0.002084
0.837255 0.288235 0.000000
0.979412 0.306495 0.000000
1.000000 0.311764 0.004902
0.000000 0.287745 0.137745
0.005086 0.280883 0.137745
0.110907 0.291912 0.134314
0.276838 0.312378 0.110784
0.456373 0.342402 0.064951
0.669118 0.380821 0.000000
0.847304 0.392034 0.006495
0.985846 0.399510 0.002451
1.000000 0.399510 0.000000
0.001961 0.417647 0.194117
0.000000 0.415931 0.190686
0.002941 0.403921 0.203431
0.202941 0.429902 0.185784
0.412745 0.463726 0.161765
0.634804 0.492402 0.122794
0.834804 0.510294 0.004412
0.979412 0.514951 0.002451
1.000000 0.503922 0.001961
0.000000 0.567157 0.261765
0.003616 0.563848 0.266422
0.002574 0.550858 0.264216
0.026961 0.560907 0.267096
0.332598 0.593382 0.250735
0.583946 0.627573 0.219669
0.811275 0.631127 0.220833
0.960968 0.638726 0.172978
0.993627 0.632353 0.110784
0.000000 0.723529 0.356862
0.005515 0.722181 0.356495
0.000735 0.715196 0.346814
0.000613 0.697426 0.370833
0.286765 0.719608 0.366667
0.525000 0.743505 0.360172
0.744363 0.766912 0.350490
0.924632 0.755147 0.365686
1.000000 0.756862 0.357843
0.017157 0.852941 0.513235
0.028921 0.843628 0.504779
0.103677 0.841667 0.512377
0.280453 0.837929 0.524877
0.426471 0.838235 0.542156
0.568627 0.853248 0.540135
0.719730 0.868750 0.544240
0.869118 0.881250 0.534682
0.999510 0.877451 0.545588
0.560784 0.960784 0.701961
0.553921 0.964216 0.705882
0.585294 0.959804 0.713725
0.623529 0.960784 0.721569
0.680392 0.950981 0.739216
0.736274 0.959804 0.747059
0.808823 0.967647 0.749020
0.883824 0.979902 0.753431
0.972549 0.984314 0.768627
0.034314 0.030883 0.084804
0.107966 0.012623 0.091483
0.185049 0.024265 0.070833
0.316789 0.031556 0.069791
0.458823 0.079411 0.069117
0.636581 0.116483 0.040318
0.821446 0.136152 0.000000
0.975368 0.168688 0.000000
0.999020 0.200490 0.000000
0.026471 0.088787 0.085723
0.093604 0.089315 0.093995
0.190625 0.099724 0.091989
0.320504 0.116422 0.089400
0.466391 0.141698 0.069179
0.644417 0.168688 0.030645
0.824939 0.191406 0.004228
0.976854 0.211221 0.000858
0.999510 0.237316 0.000000
0.027696 0.194118 0.131250
0.077328 0.184681 0.129840
0.181832 0.194026 0.119822
0.323529 0.213251 0.102788
0.479841 0.237561 0.071017
0.662592 0.263404 0.022825
0.838480 0.278952 0.000306
0.979611 0.296308 0.002421
0.999265 0.308946 0.002942
0.002145 0.308762 0.182169
0.000268 0.307261 0.173591
0.129304 0.294899 0.169041
0.287638 0.321576 0.157468
0.464001 0.348499 0.127359
0.666506 0.377214 0.043957
0.851271 0.390104 0.003891
0.985823 0.396124 0.000161
1.000000 0.400796 0.005699
0.001716 0.438725 0.232353
0.000214 0.434589 0.222182
0.008701 0.414583 0.233211
0.212561 0.433486 0.218627
0.414951 0.470466 0.201103
0.641238 0.491881 0.170956
0.835110 0.514032 0.100184
0.986612 0.509498 0.003248
1.000000 0.509314 0.000000
0.001287 0.584804 0.289890
0.001126 0.583762 0.289300
0.000444 0.569010 0.287470
0.059781 0.563710 0.291866
0.344700 0.595221 0.278033
0.586252 0.634122 0.257254
0.810447 0.631633 0.256296
0.959322 0.642318 0.216001
0.995098 0.633639 0.169914
0.000245 0.735662 0.383823
0.001011 0.734911 0.383441
0.000000 0.724571 0.382138
0.001195 0.708196 0.395052
0.307230 0.722120 0.390686
0.527145 0.747579 0.384452
0.746660 0.766360 0.376532
0.926700 0.761183 0.398116
1.000000 0.761029 0.383823
0.027696 0.857414 0.523162
0.094922 0.853217 0.526011
0.210723 0.847580 0.526930
0.315533 0.843137 0.541505
0.449969 0.839492 0.555791
0.580362 0.853255 0.557307
0.721568 0.868658 0.553723
0.869179 0.883609 0.552727
0.999939 0.873958 0.564277
0.568627 0.960784 0.709804
0.576042 0.964706 0.713296
0.589583 0.963480 0.722671
0.627451 0.958150 0.726593
0.686030 0.952941 0.741912
0.736703 0.959314 0.749817
0.808701 0.965686 0.760907
0.886826 0.976042 0.756434
0.975981 0.977451 0.772059
0.057843 0.031373 0.189216
0.133579 0.012745 0.204412
0.255147 0.002942 0.226716
0.324020 0.030515 0.183211
0.487255 0.000000 0.172549
0.659804 0.000000 0.147794
0.822549 0.069363 0.168382
0.972058 0.125368 0.157475
1.000000 0.177451 0.144118
0.048284 0.111764 0.187255
0.113741 0.106464 0.199770
0.245404 0.080208 0.223346
0.327727 0.114369 0.191299
0.487745 0.063542 0.170649
0.655836 0.118076 0.176792
0.828125 0.154718 0.170313
0.980407 0.184636 0.155422
0.999877 0.215931 0.143260
0.000000 0.214461 0.216421
0.068719 0.214583 0.215686
0.200245 0.212255 0.206679
0.332751 0.220987 0.205423
0.478676 0.237378 0.199510
0.661703 0.251532 0.190564
0.837194 0.261581 0.171875
0.980698 0.279473 0.156250
0.997794 0.294853 0.141422
0.000000 0.356740 0.254902
0.031112 0.346431 0.254396
0.174540 0.326562 0.249969
0.300077 0.336734 0.239721
0.481127 0.359252 0.221262
0.677283 0.376440 0.191927
0.850613 0.387010 0.179718
0.979902 0.394868 0.166146
1.000000 0.395833 0.152329
0.001471 0.475491 0.305392
0.001164 0.473530 0.303983
0.079044 0.452819 0.295098
0.236520 0.449020 0.293505
0.432598 0.480147 0.276961
0.658149 0.504412 0.262071
0.847794 0.514951 0.222427
0.989093 0.512868 0.196507
0.998529 0.512255 0.184804
0.000368 0.615809 0.357598
0.003294 0.615165 0.358686
0.002635 0.601164 0.347794
0.135187 0.576869 0.354688
0.361949 0.607292 0.343015
0.602528 0.641575 0.335585
0.819761 0.641544 0.338603
0.967157 0.647503 0.306051
1.000000 0.636152 0.271324
0.000981 0.747549 0.432108
0.000000 0.749387 0.440870
0.000184 0.742586 0.436336
0.088572 0.724602 0.433517
0.348652 0.728922 0.444485
0.547886 0.750276 0.442035
0.754596 0.771569 0.437929
0.927665 0.763940 0.456403
0.999265 0.766421 0.450000
0.216299 0.862745 0.563725
0.256755 0.858287 0.567585
0.304933 0.855545 0.567555
0.373560 0.850659 0.569255
0.482353 0.837132 0.586642
0.599755 0.853891 0.586320
0.731740 0.873223 0.588082
0.874326 0.884375 0.595236
0.998529 0.878677 0.604780
0.578431 0.964706 0.724510
0.587990 0.965196 0.725980
0.612255 0.960539 0.731617
0.644240 0.962622 0.743014
0.689216 0.951961 0.755882
0.749755 0.962622 0.769730
0.814706 0.968137 0.770343
0.890809 0.978554 0.768750
0.971569 0.985294 0.776471
0.102941 0.037745 0.341176
0.171569 0.017218 0.358150
0.309559 0.000368 0.393137
0.466483 0.000919 0.415318
0.522549 0.000000 0.340931
0.688970 0.003983 0.324326
0.874020 0.000000 0.287255
1.000000 0.001287 0.262255
1.000000 0.115196 0.290686
0.065931 0.127267 0.336336
0.144623 0.121952 0.354932
0.285739 0.087883 0.388833
0.453699 0.005308 0.408196
0.514062 0.114828 0.337898
0.694991 0.084566 0.323667
0.873070 0.000322 0.283119
0.999043 0.020389 0.287301
0.995711 0.210784 0.311152
0.069485 0.238848 0.316912
0.121308 0.242448 0.322442
0.225123 0.232843 0.360049
0.409390 0.211366 0.389859
0.504289 0.254289 0.345221
0.698009 0.209758 0.322074
0.857904 0.213542 0.307537
0.975674 0.274188 0.320328
0.998162 0.309314 0.316054
0.001532 0.365564 0.361703
0.002482 0.365855 0.360639
0.158456 0.366024 0.356219
0.326195 0.359957 0.354312
0.490748 0.366850 0.348039
0.677160 0.375843 0.341284
0.849510 0.385355 0.340978
0.978715 0.399556 0.333142
1.000000 0.410784 0.322487
0.001226 0.540931 0.402451
0.000092 0.535202 0.403737
0.101593 0.522488 0.403431
0.292371 0.488450 0.389522
0.455760 0.503554 0.386152
0.678217 0.520343 0.373621
0.852941 0.522549 0.357966
0.983517 0.524693 0.351225
0.998039 0.522794 0.346569
0.000000 0.661703 0.462378
0.002872 0.661275 0.470642
0.120465 0.648974 0.453309
0.252206 0.623859 0.436420
0.404442 0.618505 0.436152
0.625682 0.651340 0.437714
0.823652 0.658272 0.442111
0.965074 0.656656 0.420090
1.000000 0.642095 0.391238
0.054780 0.772671 0.523039
0.130270 0.773958 0.526792
0.219792 0.765043 0.522151
0.304795 0.748361 0.515089
0.421385 0.727329 0.520343
0.582414 0.755974 0.521216
0.770067 0.777053 0.526654
0.927175 0.777390 0.544883
0.999019 0.777083 0.530025
0.353431 0.872855 0.621936
0.379090 0.875483 0.623299
0.409605 0.869792 0.620067
0.460440 0.860401 0.623736
0.524050 0.846293 0.627818
0.626701 0.853339 0.635578
0.742999 0.871584 0.635202
0.880078 0.884030 0.637316
0.998407 0.886459 0.659437
0.598529 0.971078 0.746569
0.610600 0.969608 0.755392
0.627083 0.968259 0.759926
0.659252 0.966176 0.759130
0.696814 0.962010 0.765686
0.756005 0.957414 0.791789
0.814828 0.971324 0.793995
0.887255 0.981005 0.792586
0.976471 0.984314 0.795588
0.150981 0.050980 0.527451
0.221079 0.026470 0.538481
0.350980 0.001961 0.576470
0.543382 0.001226 0.618137
0.732353 0.001961 0.634314
0.766422 0.000000 0.522549
0.893138 0.101961 0.485294
1.000000 0.097794 0.458333
0.998039 0.050980 0.425490
0.108823 0.153186 0.518137
0.186857 0.145558 0.535846
0.322917 0.112684 0.566360
0.530698 0.000000 0.616789
0.724877 0.000123 0.630760
0.762684 0.020312 0.524969
0.888174 0.202083 0.493199
0.999786 0.171354 0.463204
0.997794 0.140441 0.426226
0.021079 0.273529 0.494118
0.112806 0.269424 0.504228
0.265931 0.258456 0.534069
0.466299 0.228799 0.586642
0.691176 0.165441 0.613970
0.747978 0.251348 0.518137
0.878186 0.312500 0.493750
0.998774 0.277880 0.466973
0.998039 0.273530 0.440686
0.005392 0.387255 0.477941
0.096232 0.390870 0.479044
0.220956 0.397059 0.482169
0.368474 0.391544 0.529933
0.616789 0.374265 0.570343
0.712929 0.422978 0.516636
0.869240 0.409436 0.493627
0.989400 0.400551 0.477420
0.999265 0.442157 0.480882
0.000000 0.543137 0.524510
0.000123 0.543995 0.533334
0.012745 0.539951 0.521078
0.302451 0.537622 0.522181
0.499020 0.525490 0.512745
0.683946 0.535417 0.513603
0.838481 0.543137 0.510784
0.967769 0.550245 0.508823
0.997059 0.558823 0.506863
0.000735 0.719853 0.562500
0.000582 0.720312 0.566238
0.000490 0.710846 0.566667
0.351287 0.687806 0.561979
0.488848 0.650613 0.551348
0.653248 0.665012 0.556709
0.830944 0.677451 0.556311
0.962071 0.671569 0.545220
0.999265 0.672304 0.538725
0.075980 0.809314 0.608824
0.223958 0.808089 0.617586
0.357231 0.800858 0.623284
0.464338 0.784252 0.620465
0.520588 0.761519 0.602451
0.618627 0.759926 0.608456
0.780392 0.783701 0.619608
0.928860 0.788787 0.629902
0.998039 0.790196 0.609804
0.467647 0.889216 0.689216
0.489461 0.888113 0.694179
0.501348 0.888971 0.691850
0.541452 0.879167 0.684712
0.586765 0.865686 0.678309
0.657414 0.855453 0.685202
0.761520 0.871936 0.694731
0.883701 0.889583 0.696997
0.999755 0.892157 0.721813
0.625490 0.978432 0.778431
0.636030 0.975981 0.782843
0.654412 0.975981 0.785294
0.680147 0.973039 0.789461
0.716667 0.966666 0.794118
0.767892 0.963480 0.814461
0.823039 0.970588 0.817157
0.894608 0.976961 0.815686
0.976471 0.984314 0.827451
0.200490 0.100000 0.701471
0.266422 0.079718 0.705698
0.382230 0.011520 0.727206
0.545650 0.001532 0.748101
0.760784 0.001226 0.785049
0.931311 0.000000 0.789216
0.951103 0.001103 0.673284
0.999816 0.247427 0.638297
1.000000 0.413235 0.628431
0.171568 0.182782 0.695833
0.230760 0.178960 0.699073
0.357414 0.154611 0.720190
0.531541 0.059068 0.750528
0.747334 0.001961 0.779136
0.924824 0.000597 0.784214
0.942188 0.061305 0.685294
0.995366 0.316314 0.630691
0.998713 0.437561 0.636765
0.073897 0.307108 0.672549
0.173269 0.303156 0.686167
0.309896 0.297304 0.704013
0.487163 0.270527 0.729948
0.714399 0.203002 0.771078
0.899893 0.156526 0.780928
0.931219 0.295833 0.675061
0.999096 0.438557 0.651179
0.999632 0.491054 0.646568
0.064154 0.442708 0.633885
0.143306 0.440809 0.644914
0.257537 0.436060 0.667448
0.431074 0.431572 0.699065
0.648897 0.417861 0.737408
0.861351 0.406288 0.761581
0.893934 0.480852 0.678952
0.976249 0.562891 0.674502
0.998468 0.549020 0.652022
0.001471 0.553676 0.643628
0.065686 0.554228 0.640993
0.253554 0.555208 0.642586
0.405698 0.560570 0.640319
0.569730 0.573162 0.686029
0.790931 0.579841 0.727482
0.854228 0.623468 0.680944
0.963817 0.616575 0.669179
0.998774 0.604412 0.648529
0.000000 0.700552 0.682721
0.001723 0.701586 0.687944
0.085018 0.699694 0.683165
0.363158 0.694371 0.678952
0.539307 0.690625 0.676900
0.685103 0.685003 0.668229
0.828447 0.689982 0.668352
0.945397 0.695137 0.666253
0.998897 0.702022 0.661887
0.001103 0.849877 0.708946
0.000582 0.847825 0.715334
0.172794 0.844210 0.711734
0.420389 0.832782 0.712423
0.591912 0.811826 0.711826
0.686336 0.778140 0.701287
0.797917 0.794975 0.711121
0.934513 0.806832 0.710738
1.000000 0.800123 0.699877
0.384375 0.921078 0.741238
0.425306 0.918857 0.750245
0.494209 0.918689 0.756020
0.585049 0.905959 0.754496
0.671599 0.894118 0.764675
0.706234 0.878332 0.748139
0.778447 0.874617 0.756939
0.894646 0.894631 0.764139
0.996568 0.902083 0.779473
0.629902 0.988235 0.822549
0.641422 0.988541 0.821936
0.678064 0.985784 0.826348
0.713971 0.984314 0.833395
0.748530 0.977941 0.836275
0.784191 0.973101 0.836397
0.833824 0.969363 0.844853
0.894730 0.982537 0.854044
0.986765 0.988235 0.857843
0.263726 0.181372 0.830392
0.313970 0.171813 0.832843
0.407108 0.145343 0.842402
0.551961 0.063235 0.868137
0.723039 0.001961 0.887255
0.914338 0.000000 0.901226
0.994118 0.000000 0.905637
0.999020 0.137378 0.801961
1.000000 0.424510 0.750980
0.259804 0.249632 0.827696
0.301547 0.241008 0.834375
0.398897 0.222917 0.842616
0.540748 0.186688 0.852466
0.718137 0.068382 0.883517
0.908104 0.000582 0.910355
0.998009 0.000643 0.903370
0.999203 0.243337 0.802635
1.000000 0.467034 0.763358
0.237255 0.361274 0.817157
0.285478 0.360937 0.820343
0.383395 0.350674 0.832537
0.521477 0.334069 0.846201
0.695834 0.300980 0.868627
0.889767 0.243321 0.898346
0.997610 0.264522 0.898284
0.998070 0.398744 0.801562
1.000000 0.550980 0.773530
0.256495 0.494363 0.794853
0.295956 0.492831 0.795603
0.382567 0.492555 0.809682
0.512010 0.489063 0.827175
0.669792 0.482537 0.854718
0.856847 0.472549 0.883410
0.992923 0.486489 0.885356
0.999142 0.550735 0.799265
0.997549 0.645098 0.790196
0.312255 0.605392 0.753922
0.351164 0.606985 0.756924
0.415686 0.612132 0.770833
0.516973 0.618566 0.789216
0.644118 0.624265 0.821078
0.810723 0.629657 0.855331
0.953554 0.636152 0.873285
0.978248 0.674571 0.807782
0.998529 0.729412 0.803431
0.296201 0.697917 0.780882
0.340870 0.700245 0.778799
0.419087 0.704871 0.779350
0.517785 0.707031 0.777727
0.623529 0.711826 0.770833
0.744256 0.729166 0.813695
0.907966 0.741023 0.850061
0.952007 0.770711 0.813955
0.999387 0.771323 0.803677
0.214216 0.825735 0.810785
0.279932 0.824387 0.811795
0.374081 0.823530 0.814522
0.491667 0.822334 0.815503
0.606250 0.820588 0.808088
0.719271 0.817372 0.805545
0.820220 0.807108 0.795833
0.926501 0.814369 0.793474
0.999755 0.823530 0.798529
0.281005 0.949633 0.833456
0.334513 0.947472 0.833609
0.419363 0.943811 0.833395
0.527864 0.943351 0.836336
0.644179 0.931434 0.835600
0.752313 0.918627 0.836121
0.816820 0.889859 0.818383
0.911657 0.904090 0.837255
0.999632 0.913113 0.843873
0.549019 1.000000 0.860785
0.572794 1.000000 0.866544
0.617157 1.000000 0.864461
0.676348 1.000000 0.873162
0.752451 0.992157 0.881863
0.818872 0.989583 0.889706
0.852451 0.978922 0.887010
0.907353 0.981372 0.896079
0.986274 0.985294 0.902941
0.358824 0.288236 0.930392
0.390135 0.284252 0.932169
0.460295 0.269731 0.936152
0.569486 0.244301 0.950674
0.705392 0.183578 0.960294
0.850490 0.011336 0.968872
0.999632 0.000368 0.988235
1.000000 0.040380 0.993750
1.000000 0.364216 0.905392
0.367096 0.342095 0.930944
0.398721 0.338611 0.932445
0.467065 0.327022 0.936795
0.571408 0.308395 0.947426
0.702145 0.263419 0.961274
0.850207 0.181104 0.976249
0.997396 0.106066 0.989108
0.999571 0.219179 0.982292
1.000000 0.423039 0.913480
0.399755 0.445098 0.920588
0.424739 0.446370 0.923376
0.484957 0.438205 0.929595
0.579779 0.427957 0.940411
0.702512 0.406066 0.953799
0.849985 0.366529 0.967601
0.991912 0.348009 0.979106
0.999571 0.403309 0.979213
0.999877 0.520466 0.908088
0.460417 0.574203 0.909314
0.483295 0.572710 0.913909
0.530178 0.569256 0.917647
0.609612 0.570811 0.928309
0.711183 0.558241 0.942708
0.834819 0.548032 0.957200
0.974709 0.535692 0.977390
0.998123 0.564790 0.970841
0.994975 0.624571 0.899571
0.514215 0.677696 0.884559
0.531618 0.680913 0.889675
0.569792 0.679534 0.899326
0.628309 0.680392 0.907016
0.713480 0.680882 0.925123
0.816268 0.677849 0.939552
0.943933 0.676103 0.964460
0.996783 0.691973 0.963940
0.999755 0.721814 0.905882
0.533824 0.750184 0.871262
0.553945 0.754350 0.876930
0.584528 0.755744 0.872978
0.637546 0.756931 0.877972
0.704657 0.761274 0.896232
0.796630 0.767203 0.923185
0.910187 0.780699 0.944516
0.999763 0.790181 0.955875
0.998713 0.812561 0.909436
0.514216 0.823039 0.890687
0.533379 0.828401 0.894102
0.576134 0.826593 0.896109
0.629688 0.826164 0.889109
0.698530 0.828554 0.891360
0.773729 0.831602 0.885340
0.865993 0.849295 0.917677
0.978738 0.871400 0.951761
1.000000 0.885784 0.916911
0.478983 0.920098 0.912806
0.503125 0.921101 0.919056
0.544837 0.922611 0.917555
0.606603 0.922694 0.916506
0.680637 0.923499 0.920129
0.761818 0.924150 0.915510
0.846170 0.922197 0.916023
0.919669 0.915372 0.908065
1.000000 0.922611 0.918198
0.507353 0.999510 0.920098
0.535968 1.000000 0.929963
0.575858 0.999019 0.931128
0.635417 1.000000 0.927941
0.709804 0.998039 0.927941
0.788603 0.996568 0.935845
0.875613 0.998284 0.940686
0.932965 0.985233 0.945649
0.985294 0.992157 0.949510
0.521569 0.454902 1.000000
0.533333 0.450980 1.000000
0.567647 0.439216 1.000000
0.630882 0.417157 0.998529
0.717647 0.382353 0.996078
0.826961 0.319608 1.000000
0.947059 0.208823 1.000000
1.000000 0.218627 0.999510
1.000000 0.337255 1.000000
0.539705 0.496569 1.000000
0.554535 0.490073 1.000000
0.586152 0.482108 0.996201
0.645282 0.462623 0.999816
0.721323 0.431373 0.999755
0.823101 0.384804 0.998223
0.941544 0.299265 0.997426
0.999939 0.307843 0.999939
0.999510 0.400491 1.000000
0.587255 0.579412 0.998039
0.594853 0.580392 0.997426
0.623774 0.572549 1.000000
0.670221 0.554412 0.998162
0.740686 0.535784 1.000000
0.829044 0.500735 0.995711
0.939951 0.446814 0.998529
1.000000 0.448039 0.999142
0.999019 0.505882 1.000000
0.636765 0.673530 0.992157
0.644240 0.672733 0.994669
0.664951 0.668015 0.996078
0.707475 0.659865 0.998529
0.758579 0.645833 1.000000
0.836152 0.626410 0.997916
0.929044 0.595834 0.998529
1.000000 0.591667 0.999816
0.997549 0.620098 0.996078
0.674510 0.754902 0.986274
0.678431 0.751715 0.986029
0.697059 0.749510 0.989216
0.727206 0.747549 0.994608
0.773529 0.737255 0.997059
0.839706 0.727451 1.000000
0.920098 0.712745 1.000000
0.999755 0.706128 0.999755
0.998039 0.725490 1.000000
0.703921 0.826470 0.972549
0.712439 0.825797 0.976165
0.722672 0.822181 0.977084
0.748039 0.819485 0.984314
0.782598 0.814216 0.984804
0.840012 0.807353 0.991238
0.908823 0.806985 0.999387
0.989215 0.807169 1.000000
1.000000 0.818627 0.997549
0.705882 0.876471 0.974510
0.714705 0.879412 0.976594
0.730392 0.874020 0.969363
0.760907 0.879902 0.973284
0.800981 0.884314 0.977451
0.840196 0.879534 0.986152
0.894118 0.881862 0.993628
0.973775 0.884191 0.999142
0.997059 0.897059 0.994118
0.686765 0.930883 0.988235
0.695037 0.927880 0.983149
0.712010 0.929289 0.986887
0.744608 0.931740 0.988603
0.787255 0.934559 0.986765
0.842035 0.935233 0.985907
0.893505 0.939706 0.991176
0.954412 0.945650 0.996078
1.000000 0.957843 1.000000
0.647059 1.000000 1.000000
0.650490 0.995588 0.999510
0.678431 0.996078 1.000000
0.716176 0.997059 0.997549
0.762745 0.994117 0.996078
0.825490 1.000000 0.998529
0.882353 0.996078 0.997059
0.941666 0.996568 1.000000
1.000000 1.000000 1.000000
