assets/luts/LUTs/Fujifilm_ClassicNeg_33_Rec709.cube
#LUMIXPHOTOSTYLE STD
TITLE "Fujifilm_ClassicNeg_33_Rec709"
LUT_3D_SIZE 5
DOMAIN_MIN 0.0 0.0 0.0
DOMAIN_MAX 1.0 1.0 1.0
0.023529 0.023529 0.023529
0.186274 0.032353 0.017647
0.456863 0.100000 0.001961
0.825490 0.161765 0.005882
1.000000 0.215686 0.011765
0.000981 0.167647 0.079412
0.166422 0.181127 0.065931
0.482843 0.240196 0.001961
0.837255 0.288235 0.000000
1.000000 0.311764 0.004902
0.001961 0.417647 0.194117
0.002941 0.403921 0.203431
0.412745 0.463726 0.161765
0.834804 0.510294 0.004412
1.000000 0.503922 0.001961
0.000000 0.723529 0.356862
0.000735 0.715196 0.346814
0.286765 0.719608 0.366667
0.744363 0.766912 0.350490
1.000000 0.756862 0.357843
0.560784 0.960784 0.701961
0.585294 0.959804 0.713725
0.680392 0.950981 0.739216
0.808823 0.967647 0.749020
0.972549 0.984314 0.768627
0.057843 0.031373 0.189216
0.255147 0.002942 0.226716
0.487255 0.000000 0.172549
0.822549 0.069363 0.168382
1.000000 0.177451 0.144118
0.000000 0.214461 0.216421
0.200245 0.212255 0.206679
0.478676 0.237378 0.199510
0.837194 0.261581 0.171875
0.997794 0.294853 0.141422
0.001471 0.475491 0.305392
0.079044 0.452819 0.295098
0.432598 0.480147 0.276961
0.847794 0.514951 0.222427
0.998529 0.512255 0.184804
0.000981 0.747549 0.432108
0.000184 0.742586 0.436336
0.348652 0.728922 0.444485
0.754596 0.771569 0.437929
0.999265 0.766421 0.450000
0.578431 0.964706 0.724510
0.612255 0.960539 0.731617
0.689216 0.951961 0.755882
0.814706 0.968137 0.770343
0.971569 0.985294 0.776471
0.150981 0.050980 0.527451
0.350980 0.001961 0.576470
0.732353 0.001961 0.634314
0.893138 0.101961 0.485294
0.998039 0.050980 0.425490
0.021079 0.273529 0.494118
0.265931 0.258456 0.534069
0.691176 0.165441 0.613970
0.878186 0.312500 0.493750
0.998039 0.273530 0.440686
0.000000 0.543137 0.524510
0.012745 0.539951 0.521078
0.499020 0.525490 0.512745
0.838481 0.543137 0.510784
0.997059 0.558823 0.506863
0.075980 0.809314 0.608824
0.357231 0.800858 0.623284
0.520588 0.761519 0.602451
0.780392 0.783701 0.619608
0.998039 0.790196 0.609804
0.625490 0.978432 0.778431
0.654412 0.975981 0.785294
0.716667 0.966666 0.794118
0.823039 0.970588 0.817157
0.976471 0.984314 0.827451
0.263726 0.181372 0.830392
0.407108 0.145343 0.842402
0.723039 0.001961 0.887255
0.994118 0.000000 0.905637
1.000000 0.424510 0.750980
0.237255 0.361274 0.817157
0.383395 0.350674 0.832537
0.695834 0.300980 0.868627
0.997610 0.264522 0.898284
1.000000 0.550980 0.773530
0.312255 0.605392 0.753922
0.415686 0.612132 0.770833
0.644118 0.624265 0.821078
0.953554 0.636152 0.873285
0.998529 0.729412 0.803431
0.214216 0.825735 0.810785
0.374081 0.823530 0.814522
0.606250 0.820588 0.808088
0.820220 0.807108 0.795833
0.999755 0.823530 0.798529
0.549019 1.000000 0.860785
0.617157 1.000000 0.864461
0.752451 0.992157 0.881863
0.852451 0.978922 0.887010
0.986274 0.985294 0.902941
0.521569 0.454902 1.000000
0.567647 0.439216 1.000000
0.717647 0.382353 0.996078
0.947059 0.208823 1.000000
1.000000 0.337255 1.000000
0.587255 0.579412 0.998039
0.623774 0.572549 1.000000
0.740686 0.535784 1.000000
0.939951 0.446814 0.998529
0.999019 0.505882 1.000000
0.674510 0.754902 0.986274
0.697059 0.749510 0.989216
0.773529 0.737255 0.997059
0.920098 0.712745 1.000000
0.998039 0.725490 1.000000
0.705882 0.876471 0.974510
0.730392 0.874020 0.969363
0.800981 0.884314 0.977451
0.894118 0.881862 0.993628
0.997059 0.897059 0.994118
0.647059 1.000000 1.000000
0.678431 0.996078 1.000000
0.762745 0.994117 0.996078
0.882353 0.996078 0.997059
1.000000 1.000000 1.000000
