assets/luts/LUTs/Pentax_Satobi_33_Rec709.cube
TITLE "Pentax_Satobi_33_Rec709"
# 33^3 LUT extracted from Pentax DCU SATOBI
LUT_3D_SIZE 33
DOMAIN_MIN 0.0 0.0 0.0
DOMAIN_MAX 1.0 1.0 1.0
0.000000 0.000000 0.000000
0.014890 0.000490 0.001042
0.036520 0.001348 0.003248
0.058946 0.003431 0.006740
0.084069 0.006679 0.011397
0.108578 0.010172 0.017279
0.134865 0.014890 0.022855
0.160907 0.020159 0.028983
0.187377 0.025735 0.035968
0.215564 0.031189 0.042402
0.242647 0.037316 0.049694
0.270711 0.043382 0.055821
0.299203 0.049020 0.063725
0.327145 0.055208 0.070650
0.356434 0.061765 0.078002
0.385968 0.067770 0.085539
0.416544 0.074939 0.093750
0.448101 0.082353 0.102267
0.482169 0.090319 0.111336
0.516605 0.098407 0.121017
0.550674 0.106740 0.131189
0.584620 0.116360 0.142953
0.618076 0.126961 0.155086
0.652145 0.138664 0.167586
0.685969 0.150306 0.182230
0.719547 0.163909 0.197794
0.753615 0.178738 0.214277
0.787255 0.194608 0.233824
0.821446 0.213358 0.255882
0.856433 0.234253 0.280699
0.891851 0.260233 0.309927
0.930270 0.292770 0.348591
0.979841 0.370588 0.436274
0.032843 0.010172 0.004105
0.019301 0.017525 0.004289
0.041115 0.020650 0.006679
0.064828 0.024326 0.012071
0.088174 0.028002 0.016544
0.112684 0.032537 0.022059
0.139400 0.037010 0.028431
0.164461 0.041483 0.033456
0.191422 0.046201 0.040564
0.218811 0.051716 0.046936
0.246630 0.056250 0.053860
0.274203 0.062255 0.060968
0.301838 0.067586 0.067831
0.330882 0.074877 0.075245
0.359743 0.079718 0.081801
0.388848 0.086826 0.090012
0.419056 0.092892 0.097917
0.451471 0.099387 0.106250
0.484988 0.106863 0.115196
0.518811 0.114951 0.124939
0.552512 0.123529 0.135355
0.586397 0.133149 0.146691
0.620159 0.142525 0.158579
0.653554 0.153615 0.171446
0.687378 0.165625 0.185968
0.720834 0.178799 0.201164
0.754718 0.192708 0.218199
0.788603 0.209130 0.236887
0.822610 0.226471 0.258027
0.857107 0.247120 0.283272
0.892525 0.272917 0.312806
0.930515 0.305086 0.351348
0.980025 0.383027 0.439583
0.043566 0.028002 0.007537
0.027635 0.037561 0.008272
0.046324 0.041483 0.012684
0.069118 0.044547 0.017218
0.092525 0.048775 0.022243
0.117770 0.052267 0.028615
0.142953 0.056189 0.033578
0.169485 0.060907 0.039583
0.195037 0.066360 0.045098
0.222243 0.071078 0.051348
0.249816 0.075858 0.058272
0.277267 0.080882 0.065441
0.305944 0.086642 0.072549
0.333946 0.091667 0.079779
0.363113 0.097978 0.087316
0.391667 0.102880 0.093627
0.422733 0.109314 0.101409
0.454228 0.116115 0.110049
0.487561 0.123652 0.119179
0.521323 0.130882 0.128799
0.555024 0.139093 0.139216
0.588664 0.148162 0.149939
0.621813 0.158211 0.162194
0.655638 0.168444 0.174878
0.688787 0.180025 0.188848
0.722120 0.192708 0.204412
0.756005 0.207169 0.221569
0.789215 0.222182 0.240135
0.823590 0.239951 0.261213
0.858149 0.260417 0.286091
0.893199 0.285172 0.315503
0.930760 0.316851 0.353554
0.980025 0.394669 0.442402
0.056189 0.049755 0.012377
0.034191 0.062132 0.014216
0.054534 0.064645 0.018627
0.075429 0.067831 0.023836
0.097978 0.071201 0.028554
0.122059 0.075184 0.034069
0.148162 0.079289 0.039828
0.173407 0.083211 0.045343
0.200184 0.087316 0.050613
0.226716 0.092034 0.057721
0.254289 0.096078 0.064032
0.281863 0.100980 0.070833
0.310355 0.106250 0.077696
0.338051 0.111887 0.084988
0.366115 0.117157 0.091667
0.395711 0.123223 0.099203
0.425674 0.129044 0.106127
0.457905 0.134804 0.114706
0.490809 0.141973 0.123223
0.524142 0.149632 0.133211
0.557843 0.157904 0.143444
0.590686 0.165993 0.154228
0.624019 0.175306 0.166054
0.657231 0.185846 0.179105
0.690503 0.196691 0.192586
0.723897 0.208762 0.208517
0.757169 0.222856 0.224878
0.790686 0.237806 0.243750
0.824264 0.254963 0.264706
0.858823 0.275551 0.289706
0.894118 0.299510 0.319363
0.931005 0.330882 0.357598
0.979902 0.408640 0.445343
0.068321 0.071140 0.019301
0.042586 0.085539 0.021814
0.062316 0.087868 0.025245
0.082659 0.090809 0.029841
0.104473 0.094424 0.034620
0.128370 0.097733 0.039890
0.152573 0.100980 0.045221
0.179105 0.104596 0.050735
0.204657 0.109865 0.057230
0.232169 0.113909 0.063725
0.258456 0.118382 0.069730
0.285662 0.122978 0.076164
0.314400 0.127819 0.082904
0.341728 0.133027 0.089277
0.370466 0.138542 0.096936
0.400061 0.143321 0.104473
0.429779 0.148775 0.111704
0.461275 0.155392 0.119853
0.494792 0.162132 0.128615
0.527451 0.168873 0.137561
0.560784 0.176900 0.147672
0.593382 0.185233 0.159130
0.626164 0.193872 0.170650
0.659498 0.204718 0.183885
0.692402 0.214767 0.197304
0.725490 0.226900 0.212255
0.758762 0.240503 0.229596
0.792095 0.255147 0.247488
0.825674 0.272488 0.269118
0.859865 0.292279 0.293811
0.894854 0.315625 0.322672
0.931557 0.346446 0.360601
0.979963 0.423652 0.448897
0.078983 0.092279 0.025858
0.049877 0.110355 0.028983
0.069301 0.112439 0.032659
0.089154 0.115012 0.037194
0.112806 0.118444 0.042586
0.134007 0.121752 0.046569
0.159804 0.125123 0.052451
0.183456 0.128860 0.058150
0.211029 0.133395 0.063725
0.236826 0.137194 0.069424
0.264032 0.141789 0.076226
0.291728 0.146324 0.082966
0.318811 0.150551 0.088787
0.346508 0.155147 0.095711
0.375123 0.160784 0.103309
0.404289 0.165441 0.110172
0.433762 0.170711 0.117034
0.465257 0.177267 0.125368
0.498346 0.183211 0.134191
0.530698 0.189767 0.143505
0.563481 0.197120 0.153554
0.596324 0.205515 0.164154
0.628493 0.214277 0.175123
0.661520 0.223897 0.188603
0.694486 0.234682 0.201899
0.727512 0.245956 0.217218
0.760539 0.259375 0.233762
0.793504 0.273713 0.252145
0.827022 0.290380 0.273223
0.860722 0.309130 0.297672
0.895650 0.333088 0.326593
0.932353 0.363174 0.364155
0.980147 0.439645 0.452267
0.089645 0.117647 0.033824
0.058456 0.136213 0.037561
0.076838 0.138051 0.040870
0.098284 0.140257 0.045343
0.119240 0.143689 0.049203
0.143199 0.146875 0.054228
0.165074 0.149877 0.059681
0.189828 0.153860 0.064828
0.216176 0.157598 0.071017
0.242218 0.161213 0.076532
0.269424 0.165441 0.082966
0.296201 0.169914 0.088726
0.324571 0.174142 0.095649
0.351777 0.178615 0.102022
0.380576 0.183824 0.108946
0.408823 0.188909 0.116177
0.438542 0.193934 0.123652
0.470221 0.199755 0.131618
0.502819 0.205760 0.140074
0.534191 0.212132 0.148713
0.567218 0.220037 0.159007
0.599877 0.227145 0.169976
0.631986 0.235784 0.181311
0.664584 0.245282 0.193505
0.696937 0.255331 0.207169
0.729718 0.266789 0.221936
0.762255 0.279473 0.238971
0.795220 0.293382 0.256863
0.828186 0.309620 0.278002
0.861948 0.328738 0.302390
0.896385 0.351348 0.331802
0.933456 0.380882 0.368750
0.980454 0.457353 0.456679
0.100858 0.143015 0.041483
0.067157 0.161520 0.045343
0.085294 0.163542 0.048775
0.105515 0.166054 0.052696
0.127574 0.169118 0.056740
0.148775 0.171630 0.061642
0.173407 0.174939 0.066912
0.196140 0.178431 0.072304
0.222549 0.182353 0.078431
0.247978 0.185662 0.083456
0.275306 0.189706 0.089828
0.301961 0.193811 0.096140
0.329044 0.198039 0.101532
0.357537 0.202757 0.108579
0.385171 0.207782 0.115380
0.414154 0.212010 0.123039
0.443567 0.216912 0.130086
0.475123 0.222917 0.137929
0.506618 0.228493 0.146078
0.538419 0.234988 0.155392
0.570588 0.241422 0.165441
0.602573 0.249265 0.175490
0.634988 0.257782 0.186826
0.666973 0.266850 0.199632
0.699020 0.276777 0.213051
0.731740 0.288113 0.227512
0.764032 0.299816 0.243873
0.796813 0.313971 0.261887
0.829534 0.329902 0.282966
0.863235 0.348039 0.307230
0.897672 0.370588 0.335968
0.934130 0.399755 0.373284
0.980454 0.474571 0.460662
0.111581 0.169547 0.048958
0.076042 0.188051 0.053860
0.094056 0.189828 0.057292
0.113480 0.192402 0.061642
0.135294 0.194424 0.065380
0.157782 0.197365 0.069669
0.180515 0.200551 0.074571
0.203799 0.204105 0.080086
0.228370 0.207353 0.085049
0.255086 0.211091 0.091667
0.280760 0.215135 0.097610
0.307292 0.219363 0.103002
0.335478 0.223652 0.109191
0.362561 0.227574 0.115503
0.390931 0.232292 0.122917
0.419424 0.236336 0.129167
0.448652 0.241238 0.136520
0.479412 0.246875 0.144547
0.511458 0.252757 0.152941
0.542708 0.258640 0.161520
0.574694 0.265319 0.171201
0.606311 0.272610 0.181924
0.637684 0.280760 0.193198
0.669730 0.289706 0.205270
0.701961 0.299081 0.218628
0.733762 0.310110 0.233150
0.765931 0.321753 0.249020
0.798774 0.335846 0.267586
0.831372 0.351471 0.288664
0.864399 0.368750 0.312623
0.898530 0.391176 0.341054
0.934620 0.419669 0.378431
0.980637 0.493076 0.464951
0.122243 0.197059 0.057353
0.085355 0.214951 0.062561
0.102819 0.216973 0.065748
0.122733 0.219485 0.070159
0.143260 0.222059 0.074203
0.165931 0.224265 0.078064
0.189216 0.227083 0.082904
0.212439 0.230331 0.087929
0.236091 0.234375 0.093873
0.261397 0.237623 0.099571
0.287623 0.241115 0.105208
0.314277 0.245037 0.111336
0.341483 0.248836 0.116422
0.368321 0.252941 0.123223
0.396936 0.257537 0.130821
0.424571 0.261336 0.136703
0.454841 0.266544 0.143811
0.485110 0.271936 0.151777
0.516544 0.277389 0.159988
0.547059 0.282966 0.168627
0.578983 0.290074 0.178370
0.610049 0.296875 0.188358
0.641177 0.304534 0.199203
0.673101 0.313358 0.212071
0.704535 0.322672 0.224939
0.736213 0.333517 0.239093
0.768688 0.345160 0.255882
0.800490 0.358579 0.273100
0.832659 0.373284 0.293873
0.865992 0.390747 0.317954
0.899449 0.413051 0.346324
0.935294 0.440687 0.383211
0.980944 0.511703 0.470159
0.132782 0.224878 0.065625
0.094669 0.242402 0.072120
0.111949 0.244485 0.075061
0.131740 0.246262 0.078983
0.152574 0.248468 0.082659
0.174142 0.251532 0.086887
0.196814 0.254105 0.091667
0.220221 0.257230 0.096446
0.243873 0.260478 0.102022
0.269118 0.264277 0.107598
0.294301 0.268015 0.113358
0.320895 0.271078 0.118750
0.348346 0.275184 0.125123
0.374081 0.279167 0.131127
0.402696 0.283088 0.137132
0.431372 0.287316 0.143934
0.460478 0.292096 0.151226
0.490503 0.296446 0.158579
0.521201 0.302267 0.166667
0.551838 0.308333 0.175245
0.583333 0.314645 0.185049
0.614032 0.322181 0.195159
0.644853 0.329289 0.206434
0.676348 0.337806 0.217892
0.707231 0.347059 0.231373
0.738726 0.357353 0.245466
0.770649 0.368321 0.261152
0.802267 0.381863 0.279412
0.834620 0.396446 0.299939
0.867340 0.413725 0.323836
0.900675 0.434865 0.352329
0.936152 0.461887 0.388909
0.980944 0.530453 0.474878
0.144118 0.252573 0.074326
0.105025 0.270159 0.081005
0.121507 0.271814 0.084252
0.140931 0.273897 0.088113
0.160662 0.275858 0.091483
0.182782 0.278676 0.095711
0.205331 0.281189 0.100061
0.227451 0.283824 0.104473
0.252390 0.287132 0.110662
0.276961 0.290870 0.115503
0.301654 0.294608 0.121752
0.327880 0.297917 0.127145
0.355025 0.301409 0.133272
0.381495 0.305270 0.138909
0.409865 0.310049 0.145527
0.436948 0.313848 0.152267
0.466177 0.318015 0.158762
0.496262 0.322917 0.166422
0.526470 0.328493 0.174326
0.556433 0.334069 0.182476
0.587561 0.339828 0.191973
0.617892 0.346814 0.202267
0.648162 0.354351 0.213235
0.679779 0.362132 0.225061
0.710478 0.371017 0.237990
0.741605 0.381618 0.252328
0.773223 0.392279 0.268382
0.804534 0.405453 0.285539
0.836274 0.419546 0.306189
0.868872 0.436826 0.330086
0.901839 0.457353 0.357843
0.937439 0.483762 0.394791
0.981434 0.548713 0.480086
0.155760 0.281250 0.082659
0.116238 0.298407 0.090931
0.132047 0.299632 0.093689
0.149877 0.301532 0.096936
0.170527 0.304350 0.100797
0.190809 0.306863 0.104657
0.214093 0.309007 0.109314
0.236397 0.312255 0.113909
0.260907 0.315380 0.119118
0.284927 0.318015 0.124449
0.310294 0.321385 0.129596
0.335417 0.325061 0.135600
0.361520 0.328738 0.141728
0.388603 0.332414 0.147426
0.415992 0.336458 0.153799
0.443567 0.340748 0.159681
0.472917 0.345098 0.166789
0.502267 0.349633 0.173836
0.531556 0.354596 0.181924
0.561397 0.359804 0.190074
0.591912 0.366360 0.199571
0.621813 0.372610 0.209375
0.652022 0.380086 0.220037
0.683088 0.388235 0.232537
0.713726 0.396814 0.245159
0.744608 0.406556 0.259559
0.775490 0.417708 0.274693
0.806617 0.430024 0.292770
0.838296 0.443812 0.312316
0.870465 0.460846 0.336091
0.903125 0.480392 0.364032
0.938236 0.505208 0.400674
0.981740 0.567402 0.485294
0.166667 0.309375 0.091422
0.126103 0.326471 0.099632
0.141299 0.328064 0.103002
0.159865 0.330147 0.106250
0.179351 0.332353 0.110294
0.200245 0.334681 0.114277
0.222733 0.337377 0.118934
0.245159 0.339645 0.123346
0.269179 0.342402 0.127757
0.293627 0.345834 0.133333
0.318076 0.348468 0.138664
0.344363 0.352084 0.144118
0.368444 0.355637 0.150123
0.395588 0.359498 0.156250
0.422916 0.363174 0.162255
0.450368 0.367341 0.168321
0.478738 0.371262 0.175245
0.507598 0.375674 0.181618
0.537071 0.381066 0.189399
0.566361 0.386397 0.197978
0.596262 0.392402 0.207353
0.625797 0.398590 0.216728
0.655944 0.405943 0.227880
0.686459 0.413970 0.239461
0.716606 0.421875 0.252328
0.747120 0.431495 0.266360
0.777880 0.442464 0.281618
0.808823 0.454289 0.299265
0.840012 0.468199 0.318873
0.871997 0.484069 0.342341
0.904290 0.502880 0.370221
0.938910 0.525919 0.406924
0.982047 0.585355 0.490686
0.178125 0.338052 0.100797
0.136949 0.355086 0.109804
0.152390 0.356863 0.112316
0.169608 0.358395 0.115748
0.189032 0.360110 0.119608
0.209988 0.362378 0.123468
0.231066 0.365135 0.127328
0.253676 0.367770 0.132108
0.277022 0.369976 0.136887
0.301164 0.373591 0.142341
0.326164 0.377022 0.147426
0.351103 0.380392 0.152819
0.377757 0.383456 0.158640
0.403186 0.387194 0.164522
0.430269 0.390809 0.170527
0.457598 0.394791 0.176655
0.485601 0.398774 0.183272
0.514093 0.402757 0.190257
0.542892 0.408211 0.197917
0.571814 0.413480 0.206005
0.601103 0.419056 0.214890
0.630515 0.425490 0.225061
0.659804 0.432353 0.235784
0.690197 0.439890 0.246630
0.719853 0.448223 0.260049
0.750000 0.457843 0.273407
0.780576 0.467892 0.289400
0.811274 0.479841 0.306311
0.842156 0.492954 0.326409
0.873529 0.507537 0.349571
0.905944 0.525061 0.376838
0.939952 0.547304 0.413235
0.982537 0.603309 0.496569
0.188542 0.366912 0.110417
0.147855 0.384252 0.119914
0.162684 0.385600 0.122549
0.180392 0.387316 0.125551
0.198713 0.388970 0.129228
0.218628 0.391299 0.133027
0.240870 0.393995 0.137377
0.262806 0.396568 0.141605
0.286091 0.398897 0.146262
0.310110 0.402267 0.151103
0.334865 0.405392 0.156066
0.359436 0.408272 0.161949
0.386152 0.411948 0.167525
0.411826 0.415318 0.173346
0.437194 0.418627 0.178983
0.464583 0.422549 0.185355
0.492279 0.426593 0.191973
0.520527 0.430698 0.199142
0.549203 0.435784 0.206556
0.577390 0.440870 0.214461
0.606434 0.446324 0.223284
0.634804 0.452451 0.233088
0.664032 0.458885 0.243689
0.693996 0.466667 0.254718
0.723162 0.474816 0.267892
0.753186 0.483579 0.281189
0.783027 0.493321 0.296201
0.813235 0.504596 0.313542
0.843872 0.516544 0.333701
0.875368 0.529963 0.355944
0.907292 0.547059 0.383762
0.941361 0.567463 0.419485
0.982782 0.620833 0.502022
0.200674 0.397671 0.121078
0.159436 0.414522 0.130392
0.174510 0.416115 0.132966
0.190564 0.417279 0.135784
0.209559 0.418872 0.139645
0.229473 0.421262 0.143382
0.250123 0.423958 0.147672
0.272671 0.426470 0.151471
0.295282 0.428921 0.156066
0.319424 0.431740 0.160784
0.343689 0.434252 0.166054
0.367647 0.437745 0.171569
0.393627 0.441177 0.177329
0.420220 0.444302 0.182966
0.446263 0.447549 0.188909
0.472733 0.451716 0.194240
0.499816 0.455760 0.200919
0.526960 0.459559 0.207537
0.554718 0.464338 0.214767
0.583027 0.469240 0.223468
0.611397 0.474816 0.232414
0.639645 0.480454 0.240993
0.668321 0.486520 0.251777
0.697611 0.493873 0.263174
0.726716 0.501471 0.275367
0.756373 0.509743 0.289522
0.785784 0.518689 0.304105
0.815809 0.528860 0.321446
0.846139 0.539889 0.340380
0.877145 0.552941 0.363358
0.908579 0.568566 0.390747
0.942280 0.588235 0.426287
0.983334 0.638848 0.507966
0.213052 0.429351 0.132966
0.171017 0.445527 0.141054
0.186091 0.447182 0.143811
0.202206 0.448775 0.146875
0.220711 0.450797 0.150000
0.240012 0.452451 0.153799
0.260845 0.454718 0.157904
0.282169 0.457292 0.161887
0.304657 0.460233 0.166544
0.329044 0.462868 0.171385
0.353064 0.465809 0.176471
0.377022 0.468689 0.181373
0.403431 0.471753 0.186826
0.428676 0.474939 0.192096
0.455025 0.478370 0.197794
0.480883 0.481679 0.203922
0.506801 0.485172 0.210784
0.533578 0.489829 0.217463
0.560968 0.494118 0.225000
0.588971 0.498468 0.232659
0.616789 0.503493 0.240993
0.644424 0.508395 0.250429
0.672917 0.514399 0.260845
0.701777 0.521262 0.271936
0.730515 0.527696 0.284130
0.759559 0.535355 0.297426
0.788909 0.544179 0.313052
0.818627 0.553308 0.329718
0.848223 0.563909 0.348959
0.878984 0.576471 0.371507
0.910295 0.590748 0.398897
0.943199 0.609252 0.433946
0.983640 0.657292 0.514583
0.225919 0.462990 0.144608
0.184252 0.479596 0.153003
0.198407 0.480699 0.155699
0.214461 0.482598 0.158701
0.232966 0.484253 0.162010
0.251716 0.485907 0.165502
0.272304 0.488052 0.169424
0.293811 0.490625 0.173346
0.315809 0.493137 0.177512
0.339461 0.495527 0.182476
0.363726 0.498346 0.187500
0.387194 0.500858 0.192034
0.412929 0.503738 0.197794
0.438419 0.506556 0.203309
0.464277 0.510049 0.209007
0.490809 0.512561 0.214706
0.515870 0.516176 0.221140
0.541176 0.519975 0.227757
0.568199 0.523652 0.234988
0.595466 0.527757 0.242279
0.622733 0.532353 0.251348
0.650429 0.537622 0.260539
0.678248 0.543014 0.270956
0.706373 0.548774 0.281495
0.734436 0.555085 0.294118
0.763113 0.562255 0.307169
0.792279 0.570282 0.321691
0.821385 0.579289 0.338664
0.850857 0.589154 0.358272
0.880944 0.600123 0.380270
0.911888 0.614032 0.407108
0.944670 0.630637 0.441912
0.984191 0.676164 0.521140
0.239890 0.497978 0.158027
0.198407 0.513603 0.165625
0.211826 0.514399 0.167831
0.227512 0.516115 0.171140
0.245466 0.517708 0.174142
0.264399 0.519485 0.178064
0.284314 0.521752 0.181495
0.305392 0.523345 0.185723
0.327574 0.525735 0.190074
0.351103 0.528063 0.194118
0.374571 0.529963 0.199265
0.398958 0.532475 0.204044
0.423223 0.534988 0.209375
0.449265 0.538174 0.214767
0.473959 0.540992 0.220527
0.500184 0.543811 0.226103
0.525306 0.546813 0.232414
0.549755 0.550183 0.239093
0.576042 0.553676 0.246201
0.602267 0.557659 0.253370
0.629167 0.561826 0.261948
0.656066 0.566361 0.271875
0.683578 0.571262 0.281250
0.711336 0.577145 0.291851
0.739216 0.582598 0.303860
0.766973 0.589093 0.316973
0.795894 0.596752 0.332169
0.824326 0.604657 0.348285
0.853186 0.614032 0.367279
0.883211 0.624816 0.389828
0.913787 0.636949 0.416360
0.946018 0.652819 0.450858
0.984682 0.695711 0.529044
0.254412 0.532782 0.171446
0.212990 0.547733 0.179167
0.226287 0.549019 0.181556
0.242402 0.550183 0.184191
0.258946 0.551531 0.187377
0.278554 0.553247 0.191176
0.298407 0.554718 0.194792
0.318566 0.556740 0.198591
0.340380 0.558394 0.202757
0.363297 0.560845 0.207353
0.387071 0.562500 0.211887
0.411091 0.565074 0.216912
0.435968 0.567280 0.222304
0.460356 0.570159 0.227512
0.484620 0.572672 0.233088
0.509681 0.575368 0.238358
0.534068 0.578186 0.244608
0.559191 0.581066 0.251287
0.584559 0.584681 0.258272
0.609926 0.588297 0.265747
0.636091 0.591912 0.273774
0.662439 0.596201 0.283333
0.689584 0.600490 0.293199
0.716606 0.605637 0.303247
0.743995 0.611336 0.315258
0.771813 0.616728 0.328370
0.800000 0.623836 0.342708
0.827941 0.631067 0.359130
0.856127 0.639584 0.377696
0.885417 0.649816 0.399448
0.915503 0.661030 0.426532
0.947121 0.675858 0.461030
0.985172 0.715748 0.536581
0.270343 0.567770 0.186336
0.229228 0.581066 0.193566
0.242034 0.582169 0.195772
0.257721 0.583395 0.199081
0.274203 0.584681 0.201716
0.293015 0.586029 0.205270
0.312255 0.587745 0.208823
0.332414 0.589461 0.212745
0.354228 0.590870 0.217034
0.376900 0.592892 0.221324
0.399693 0.595098 0.226042
0.423345 0.597426 0.230515
0.447978 0.599326 0.235417
0.472672 0.601532 0.240686
0.496507 0.604044 0.245956
0.520527 0.606434 0.251899
0.544301 0.608946 0.257843
0.568321 0.611642 0.264154
0.593444 0.614338 0.271078
0.617831 0.617708 0.278247
0.643505 0.621262 0.286520
0.669240 0.625184 0.295588
0.695466 0.629473 0.305147
0.722243 0.633824 0.315258
0.749265 0.639093 0.327451
0.776409 0.644486 0.339890
0.803860 0.650735 0.354718
0.831679 0.657598 0.370404
0.859619 0.665503 0.389216
0.888297 0.674387 0.411213
0.917709 0.685417 0.437255
0.949081 0.698959 0.471324
0.985968 0.736030 0.545465
0.287132 0.602512 0.202267
0.245772 0.615135 0.209069
0.258946 0.615931 0.211274
0.274203 0.617095 0.214338
0.290257 0.617892 0.217157
0.308946 0.619240 0.220405
0.328064 0.620833 0.224020
0.347427 0.622181 0.227574
0.368934 0.623958 0.232414
0.391238 0.625552 0.236275
0.414216 0.627329 0.240686
0.437745 0.628983 0.244976
0.462010 0.631618 0.250245
0.485417 0.633150 0.255208
0.508333 0.635601 0.260417
0.531801 0.637378 0.266360
0.554718 0.639829 0.271875
0.578493 0.642218 0.277818
0.602635 0.644731 0.284681
0.626961 0.647978 0.291912
0.651838 0.651655 0.299939
0.676654 0.655147 0.309069
0.702390 0.658885 0.318934
0.728615 0.663113 0.329289
0.754534 0.667525 0.340380
0.781250 0.672549 0.352880
0.808271 0.678370 0.367279
0.835661 0.684620 0.383027
0.863235 0.691606 0.401532
0.891177 0.700062 0.423039
0.919853 0.709743 0.449081
0.950552 0.722365 0.482292
0.986520 0.757169 0.554411
0.305147 0.637500 0.219302
0.264645 0.648530 0.225919
0.277144 0.649387 0.228125
0.292831 0.650613 0.231189
0.308578 0.651593 0.234253
0.326348 0.652819 0.237684
0.344914 0.654289 0.240809
0.363787 0.655454 0.244363
0.385907 0.656802 0.248346
0.407230 0.658701 0.252880
0.429902 0.660049 0.256801
0.453125 0.661520 0.261765
0.476777 0.663358 0.266421
0.499694 0.665441 0.271630
0.521201 0.667280 0.276287
0.543934 0.669302 0.281618
0.565993 0.671630 0.287378
0.589338 0.673591 0.293260
0.612745 0.676042 0.299816
0.636275 0.678860 0.307475
0.660907 0.682169 0.315319
0.684804 0.685049 0.323775
0.709743 0.688236 0.333333
0.735172 0.692219 0.343566
0.760723 0.696079 0.354473
0.786458 0.700736 0.367341
0.812929 0.706250 0.381679
0.839889 0.711765 0.397242
0.866972 0.718199 0.415012
0.894547 0.725552 0.436336
0.922549 0.734804 0.462071
0.952574 0.746446 0.495098
0.987378 0.778309 0.563909
0.324939 0.672488 0.238113
0.284988 0.682721 0.244118
0.297304 0.683272 0.246017
0.311581 0.683824 0.248897
0.328186 0.684988 0.252390
0.344608 0.686153 0.255086
0.363235 0.687072 0.258272
0.382659 0.688236 0.262132
0.402880 0.689829 0.265931
0.425245 0.691054 0.269914
0.446569 0.692525 0.274326
0.469302 0.694302 0.279105
0.492463 0.695589 0.283824
0.514644 0.697366 0.288297
0.536029 0.699020 0.293627
0.556924 0.700736 0.298958
0.578799 0.702513 0.304167
0.600674 0.704535 0.310110
0.623162 0.706986 0.316667
0.646569 0.709559 0.324204
0.670343 0.711826 0.332292
0.694057 0.714767 0.339951
0.717647 0.718076 0.349449
0.742279 0.721753 0.359865
0.767157 0.725307 0.370343
0.792463 0.729657 0.382843
0.818382 0.734130 0.396997
0.844240 0.739032 0.412500
0.870955 0.745221 0.430085
0.897978 0.752083 0.450613
0.925245 0.760049 0.475858
0.954412 0.770833 0.507230
0.988235 0.800000 0.574878
0.346140 0.706679 0.258395
0.306740 0.716054 0.264216
0.319424 0.716544 0.266176
0.332904 0.717464 0.268995
0.348713 0.718260 0.271752
0.365012 0.719241 0.274571
0.383395 0.720282 0.277880
0.402757 0.721508 0.281495
0.422855 0.722611 0.285417
0.444057 0.723714 0.289400
0.466115 0.725368 0.293689
0.487194 0.726593 0.297610
0.508946 0.728064 0.301961
0.530331 0.729718 0.307292
0.551164 0.730883 0.311826
0.571446 0.732782 0.317402
0.591912 0.734314 0.322917
0.613235 0.736152 0.328738
0.634804 0.738052 0.335049
0.657292 0.740196 0.341973
0.680331 0.742525 0.349633
0.703003 0.745527 0.358211
0.726471 0.748039 0.366912
0.750184 0.750858 0.377328
0.774510 0.754350 0.387867
0.799019 0.758211 0.399816
0.823958 0.762194 0.413787
0.849264 0.766789 0.428983
0.875185 0.772488 0.446385
0.901532 0.778676 0.467280
0.928187 0.785968 0.491360
0.956679 0.794975 0.521201
0.989032 0.821568 0.586520
0.369608 0.741605 0.280270
0.331618 0.750061 0.286029
0.343566 0.750674 0.288358
0.356924 0.751164 0.290870
0.372181 0.752022 0.293444
0.388603 0.753064 0.296507
0.406372 0.753922 0.299632
0.425184 0.754841 0.303125
0.444486 0.755637 0.306924
0.465686 0.757169 0.311030
0.485723 0.758088 0.314829
0.507108 0.759314 0.319179
0.527818 0.760723 0.323652
0.547978 0.761887 0.328554
0.567402 0.763174 0.333272
0.587132 0.764767 0.338419
0.606311 0.766238 0.343995
0.626777 0.767586 0.349081
0.647733 0.769424 0.355331
0.669240 0.771262 0.362500
0.691238 0.773590 0.369853
0.713726 0.776103 0.377635
0.736030 0.778370 0.386519
0.759191 0.781127 0.396630
0.782353 0.784130 0.407046
