assets/luts/LUTs/Pentax_Satobi_33_Rec709.cube
TITLE "Pentax_Satobi_33_Rec709"
# 33^3 LUT extracted from Pentax DCU SATOBI
LUT_3D_SIZE 9
DOMAIN_MIN 0.0 0.0 0.0
DOMAIN_MAX 1.0 1.0 1.0
0.000000 0.000000 0.000000
0.084069 0.006679 0.011397
0.187377 0.025735 0.035968
0.299203 0.049020 0.063725
0.416544 0.074939 0.093750
0.550674 0.106740 0.131189
0.685969 0.150306 0.182230
0.821446 0.213358 0.255882
0.979841 0.370588 0.436274
0.068321 0.071140 0.019301
0.104473 0.094424 0.034620
0.204657 0.109865 0.057230
0.314400 0.127819 0.082904
0.429779 0.148775 0.111704
0.560784 0.176900 0.147672
0.692402 0.214767 0.197304
0.825674 0.272488 0.269118
0.979963 0.423652 0.448897
0.111581 0.169547 0.048958
0.135294 0.194424 0.065380
0.228370 0.207353 0.085049
0.335478 0.223652 0.109191
0.448652 0.241238 0.136520
0.574694 0.265319 0.171201
0.701961 0.299081 0.218628
0.831372 0.351471 0.288664
0.980637 0.493076 0.464951
0.155760 0.281250 0.082659
0.170527 0.304350 0.100797
0.260907 0.315380 0.119118
0.361520 0.328738 0.141728
0.472917 0.345098 0.166789
0.591912 0.366360 0.199571
0.713726 0.396814 0.245159
0.838296 0.443812 0.312316
0.981740 0.567402 0.485294
0.200674 0.397671 0.121078
0.209559 0.418872 0.139645
0.295282 0.428921 0.156066
0.393627 0.441177 0.177329
0.499816 0.455760 0.200919
0.611397 0.474816 0.232414
0.726716 0.501471 0.275367
0.846139 0.539889 0.340380
0.983334 0.638848 0.507966
0.254412 0.532782 0.171446
0.258946 0.551531 0.187377
0.340380 0.558394 0.202757
0.435968 0.567280 0.222304
0.534068 0.578186 0.244608
0.636091 0.591912 0.273774
0.743995 0.611336 0.315258
0.856127 0.639584 0.377696
0.985172 0.715748 0.536581
0.324939 0.672488 0.238113
0.328186 0.684988 0.252390
0.402880 0.689829 0.265931
0.492463 0.695589 0.283824
0.578799 0.702513 0.304167
0.670343 0.711826 0.332292
0.767157 0.725307 0.370343
0.870955 0.745221 0.430085
0.988235 0.800000 0.574878
0.424142 0.811826 0.333333
0.427451 0.820037 0.345282
0.496201 0.822733 0.358088
0.568444 0.826164 0.373836
0.639584 0.830453 0.392586
0.716851 0.836090 0.418014
0.800796 0.843995 0.453187
0.891300 0.856066 0.507108
0.992279 0.890013 0.627206
0.638051 0.976961 0.554166
0.637071 0.979412 0.559987
0.676593 0.979963 0.568321
0.720772 0.980760 0.579596
0.765502 0.981740 0.591789
0.816176 0.983027 0.608211
0.873775 0.984804 0.630638
0.936827 0.987500 0.663235
0.999632 0.993627 0.740870
0.001103 0.009252 0.075613
0.085294 0.022794 0.088542
0.190135 0.041544 0.107966
0.300980 0.064583 0.130270
0.418505 0.088909 0.156311
0.552328 0.120221 0.189338
0.686827 0.162439 0.236091
0.822549 0.223897 0.304105
0.979351 0.380392 0.479044
0.076593 0.083395 0.085907
0.108456 0.107966 0.107782
0.206740 0.122120 0.125980
0.316238 0.140257 0.147426
0.431617 0.160968 0.172917
0.561642 0.187439 0.205453
0.693322 0.225245 0.250429
0.826225 0.281679 0.317586
0.979841 0.431863 0.489951
0.117096 0.182475 0.111642
0.137561 0.205637 0.132353
0.230454 0.218198 0.149878
0.337194 0.233885 0.170833
0.450307 0.251838 0.195098
0.576042 0.275306 0.226226
0.702697 0.308640 0.270649
0.831556 0.359743 0.335784
0.980637 0.500613 0.504718
0.159191 0.291176 0.143137
0.172733 0.313848 0.163113
0.262990 0.324632 0.178799
0.363297 0.337806 0.199265
0.473652 0.353799 0.222304
0.592831 0.374755 0.252390
0.714522 0.405269 0.295098
0.838786 0.452022 0.359069
0.981863 0.573101 0.522304
0.203370 0.406985 0.179779
0.211887 0.427880 0.197426
0.296814 0.437193 0.212561
0.395649 0.449020 0.231679
0.500919 0.463909 0.254044
0.612255 0.482721 0.282843
0.727819 0.508517 0.323039
0.846629 0.546568 0.385417
0.983334 0.643628 0.542708
0.256250 0.540257 0.225858
0.261213 0.557659 0.241177
0.342096 0.564645 0.255882
0.437500 0.573468 0.273162
0.535171 0.583701 0.294363
0.637316 0.597610 0.321998
0.744914 0.616483 0.361397
0.856678 0.644486 0.421201
0.985172 0.719731 0.568628
0.326654 0.676900 0.287132
0.329596 0.689032 0.301103
0.404534 0.693751 0.314216
0.493382 0.699755 0.331434
0.579596 0.706741 0.350613
0.670895 0.715809 0.376838
0.767953 0.729044 0.414277
0.871139 0.748652 0.471385
0.988297 0.802451 0.603309
0.425490 0.814890 0.377451
0.429166 0.822365 0.389583
0.496936 0.825122 0.401838
0.570159 0.828676 0.417340
0.640993 0.832781 0.435233
0.717464 0.838602 0.459253
0.801286 0.846139 0.492892
0.891667 0.858088 0.541421
0.992279 0.891790 0.652145
0.638603 0.977574 0.583578
0.637868 0.979963 0.589461
0.677574 0.980576 0.597243
0.721569 0.981434 0.607230
0.765992 0.982414 0.618688
0.816544 0.983701 0.633824
0.874326 0.985294 0.654534
0.937133 0.988174 0.685417
0.999632 0.994056 0.757659
0.002451 0.032782 0.169976
0.087684 0.045833 0.181189
0.190380 0.063358 0.196997
0.302206 0.083824 0.215931
0.419608 0.106679 0.238481
0.553002 0.136887 0.267831
0.687562 0.177819 0.309927
0.822549 0.238052 0.372488
0.978861 0.393137 0.534252
0.085662 0.102145 0.173836
0.110110 0.125245 0.195833
0.207904 0.139461 0.211642
0.317218 0.156802 0.230025
0.432475 0.176777 0.252328
0.562378 0.203676 0.281066
0.694241 0.240012 0.322488
0.826593 0.295221 0.384559
0.979473 0.443627 0.543750
0.121324 0.198529 0.196446
0.138542 0.221017 0.217279
0.233333 0.233088 0.232905
0.338051 0.247610 0.251042
0.450490 0.264890 0.273100
0.576287 0.288113 0.300797
0.703187 0.321262 0.341299
0.831801 0.371753 0.402635
0.980392 0.510171 0.556311
0.161336 0.305699 0.225735
0.172610 0.326654 0.244179
0.263358 0.336949 0.258211
0.364338 0.350307 0.276532
0.474204 0.366115 0.297855
0.593260 0.387071 0.325123
0.714829 0.416850 0.364155
0.838848 0.463113 0.423897
0.981679 0.581311 0.571569
0.205576 0.418995 0.257966
0.212132 0.438971 0.275184
0.297304 0.448468 0.288297
0.396691 0.460662 0.305698
0.501654 0.474816 0.325613
0.612745 0.493076 0.352819
0.728003 0.518505 0.390747
0.846568 0.555269 0.448836
0.983334 0.649878 0.589461
0.257782 0.549448 0.298652
0.262132 0.566177 0.314277
0.343321 0.573284 0.327145
0.438235 0.581863 0.343750
0.535478 0.591483 0.363664
0.637562 0.605086 0.389277
0.744853 0.623590 0.426348
0.857230 0.651103 0.482659
0.985233 0.724388 0.612010
0.327512 0.683027 0.356373
0.330025 0.694853 0.370282
0.405024 0.699204 0.382353
0.494363 0.705147 0.398100
0.579780 0.712010 0.416360
0.671262 0.721324 0.441299
0.768198 0.733762 0.475797
0.871323 0.753064 0.526286
0.988297 0.805943 0.642586
0.426042 0.818321 0.441177
0.429105 0.825674 0.453003
0.497427 0.828370 0.464583
0.570282 0.831985 0.478860
0.641299 0.836090 0.495037
0.717647 0.841482 0.516299
0.801409 0.849019 0.545220
0.891667 0.860845 0.587255
0.992279 0.894118 0.686275
0.638786 0.978432 0.624449
0.638174 0.980637 0.630270
0.677880 0.981373 0.636642
0.721814 0.982231 0.645956
0.766421 0.983027 0.655944
0.816850 0.984375 0.669424
0.874388 0.986030 0.688113
0.937133 0.988603 0.715135
0.999632 0.994485 0.781188
0.003676 0.060110 0.271507
0.088787 0.071814 0.281679
0.191115 0.087868 0.295221
0.302390 0.106863 0.312255
0.419730 0.129718 0.331863
0.553186 0.158333 0.358824
0.687807 0.197059 0.396568
0.822855 0.255760 0.454228
0.978248 0.408946 0.594363
0.090809 0.125184 0.272304
0.111397 0.146385 0.294853
0.207843 0.160110 0.307782
0.317831 0.176961 0.324755
0.433210 0.196507 0.344914
0.562929 0.221998 0.370711
0.694486 0.257169 0.407966
0.826593 0.311520 0.465441
0.979228 0.458517 0.601838
0.125858 0.218566 0.293260
0.139828 0.239155 0.313726
0.234620 0.250490 0.326532
0.338848 0.265502 0.343015
0.451716 0.282292 0.362071
0.577206 0.305760 0.388358
0.703554 0.337929 0.424571
0.832107 0.387500 0.481128
0.980086 0.523100 0.612439
0.165319 0.322978 0.318382
0.174387 0.342770 0.336949
0.264645 0.352941 0.349816
0.366299 0.366360 0.366299
0.475184 0.381556 0.385478
0.594118 0.402144 0.410968
0.714890 0.431924 0.446753
0.838848 0.477022 0.501164
0.981373 0.591238 0.625735
0.207721 0.434253 0.348284
0.212745 0.453615 0.364767
0.297855 0.462439 0.377328
0.397304 0.474204 0.392769
0.502206 0.487990 0.411642
0.613358 0.505699 0.435846
0.728125 0.530392 0.471508
0.846997 0.565870 0.522549
0.983027 0.657660 0.640993
0.259497 0.560907 0.385355
0.262439 0.576777 0.401164
0.343505 0.583150 0.413174
0.438481 0.591605 0.428615
0.536642 0.601471 0.445772
0.637868 0.614461 0.470282
0.745343 0.632415 0.502880
0.857597 0.659375 0.549877
0.985172 0.730699 0.660356
0.328921 0.690748 0.438236
0.330699 0.701777 0.452084
0.405637 0.706495 0.463542
0.494485 0.712071 0.477574
0.580515 0.718812 0.494669
0.671691 0.727145 0.515441
0.768443 0.739829 0.544853
0.871629 0.758517 0.586826
0.988297 0.810600 0.687010
0.427267 0.822671 0.515257
0.429779 0.829779 0.525551
0.497978 0.832598 0.534988
0.571017 0.836090 0.546936
0.641728 0.840134 0.560294
0.718138 0.845220 0.578064
0.801593 0.852634 0.602635
0.891851 0.864399 0.638358
0.992279 0.896876 0.723897
0.639338 0.979596 0.670711
0.638787 0.981740 0.675429
0.678431 0.982353 0.681556
0.722182 0.983027 0.689155
0.766666 0.984008 0.697611
0.816973 0.985233 0.709620
0.874510 0.986826 0.725613
0.937133 0.989338 0.749939
0.999632 0.995159 0.808333
0.004596 0.089216 0.378248
0.090931 0.099694 0.386887
0.192647 0.114890 0.399632
0.304044 0.133762 0.414644
0.420037 0.154412 0.432965
0.553982 0.181740 0.456802
0.688236 0.220037 0.491360
0.823162 0.276838 0.539706
0.978003 0.426961 0.655025
0.095650 0.150919 0.377635
0.112194 0.170588 0.398713
0.210233 0.183640 0.411458
0.319118 0.200368 0.426287
0.433394 0.218566 0.444302
0.563787 0.243199 0.468321
0.694731 0.278125 0.500735
0.827083 0.331740 0.548345
0.978861 0.475061 0.660662
0.129228 0.241176 0.396507
0.140625 0.260171 0.415809
0.235478 0.271569 0.428063
0.340196 0.285784 0.442647
0.452451 0.302757 0.460478
0.578248 0.325184 0.483579
0.703922 0.357231 0.515135
0.832598 0.405514 0.560600
0.979902 0.537010 0.669302
0.168628 0.342892 0.419056
0.175980 0.361826 0.437316
0.265441 0.371201 0.448652
0.367525 0.384926 0.463664
0.476838 0.399816 0.480821
0.594669 0.419975 0.502635
0.715380 0.449265 0.533027
0.839705 0.493811 0.576164
0.981312 0.602757 0.680392
0.210110 0.452819 0.445282
0.213725 0.470711 0.462316
0.299816 0.479535 0.473285
0.398836 0.490870 0.487316
0.503738 0.503983 0.503738
0.614093 0.520772 0.524755
0.728554 0.543688 0.552880
0.847304 0.578677 0.593934
0.983027 0.667463 0.693199
0.262071 0.574449 0.480515
0.263725 0.588787 0.495282
0.343995 0.595037 0.505576
0.438971 0.603431 0.518137
0.537132 0.612684 0.532659
0.638481 0.624939 0.551960
0.745833 0.642586 0.578677
0.857597 0.668444 0.616850
0.985110 0.737929 0.709253
0.330086 0.699571 0.525429
0.331495 0.710049 0.537990
0.406985 0.714461 0.546813
0.496140 0.720098 0.558333
0.581250 0.726410 0.571262
0.672120 0.734988 0.588909
0.768750 0.747120 0.612500
0.871813 0.765564 0.646936
0.988235 0.815992 0.731863
0.429044 0.828125 0.587623
0.431617 0.834987 0.597120
0.499265 0.837500 0.604657
0.571140 0.840931 0.614215
0.642035 0.844791 0.625123
0.718321 0.849693 0.639951
0.802083 0.857046 0.659988
0.891912 0.868443 0.690871
0.992279 0.900307 0.764154
0.640073 0.980637 0.717402
0.639400 0.982843 0.721691
0.678860 0.983456 0.726838
0.722182 0.984253 0.733517
0.766973 0.984988 0.740993
0.817279 0.986275 0.750980
0.874756 0.987929 0.765196
0.937256 0.990196 0.785723
0.999632 0.995711 0.836519
0.006924 0.126409 0.506740
0.093015 0.135846 0.514216
0.194424 0.150061 0.523836
0.305208 0.167463 0.535600
0.422059 0.186887 0.550183
0.555024 0.212806 0.568260
0.688542 0.249265 0.593260
0.823284 0.304167 0.630025
0.977574 0.450491 0.721324
0.100858 0.183946 0.504289
0.113542 0.201961 0.523407
0.212684 0.214461 0.532843
0.320098 0.230515 0.544975
0.435416 0.248284 0.558394
0.564584 0.271691 0.576654
0.695221 0.305882 0.600980
0.827389 0.357537 0.636826
0.978493 0.496814 0.726226
0.134498 0.270343 0.519546
0.143444 0.288174 0.536887
0.237010 0.299020 0.546139
0.341238 0.312623 0.557291
0.454044 0.329657 0.570527
0.578677 0.350736 0.588235
0.704657 0.382046 0.611826
0.832659 0.429718 0.646508
0.979535 0.555331 0.733150
0.172549 0.369179 0.538051
0.177574 0.386887 0.553308
0.266605 0.396997 0.561948
0.369118 0.409559 0.572978
0.477513 0.424203 0.585846
0.595527 0.443812 0.601961
0.716054 0.471998 0.625000
0.840012 0.514154 0.658579
0.980883 0.617953 0.741912
0.213419 0.476103 0.558211
0.216422 0.492892 0.571998
0.300858 0.501348 0.580270
0.400367 0.511519 0.590748
0.505515 0.524142 0.602757
0.615012 0.540196 0.618321
0.729228 0.561948 0.640258
0.847794 0.594976 0.672120
0.982905 0.680025 0.751899
0.264645 0.591789 0.584191
0.266115 0.605024 0.595833
0.346630 0.611397 0.603921
0.440564 0.618566 0.613419
0.538113 0.627696 0.624755
0.639706 0.639767 0.639829
0.746262 0.656250 0.660172
0.857904 0.681250 0.690564
0.984743 0.747549 0.765318
0.331801 0.710907 0.618873
0.333517 0.720711 0.628738
0.407720 0.724939 0.635785
0.496753 0.730576 0.644486
0.582782 0.736581 0.654902
0.672672 0.745098 0.668015
0.769301 0.756924 0.687010
0.871997 0.774510 0.714522
0.987990 0.822916 0.783517
0.430086 0.834987 0.667034
0.432475 0.841421 0.674816
0.500245 0.843933 0.680944
0.572427 0.847181 0.688481
0.642647 0.850857 0.697366
0.719057 0.856188 0.708946
0.802512 0.863235 0.725123
0.892403 0.874143 0.749571
0.992402 0.904412 0.809865
0.641115 0.982414 0.771630
0.640135 0.984314 0.775000
0.679412 0.984804 0.779166
0.722978 0.985662 0.784375
0.767463 0.986336 0.790380
0.817769 0.987623 0.798774
0.875001 0.989093 0.810110
0.937378 0.991299 0.827573
0.999694 0.996201 0.870036
0.010355 0.176226 0.642586
0.095711 0.184988 0.647610
0.197365 0.197365 0.654289
0.307537 0.213174 0.662623
0.423774 0.231924 0.671998
0.556066 0.256127 0.684988
0.689461 0.290319 0.702451
0.823897 0.342525 0.728677
0.977022 0.483946 0.796507
0.106618 0.229902 0.640196
0.116177 0.246078 0.654167
0.214828 0.257659 0.660478
0.322059 0.272243 0.668750
0.436887 0.289767 0.678309
0.565993 0.312316 0.690932
0.696079 0.344547 0.707721
0.827757 0.393872 0.733640
0.978064 0.526470 0.800183
0.139890 0.311397 0.650674
0.146262 0.327512 0.663297
0.239216 0.338051 0.669363
0.344302 0.350981 0.677451
0.455270 0.366544 0.686827
0.579657 0.388296 0.698836
0.705515 0.417708 0.715380
0.833456 0.464338 0.740564
0.979228 0.580821 0.805147
0.176532 0.406618 0.663052
0.180208 0.422426 0.674326
0.269424 0.432108 0.680944
0.370833 0.444486 0.688113
0.478922 0.458762 0.697059
0.596385 0.477696 0.708640
0.717035 0.504044 0.725062
0.840441 0.542218 0.749510
0.980760 0.638910 0.811825
0.217341 0.508027 0.677390
0.219485 0.522978 0.687501
0.303125 0.530208 0.693260
0.401961 0.540441 0.700674
0.506618 0.551409 0.709375
0.615870 0.566177 0.720343
0.730209 0.587132 0.736091
0.848223 0.617708 0.759252
0.982537 0.697182 0.819117
0.267647 0.615012 0.695282
0.267647 0.626593 0.704228
0.348468 0.632537 0.710172
0.443076 0.639767 0.716606
0.539828 0.648223 0.724816
0.641177 0.659498 0.735662
0.747059 0.675429 0.750429
0.858210 0.698775 0.772794
0.984804 0.761274 0.829044
0.335478 0.727451 0.719669
0.335968 0.736152 0.727451
0.410294 0.740074 0.732537
0.498652 0.745221 0.738971
0.584069 0.751103 0.746569
0.673836 0.759069 0.756127
0.770098 0.770037 0.770159
0.872426 0.786581 0.790380
0.988052 0.832843 0.843076
0.432230 0.844607 0.755024
0.433885 0.850490 0.761213
0.501654 0.852818 0.765686
0.573775 0.856249 0.771323
0.643321 0.859681 0.777941
0.720037 0.864521 0.786519
0.803124 0.871323 0.799019
0.892709 0.881863 0.816912
0.992402 0.910846 0.863112
0.642340 0.984682 0.833456
0.640932 0.986336 0.836152
0.680331 0.986826 0.839644
0.723775 0.987684 0.843321
0.768137 0.988297 0.848223
0.818260 0.989461 0.854473
0.875246 0.990686 0.863418
0.937746 0.992770 0.876778
0.999694 0.997059 0.909376
0.017341 0.247488 0.782659
0.100429 0.255637 0.785539
0.201777 0.267096 0.789706
0.310417 0.281189 0.795036
0.425919 0.298223 0.800796
0.558456 0.320711 0.808762
0.690993 0.352390 0.819608
0.825000 0.401470 0.836335
0.976716 0.532414 0.880393
0.114461 0.296814 0.780760
0.121201 0.311581 0.789522
0.218934 0.322365 0.793627
0.326716 0.335601 0.798652
0.439277 0.351961 0.804595
0.567770 0.372978 0.812254
0.697243 0.403125 0.823223
0.828921 0.450123 0.839767
0.977758 0.569485 0.882721
0.145711 0.372426 0.786887
0.150184 0.387806 0.795343
0.243382 0.397304 0.799142
0.347856 0.409865 0.804166
0.458640 0.424632 0.809742
0.582169 0.444241 0.817402
0.706557 0.472611 0.827818
0.834313 0.514828 0.843933
0.979167 0.617157 0.886153
0.182721 0.462745 0.794730
0.184375 0.477206 0.802022
0.272365 0.485968 0.805821
0.373529 0.497059 0.810661
0.482476 0.509865 0.816421
0.598591 0.526470 0.823529
0.717954 0.549571 0.833946
0.841176 0.583333 0.849387
0.980515 0.669914 0.890442
0.221998 0.553799 0.803492
0.221814 0.565809 0.810110
0.306618 0.572917 0.813725
0.405147 0.581802 0.818627
0.509375 0.591544 0.823958
0.617892 0.604963 0.831127
0.731250 0.623529 0.841115
0.849142 0.651409 0.856004
0.982598 0.722611 0.895466
0.272672 0.649632 0.814706
0.271323 0.659436 0.821201
0.352329 0.664338 0.824571
0.445405 0.671262 0.828799
0.542095 0.678860 0.833823
0.642525 0.689032 0.840747
0.748284 0.703125 0.850000
0.859252 0.724204 0.864399
0.984804 0.781801 0.901961
0.339277 0.751409 0.830024
0.338848 0.759007 0.835539
0.413787 0.762500 0.838970
0.501225 0.767034 0.842953
0.585907 0.772855 0.847671
0.675797 0.780085 0.853676
0.771568 0.789889 0.862867
0.873284 0.805453 0.876104
0.988174 0.847978 0.911030
0.435907 0.859191 0.852634
0.437377 0.864521 0.856923
0.504534 0.866789 0.859926
0.576164 0.869730 0.863480
0.645711 0.873039 0.867891
0.721324 0.877636 0.873407
0.804350 0.883702 0.881435
0.893628 0.893567 0.893383
0.992341 0.919915 0.923775
0.643872 0.987745 0.903983
0.642892 0.989338 0.906128
0.681802 0.989829 0.908150
0.725245 0.990319 0.910907
0.769117 0.991054 0.913971
0.819301 0.992096 0.917954
0.876104 0.993076 0.923836
0.938052 0.994730 0.932660
0.999755 0.998223 0.953738
0.040993 0.422978 0.960172
0.119485 0.429657 0.960846
0.218260 0.439277 0.962194
0.326777 0.450981 0.963787
0.441422 0.465503 0.965442
0.568566 0.483885 0.967770
0.698469 0.509926 0.970650
0.829411 0.547855 0.975613
0.977145 0.641361 0.987378
0.137868 0.464767 0.959314
0.139583 0.477084 0.962194
0.234620 0.485785 0.963419
0.341605 0.496753 0.964522
0.454412 0.509130 0.966299
0.577819 0.525980 0.968505
0.704290 0.549142 0.971998
0.833333 0.583456 0.976348
0.978248 0.668873 0.987990
0.168076 0.526715 0.960907
0.167463 0.537071 0.963787
0.257659 0.544853 0.964584
0.362010 0.554289 0.966177
0.472733 0.564645 0.968076
0.591177 0.579718 0.970098
0.714216 0.599449 0.973285
0.838909 0.629228 0.977513
0.979841 0.704473 0.988787
0.202390 0.592892 0.963236
0.200735 0.602574 0.965748
0.288419 0.608946 0.966667
0.388051 0.616544 0.968383
0.495772 0.625184 0.969853
0.608211 0.637255 0.971998
0.724633 0.654228 0.974694
0.845404 0.679350 0.979289
0.980760 0.744608 0.989829
0.240993 0.658517 0.965748
0.238052 0.666728 0.968260
0.321201 0.671875 0.969118
0.418995 0.678125 0.970344
0.521814 0.685907 0.972182
0.626593 0.695773 0.974020
0.737623 0.709069 0.976839
0.852941 0.730331 0.980883
0.983211 0.785907 0.990993
0.289277 0.730147 0.968995
0.286765 0.736949 0.971140
0.365993 0.740748 0.972182
0.459498 0.746017 0.973468
0.553063 0.751838 0.974755
0.650613 0.759620 0.976593
0.754534 0.770649 0.979535
0.862990 0.787132 0.983211
0.985110 0.832414 0.992647
0.355024 0.809007 0.973346
0.353861 0.814706 0.975307
0.426532 0.817524 0.976226
0.512990 0.821140 0.977390
0.595037 0.825306 0.978432
0.682659 0.831066 0.980270
0.776654 0.839277 0.982660
0.876839 0.851960 0.986030
0.988358 0.885172 0.994118
0.449632 0.895344 0.979412
0.450674 0.899327 0.981189
0.515747 0.901042 0.981924
0.586458 0.903248 0.982905
0.653370 0.906005 0.984069
0.727758 0.909682 0.985417
0.808884 0.914584 0.987623
0.896692 0.922366 0.990257
0.992463 0.943506 0.996814
0.653370 0.994976 0.992831
0.651164 0.995833 0.993260
0.689093 0.996078 0.993750
0.731434 0.996446 0.994240
0.774326 0.996998 0.995037
0.823223 0.997549 0.995650
0.879167 0.997917 0.996691
0.940135 0.998775 0.998039
0.999755 1.000000 0.999694
