assets/luts/LUTs/Pentax_ReversalFilm_33_Rec709.cube
TITLE "Pentax_ReversalFilm_33_Rec709"
# 33^3 LUT extracted from Pentax DCU Reversal Film
LUT_3D_SIZE 5
DOMAIN_MIN 0.0 0.0 0.0
DOMAIN_MAX 1.0 1.0 1.0
0.000000 0.000000 0.000000
0.207904 0.000000 0.001471
0.552328 0.000000 0.001593
0.791850 0.000000 0.002206
0.999510 0.000980 0.010784
0.072426 0.179534 0.000000
0.188909 0.210907 0.000000
0.541850 0.207537 0.000000
0.788296 0.202145 0.000000
0.998652 0.209069 0.004412
0.077819 0.524877 0.000000
0.161152 0.554840 0.000000
0.523162 0.553737 0.000000
0.782046 0.550367 0.000000
0.997181 0.557659 0.000429
0.076287 0.783210 0.000000
0.105515 0.794362 0.000000
0.487684 0.793750 0.000000
0.770404 0.792830 0.000000
0.994914 0.797549 0.000000
0.075245 0.998775 0.001471
0.001961 1.000000 0.001961
0.318137 1.000000 0.002145
0.721508 1.000000 0.002512
0.992647 1.000000 0.006556
0.009620 0.000000 0.245037
0.228554 0.000000 0.247304
0.562990 0.000000 0.247365
0.796201 0.000000 0.248162
0.999020 0.005208 0.279228
0.083027 0.183578 0.181679
0.211826 0.211826 0.211826
0.552451 0.207843 0.214216
0.792524 0.201716 0.214522
0.998284 0.209804 0.244669
0.082721 0.527635 0.131066
0.180637 0.555269 0.152819
0.534804 0.554044 0.152941
0.785784 0.550674 0.154351
0.997488 0.557414 0.184069
0.079228 0.784252 0.041238
0.124020 0.794607 0.050797
0.500123 0.793933 0.051226
0.774693 0.792892 0.052328
0.995282 0.797732 0.076961
0.076225 0.998775 0.001471
0.001961 1.000000 0.001961
0.337561 1.000000 0.002145
0.726655 1.000000 0.002880
0.993137 1.000000 0.007108
0.028554 0.000000 0.598039
0.259681 0.000000 0.599326
0.577390 0.000000 0.599387
0.801409 0.000000 0.599755
0.998713 0.008824 0.618199
0.104289 0.184436 0.556740
0.243015 0.210294 0.582537
0.568199 0.207598 0.582721
0.797794 0.201961 0.582782
0.998284 0.212745 0.601287
0.091115 0.530514 0.528737
0.211397 0.555024 0.551960
0.552941 0.553186 0.553247
0.792156 0.549203 0.554044
0.997610 0.556434 0.572059
0.084314 0.784436 0.465380
0.154412 0.794117 0.486765
0.519791 0.793872 0.486642
0.780576 0.792708 0.487745
0.996017 0.797304 0.508027
0.077941 0.998775 0.121507
0.002022 1.000000 0.127880
0.365196 1.000000 0.129596
0.734927 1.000000 0.132537
0.994118 1.000000 0.146140
0.074816 0.000000 0.827696
0.316054 0.000000 0.828186
0.603431 0.000000 0.828247
0.811703 0.000000 0.828370
0.998468 0.016483 0.836826
0.149816 0.184252 0.812255
0.298897 0.207475 0.822181
0.594547 0.204412 0.822304
0.808455 0.198529 0.822304
0.998039 0.221691 0.830759
0.127757 0.531801 0.802941
0.267586 0.553063 0.811887
0.581066 0.551654 0.812316
0.802818 0.548223 0.812316
0.997794 0.558701 0.820527
0.095404 0.785294 0.783823
0.210294 0.793750 0.791544
0.553002 0.793382 0.791850
0.792279 0.792218 0.792463
0.996753 0.796323 0.800000
0.081618 0.998897 0.694853
0.025490 1.000000 0.698101
0.415196 1.000000 0.698407
0.748346 1.000000 0.699081
0.995466 1.000000 0.704228
0.337868 0.057047 1.000000
0.521814 0.066422 1.000000
0.691116 0.084130 1.000000
0.843688 0.124571 1.000000
0.995650 0.344730 1.000000
0.392892 0.246814 1.000000
0.514216 0.285417 1.000000
0.687500 0.300429 1.000000
0.842340 0.334681 1.000000
0.995650 0.503615 1.000000
0.374019 0.557476 0.999939
0.501287 0.580392 1.000000
0.682230 0.586642 1.000000
0.840686 0.600306 1.000000
0.996017 0.679902 1.000000
0.333578 0.788357 0.999939
0.470650 0.796813 1.000000
0.668444 0.798284 1.000000
0.835478 0.802083 1.000000
0.996507 0.837071 0.999939
0.120404 0.999081 0.999020
0.243995 1.000000 0.999265
0.567157 1.000000 0.999265
0.796997 1.000000 0.999265
0.999265 1.000000 0.999203
