assets/luts/LUTs/Pentax_ReversalFilm_33_Rec709.cube
TITLE "Pentax_ReversalFilm_33_Rec709"
# 33^3 LUT extracted from Pentax DCU Reversal Film
LUT_3D_SIZE 9
DOMAIN_MIN 0.0 0.0 0.0
DOMAIN_MAX 1.0 1.0 1.0
0.000000 0.000000 0.000000
0.065686 0.000000 0.000980
0.207904 0.000000 0.001471
0.391605 0.000000 0.001471
0.552328 0.000000 0.001593
0.679473 0.000000 0.001777
0.791850 0.000000 0.002206
0.894976 0.000000 0.002941
0.999510 0.000980 0.010784
0.058946 0.054534 0.000000
0.058701 0.067525 0.000000
0.201348 0.066605 0.000000
0.385355 0.064951 0.000000
0.548161 0.062745 0.000000
0.677206 0.060907 0.000000
0.790196 0.057966 0.000000
0.894608 0.053002 0.000123
0.999142 0.059252 0.007782
0.072426 0.179534 0.000000
0.051838 0.210907 0.000000
0.188909 0.210907 0.000000
0.374816 0.209559 0.000000
0.541850 0.207537 0.000000
0.673284 0.205331 0.000000
0.788296 0.202145 0.000000
0.893628 0.196446 0.000000
0.998652 0.209069 0.004412
0.076348 0.357904 0.000000
0.040135 0.395772 0.000000
0.178493 0.395282 0.000000
0.361520 0.393811 0.000000
0.533211 0.392831 0.000000
0.668566 0.391115 0.000000
0.785233 0.386765 0.000000
0.891667 0.382169 0.000000
0.997917 0.396814 0.002267
0.077819 0.524877 0.000000
0.027757 0.555330 0.000000
0.161152 0.554840 0.000000
0.348101 0.554534 0.000000
0.523162 0.553737 0.000000
0.662990 0.551899 0.000000
0.782046 0.550367 0.000000
0.890258 0.546630 0.000000
0.997181 0.557659 0.000429
0.077696 0.663971 0.000000
0.012255 0.682782 0.000000
0.138664 0.682292 0.000000
0.328615 0.681618 0.000000
0.510723 0.681250 0.000000
0.654780 0.680699 0.000000
0.777267 0.679657 0.000000
0.887378 0.677819 0.000000
0.996201 0.686091 0.000000
0.076287 0.783210 0.000000
0.000490 0.794607 0.000000
0.105515 0.794362 0.000000
0.295098 0.794056 0.000000
0.487684 0.793750 0.000000
0.643566 0.793076 0.000000
0.770404 0.792830 0.000000
0.884008 0.791544 0.000000
0.994914 0.797549 0.000000
0.075123 0.891116 0.000000
0.000000 0.897488 0.000000
0.056250 0.897427 0.000000
0.240931 0.897121 0.000000
0.447978 0.896998 0.000000
0.622488 0.896569 0.000000
0.759007 0.896202 0.000000
0.877881 0.895773 0.000000
0.993137 0.899327 0.000000
0.075245 0.998775 0.001471
0.002022 1.000000 0.002022
0.001961 1.000000 0.001961
0.094547 1.000000 0.001961
0.318137 1.000000 0.002145
0.552328 1.000000 0.002328
0.721508 1.000000 0.002512
0.859252 1.000000 0.003002
0.992647 1.000000 0.006556
0.003738 0.000000 0.079167
0.072855 0.000000 0.080025
0.218627 0.000000 0.081618
0.399571 0.000000 0.080392
0.557230 0.000000 0.080760
0.682598 0.000000 0.080331
0.793505 0.000000 0.082169
0.896324 0.000000 0.083211
0.999265 0.003125 0.107904
0.070404 0.055576 0.054289
0.068505 0.068444 0.068505
0.210478 0.066850 0.068995
0.393321 0.065686 0.068934
0.553370 0.063848 0.069669
0.680270 0.061213 0.070711
0.792095 0.058517 0.070833
0.895405 0.053554 0.071875
0.998836 0.061213 0.094608
0.076409 0.182230 0.040748
0.059375 0.212255 0.049939
0.197978 0.211581 0.051287
0.382721 0.210907 0.050858
0.547059 0.208885 0.052022
0.676532 0.206311 0.051287
0.790134 0.202941 0.052328
0.894241 0.196385 0.053431
0.998529 0.209988 0.075919
0.079228 0.360600 0.021507
0.047488 0.396936 0.028922
0.187806 0.395588 0.028799
0.369853 0.394914 0.029963
0.538296 0.393076 0.030515
0.671691 0.390809 0.030270
0.787255 0.387684 0.031127
0.892770 0.382721 0.032659
0.998039 0.396630 0.052083
0.080086 0.527206 0.006005
0.034130 0.556188 0.009314
0.169914 0.555514 0.009375
0.356863 0.554534 0.009681
0.528554 0.554289 0.010172
0.665748 0.552880 0.009865
0.784068 0.550490 0.009865
0.890993 0.547487 0.010846
0.997304 0.558272 0.028248
0.079534 0.665319 0.000000
0.017402 0.683088 0.000000
0.147672 0.682537 0.000000
0.336704 0.682047 0.000000
0.515870 0.681556 0.000000
0.658395 0.681250 0.000000
0.779166 0.679596 0.000000
0.888481 0.677880 0.000000
0.996385 0.686336 0.008701
0.077635 0.783946 0.000000
0.001961 0.794791 0.000000
0.114154 0.794546 0.000000
0.302941 0.794179 0.000000
0.493382 0.794056 0.000000
0.646936 0.793382 0.000000
0.772181 0.793014 0.000000
0.884866 0.791789 0.000000
0.995098 0.797916 0.001164
0.075735 0.891545 0.000000
0.000000 0.897672 0.000000
0.063848 0.897611 0.000000
0.250061 0.897427 0.000000
0.455576 0.897059 0.000000
0.626226 0.896998 0.000000
0.760539 0.896263 0.000000
0.878861 0.895834 0.000000
0.993321 0.899572 0.000000
0.075613 0.998775 0.001471
0.002083 1.000000 0.002083
0.002022 1.000000 0.002022
0.103125 1.000000 0.002083
0.326471 1.000000 0.002083
0.557169 1.000000 0.002451
0.723897 1.000000 0.002819
0.860661 1.000000 0.003186
0.992892 1.000000 0.007230
0.009620 0.000000 0.245037
0.084252 0.000000 0.246324
0.228554 0.000000 0.247304
0.409865 0.000000 0.246140
0.562990 0.000000 0.247365
0.686091 0.000000 0.246630
0.796201 0.000000 0.248162
0.897366 0.000000 0.249449
0.999020 0.005208 0.279228
0.083456 0.056311 0.200429
0.079657 0.067892 0.230882
0.221569 0.067463 0.232353
0.403063 0.065748 0.231373
0.558884 0.063725 0.232843
0.683578 0.062561 0.232169
0.794546 0.058762 0.233885
0.896814 0.053738 0.234314
0.998775 0.062990 0.267218
0.083027 0.183578 0.181679
0.068382 0.213296 0.209865
0.211826 0.211826 0.211826
0.392831 0.210478 0.211887
0.552451 0.207843 0.214216
0.679841 0.205392 0.213419
0.792524 0.201716 0.214522
0.895344 0.196078 0.216667
0.998284 0.209804 0.244669
0.082659 0.362194 0.159865
0.055699 0.396385 0.184498
0.198652 0.395466 0.183701
0.379841 0.394240 0.185784
0.544056 0.393811 0.186397
0.675123 0.391115 0.186152
0.789460 0.387255 0.187010
0.893996 0.382108 0.188235
0.998039 0.396752 0.216728
0.082721 0.527635 0.131066
0.042463 0.555759 0.153125
0.180637 0.555269 0.152819
0.367279 0.554595 0.152757
0.534804 0.554044 0.152941
0.669547 0.552389 0.153799
0.785784 0.550674 0.154351
0.892035 0.547733 0.155882
0.997488 0.557414 0.184069
0.081618 0.665809 0.091115
0.024755 0.682966 0.108517
0.158640 0.682721 0.108027
0.347182 0.681863 0.108701
0.521691 0.681434 0.111091
0.662071 0.680821 0.110907
0.781372 0.679718 0.111520
0.890074 0.677635 0.113419
0.996691 0.685662 0.138603
0.079228 0.784252 0.041238
0.005821 0.794853 0.051164
0.124020 0.794607 0.050797
0.314093 0.794117 0.051593
0.500123 0.793933 0.051226
0.650429 0.793382 0.051961
0.774693 0.792892 0.052328
0.886214 0.791605 0.053002
0.995282 0.797732 0.076961
0.076348 0.891545 0.000000
0.000000 0.897611 0.000000
0.072978 0.897488 0.000000
0.260294 0.897243 0.000000
0.463726 0.897121 0.000000
0.630209 0.896814 0.000000
0.763113 0.896324 0.000000
0.880148 0.895834 0.000000
0.993627 0.899572 0.007904
0.076225 0.998775 0.001471
0.001961 1.000000 0.001961
0.001961 1.000000 0.001961
0.113664 1.000000 0.002022
0.337561 1.000000 0.002145
0.562684 1.000000 0.002390
0.726655 1.000000 0.002880
0.861825 1.000000 0.003125
0.993137 1.000000 0.007108
0.017586 0.000000 0.443138
0.097304 0.000000 0.445466
0.242463 0.000000 0.445160
0.420465 0.000000 0.445772
0.569547 0.000000 0.445282
0.690197 0.000000 0.446017
0.798590 0.000000 0.446079
0.898714 0.000000 0.447059
0.998775 0.006924 0.472488
0.096017 0.056066 0.396201
0.092586 0.067034 0.433211
0.234069 0.066544 0.433394
0.414522 0.064951 0.433823
0.565932 0.063603 0.434375
0.687684 0.061581 0.434375
0.797303 0.058088 0.433640
0.898162 0.053002 0.435110
0.998591 0.065319 0.460662
0.092770 0.184436 0.381985
0.081250 0.212194 0.416115
0.227145 0.210784 0.415870
0.405024 0.210294 0.416973
0.559865 0.207659 0.416421
0.684130 0.206556 0.417157
0.794975 0.202083 0.416299
0.896814 0.196446 0.417708
0.998284 0.212377 0.443566
0.088297 0.363664 0.361887
0.068199 0.396078 0.392953
0.212439 0.394975 0.393015
0.394240 0.394792 0.394669
0.552083 0.392892 0.395527
0.680147 0.390257 0.395588
0.792218 0.387194 0.395833
0.895221 0.381372 0.397794
0.997917 0.395833 0.423284
0.085968 0.528676 0.338297
0.053248 0.555759 0.365748
0.194118 0.554473 0.366605
0.379105 0.554228 0.365625
0.543076 0.553186 0.366912
0.674449 0.551960 0.366360
0.788786 0.550061 0.368015
0.893934 0.546997 0.368627
0.997549 0.556617 0.395833
0.084375 0.666238 0.298101
0.034436 0.682537 0.325000
0.171691 0.682169 0.324878
0.358517 0.681801 0.325184
0.530331 0.681311 0.324571
0.666360 0.680453 0.326226
0.783946 0.679596 0.326103
0.891545 0.677757 0.326226
0.996814 0.685356 0.354412
0.081434 0.784313 0.237071
0.012806 0.794669 0.260110
0.136949 0.794362 0.260417
0.326655 0.794117 0.260907
0.510049 0.794056 0.261765
0.655454 0.793198 0.261152
0.777512 0.792769 0.262990
0.887746 0.791299 0.263787
0.995650 0.797549 0.290993
0.077267 0.891606 0.139828
0.000000 0.897550 0.155576
0.085968 0.897427 0.156189
0.274387 0.897243 0.156373
0.474142 0.897059 0.156127
0.635785 0.896814 0.156066
0.766054 0.896324 0.157782
0.881802 0.895834 0.159191
0.993934 0.899510 0.182108
0.076961 0.998775 0.001471
0.002022 1.000000 0.002022
0.001961 1.000000 0.001961
0.126348 1.000000 0.002022
0.350184 1.000000 0.002083
0.569547 1.000000 0.002390
0.730331 1.000000 0.002757
0.863480 1.000000 0.003125
0.993689 1.000000 0.007047
0.028554 0.000000 0.598039
0.114400 0.000000 0.598591
0.259681 0.000000 0.599326
0.434375 0.000000 0.598774
0.577390 0.000000 0.599387
0.695160 0.000000 0.598897
0.801409 0.000000 0.599755
0.900307 0.000000 0.599939
0.998713 0.008824 0.618199
0.109191 0.054963 0.564522
0.107414 0.066054 0.591973
0.252451 0.065441 0.592525
0.428125 0.065012 0.592096
0.573591 0.062868 0.592770
0.693015 0.060355 0.593321
0.800061 0.057659 0.592831
0.899694 0.053248 0.593750
0.998407 0.066667 0.611029
0.104289 0.184436 0.556740
0.096324 0.211152 0.582108
0.243015 0.210294 0.582537
0.418995 0.208823 0.582598
0.568199 0.207598 0.582721
0.689584 0.205698 0.582476
0.797794 0.201961 0.582782
0.898530 0.195098 0.583517
0.998284 0.212745 0.601287
0.098468 0.364093 0.544424
0.083824 0.395711 0.568628
0.228738 0.394608 0.568628
0.408517 0.393811 0.568689
0.561520 0.392524 0.570098
0.685049 0.389828 0.569547
0.795465 0.387071 0.570282
0.897121 0.382353 0.569547
0.997917 0.396814 0.587561
0.091115 0.530514 0.528737
0.067034 0.555576 0.552206
0.211397 0.555024 0.551960
0.394853 0.553737 0.552206
0.552941 0.553186 0.553247
0.679779 0.551960 0.553921
0.792156 0.549203 0.554044
0.895405 0.546323 0.554534
0.997610 0.556434 0.572059
0.087623 0.666728 0.506801
0.047917 0.682414 0.528125
0.187194 0.681985 0.528676
0.373100 0.681556 0.528431
0.540625 0.680821 0.528860
0.672181 0.680086 0.528799
0.787622 0.679167 0.529473
0.893138 0.677145 0.530147
0.996936 0.684620 0.546936
0.084314 0.784436 0.465380
0.021814 0.794424 0.487132
0.154412 0.794117 0.486765
0.343137 0.793995 0.487194
0.519791 0.793872 0.486642
0.661581 0.793076 0.487623
0.780576 0.792708 0.487745
0.889707 0.791421 0.487194
0.996017 0.797304 0.508027
0.079289 0.891912 0.385110
0.000000 0.897611 0.405882
0.102328 0.897550 0.405576
0.289767 0.897182 0.406005
0.485662 0.896937 0.405269
0.641728 0.896447 0.406189
0.770098 0.896079 0.405331
0.883640 0.895650 0.407904
0.994179 0.899204 0.429718
0.077941 0.998775 0.121507
0.002083 1.000000 0.127696
0.002022 1.000000 0.127880
0.141728 1.000000 0.128799
0.365196 1.000000 0.129596
0.577451 1.000000 0.129841
0.734927 1.000000 0.132537
0.865686 1.000000 0.133640
0.994118 1.000000 0.146140
0.045895 0.000000 0.719547
0.136765 0.000000 0.720343
0.282537 0.000000 0.720405
0.451593 0.000000 0.720221
0.588542 0.000000 0.720405
0.701961 0.000000 0.720772
0.805392 0.000000 0.720650
0.902574 0.000000 0.720895
0.998468 0.011397 0.733640
0.128799 0.053922 0.699204
0.128922 0.064645 0.716238
0.276654 0.063787 0.716238
0.445895 0.063603 0.716483
0.585355 0.061703 0.716544
0.699633 0.059375 0.716422
0.804411 0.056985 0.716667
0.902084 0.052083 0.716912
0.998284 0.069363 0.729718
0.122672 0.184620 0.694363
0.118995 0.209926 0.710478
0.265502 0.208762 0.710417
0.437071 0.207353 0.710540
0.579289 0.206740 0.710662
0.696140 0.203493 0.711152
0.802450 0.200796 0.711091
0.900613 0.193995 0.711581
0.998223 0.215074 0.723407
0.113726 0.365073 0.687929
0.105270 0.395098 0.702451
0.250919 0.394546 0.702819
0.427451 0.392953 0.702513
0.572365 0.391421 0.703064
0.691974 0.388970 0.702942
0.799754 0.385417 0.703371
0.899388 0.380637 0.703616
0.997855 0.397243 0.715748
0.104044 0.531311 0.678983
0.089338 0.554963 0.692893
0.233946 0.554718 0.692770
0.413970 0.553247 0.693199
0.565012 0.552818 0.693260
0.686888 0.551654 0.693383
0.796629 0.549142 0.693873
0.897917 0.546385 0.693505
0.997672 0.557353 0.705638
0.093566 0.667708 0.666483
0.067586 0.682414 0.679228
0.211703 0.682108 0.679657
0.393260 0.681373 0.679350
0.552696 0.680760 0.680086
0.680270 0.680208 0.680086
0.792095 0.678860 0.680699
0.895405 0.676838 0.681189
0.997059 0.683946 0.692831
0.087929 0.784742 0.645895
0.039706 0.793995 0.658579
0.176716 0.793995 0.658395
0.363235 0.793811 0.658579
0.534497 0.793382 0.658762
0.669118 0.793076 0.658701
0.784987 0.792585 0.658640
0.891912 0.791176 0.659069
0.996507 0.796630 0.670956
0.081985 0.891912 0.607353
0.004841 0.897427 0.619118
0.122917 0.897243 0.618995
0.313297 0.896937 0.619302
0.500490 0.896814 0.619608
0.650184 0.896324 0.619118
0.774693 0.895956 0.619792
0.886153 0.895589 0.619669
0.994608 0.899143 0.631557
0.079473 0.998775 0.452635
0.002512 1.000000 0.458517
0.006127 1.000000 0.458640
0.166483 1.000000 0.458579
0.385784 1.000000 0.459620
0.589032 1.000000 0.460417
0.740319 1.000000 0.461520
0.868749 1.000000 0.463052
0.994853 1.000000 0.473284
0.074816 0.000000 0.827696
0.168444 0.000000 0.828125
0.316054 0.000000 0.828186
0.477022 0.000000 0.828370
0.603431 0.000000 0.828247
0.711275 0.000000 0.828431
0.811703 0.000000 0.828370
0.906005 0.000000 0.828492
0.998468 0.016483 0.836826
0.157414 0.053615 0.814828
0.161152 0.063664 0.825735
0.309681 0.062561 0.825674
0.471385 0.061520 0.825980
0.600184 0.060846 0.825674
0.709192 0.058578 0.825796
0.810171 0.055699 0.825735
0.905147 0.049449 0.826103
0.998407 0.076042 0.834191
0.149816 0.184252 0.812255
0.152145 0.208272 0.822181
0.298897 0.207475 0.822181
0.464645 0.205698 0.822181
0.594547 0.204412 0.822304
0.705760 0.202696 0.822365
0.808455 0.198529 0.822304
0.904045 0.191850 0.822733
0.998039 0.221691 0.830759
0.139583 0.365319 0.808149
0.137071 0.393382 0.817524
0.285601 0.392218 0.817524
0.453064 0.391605 0.817402
0.588174 0.390319 0.817647
0.701410 0.387684 0.817586
0.805759 0.385110 0.817769
0.902635 0.378615 0.817953
0.997794 0.402145 0.826164
0.127757 0.531801 0.802941
0.121262 0.554350 0.811825
0.267586 0.553063 0.811887
0.440686 0.552757 0.812132
0.581066 0.551654 0.812316
0.696569 0.550551 0.812316
0.802818 0.548223 0.812316
0.901042 0.545711 0.812193
0.997794 0.558701 0.820527
0.112071 0.668137 0.795465
0.098101 0.681556 0.803676
0.245221 0.681127 0.803798
0.422426 0.680882 0.803798
0.569669 0.680453 0.804166
0.690748 0.679657 0.804411
0.798161 0.678615 0.804350
0.898652 0.676716 0.804411
0.997243 0.684620 0.812377
0.095404 0.785294 0.783823
0.067831 0.794056 0.791666
0.210294 0.793750 0.791544
0.393198 0.793627 0.791850
0.553002 0.793382 0.791850
0.680208 0.792953 0.792156
0.792279 0.792218 0.792463
0.895405 0.790686 0.792708
0.996753 0.796323 0.800000
0.086949 0.891912 0.763909
0.022978 0.897059 0.770894
0.156127 0.896937 0.770649
0.344485 0.896876 0.770649
0.520772 0.896630 0.771017
0.662071 0.896263 0.770833
0.781250 0.895956 0.771078
0.889829 0.895466 0.771139
0.995527 0.898775 0.778309
0.081618 0.998897 0.694853
0.003248 1.000000 0.697795
0.025490 1.000000 0.698101
0.201042 1.000000 0.697917
0.415196 1.000000 0.698407
0.604595 1.000000 0.698775
0.748346 1.000000 0.699081
0.872855 1.000000 0.699878
0.995466 1.000000 0.704228
0.126164 0.000000 0.922794
0.222794 0.000000 0.923162
0.366912 0.000000 0.923101
0.512929 0.000000 0.923285
0.625306 0.000000 0.923346
0.725613 0.000000 0.923285
0.820772 0.000000 0.923285
0.910846 0.000000 0.923285
0.998529 0.031250 0.926839
0.206189 0.051409 0.916177
0.214767 0.061520 0.921875
0.359498 0.060662 0.921875
0.509988 0.058701 0.921998
0.621568 0.058885 0.922120
0.723530 0.056127 0.922120
0.819485 0.052574 0.921998
0.910111 0.048039 0.922182
0.998468 0.093811 0.925981
0.197181 0.181373 0.914645
0.205024 0.205882 0.920160
0.350123 0.204718 0.920098
0.502145 0.203002 0.920221
0.617647 0.201777 0.920405
0.720711 0.198897 0.920282
0.817524 0.195895 0.920282
0.908947 0.189767 0.920160
0.998284 0.237990 0.924265
0.185846 0.364828 0.912807
0.190196 0.390931 0.917770
0.336091 0.390257 0.917770
0.492034 0.388174 0.917954
0.612316 0.387132 0.918076
0.716667 0.385539 0.917831
0.815380 0.381556 0.918076
0.907537 0.376164 0.918138
0.998039 0.414951 0.921937
0.170895 0.532230 0.909927
0.171998 0.552451 0.915258
0.320650 0.551838 0.915135
0.481005 0.551286 0.915258
0.605453 0.550122 0.915319
0.712255 0.549142 0.915319
0.812254 0.547181 0.915258
0.906189 0.544240 0.915380
0.997917 0.565502 0.919302
0.153003 0.668199 0.906679
0.150000 0.680882 0.911275
0.299265 0.680453 0.911214
0.463664 0.680086 0.911275
0.595649 0.679473 0.911275
0.706005 0.678983 0.911398
0.808149 0.678002 0.911336
0.903861 0.675552 0.911336
0.997549 0.687377 0.915442
0.127328 0.785294 0.900981
0.116973 0.793811 0.905086
0.263725 0.793566 0.905086
0.437561 0.792953 0.905086
0.580086 0.792892 0.905270
0.696630 0.792708 0.905147
0.802450 0.791728 0.905515
0.900858 0.790502 0.905270
0.997243 0.797181 0.909682
0.096691 0.891973 0.890871
0.065502 0.896937 0.894792
0.209865 0.896753 0.894792
0.392524 0.896692 0.894854
0.552206 0.896569 0.894915
0.679902 0.896202 0.894915
0.792156 0.895711 0.895221
0.895466 0.895344 0.895282
0.996385 0.898407 0.899204
0.085110 0.998958 0.859926
0.004534 1.000000 0.861151
0.070833 1.000000 0.861213
0.257598 1.000000 0.861335
0.459620 1.000000 0.861580
0.628309 1.000000 0.861580
0.761397 1.000000 0.861887
0.879229 1.000000 0.862193
0.996324 1.000000 0.864276
0.337868 0.057047 1.000000
0.419730 0.061091 1.000000
0.521814 0.066422 1.000000
0.613603 0.073836 1.000000
0.691116 0.084130 1.000000
0.766483 0.099877 1.000000
0.843688 0.124571 1.000000
0.919179 0.172855 1.000000
0.995650 0.344730 1.000000
0.398039 0.116544 1.000000
0.415441 0.139645 1.000000
0.518995 0.144608 1.000000
0.612010 0.152083 1.000000
0.689951 0.160294 1.000000
0.764951 0.174265 1.000000
0.843014 0.196936 1.000000
0.919179 0.240625 1.000000
0.995650 0.399449 1.000000
0.392892 0.246814 1.000000
0.410600 0.279840 1.000000
0.514216 0.285417 1.000000
0.608762 0.291851 1.000000
0.687500 0.300429 1.000000
0.763848 0.314277 1.000000
0.842340 0.334681 1.000000
0.918873 0.372610 1.000000
0.995650 0.503615 1.000000
0.384620 0.411764 0.999939
0.402022 0.443137 1.000000
0.509865 0.447059 1.000000
0.604841 0.451532 1.000000
0.685356 0.457598 1.000000
0.762561 0.466851 1.000000
0.841605 0.482108 1.000000
0.918322 0.508762 1.000000
0.995956 0.599510 1.000000
0.374019 0.557476 0.999939
0.391728 0.578125 1.000000
0.501287 0.580392 1.000000
0.600368 0.582782 1.000000
0.682230 0.586642 1.000000
0.760294 0.591973 1.000000
0.840686 0.600306 1.000000
0.917770 0.616238 1.000000
0.996017 0.679902 1.000000
0.357659 0.678861 0.999939
0.375858 0.691483 1.000000
0.490503 0.692403 1.000000
0.593382 0.693812 1.000000
0.676532 0.696079 1.000000
0.757169 0.698959 1.000000
0.838786 0.703677 1.000000
0.916790 0.713419 1.000000
0.996324 0.758272 0.999939
0.333578 0.788357 0.999939
0.351287 0.795955 1.000000
0.470650 0.796813 1.000000
0.580637 0.797671 1.000000
0.668444 0.798284 1.000000
0.751961 0.799571 1.000000
0.835478 0.802083 1.000000
0.915503 0.807720 1.000000
0.996507 0.837071 0.999939
0.282169 0.891422 0.999939
0.298713 0.895834 1.000000
0.428738 0.895895 1.000000
0.555269 0.896140 1.000000
0.650735 0.896447 1.000000
0.741115 0.896569 1.000000
0.829044 0.897488 1.000000
0.913297 0.899633 1.000000
0.996691 0.914951 0.999877
0.120404 0.999081 0.999020
0.098591 1.000000 0.999265
0.243995 1.000000 0.999265
0.419975 1.000000 0.999265
0.567157 1.000000 0.999265
0.688787 1.000000 0.999265
0.796997 1.000000 0.999265
0.897366 1.000000 0.999265
0.999265 1.000000 0.999203
