assets/luts/LUTs/Pentax_ReversalFilm_33_Rec709.cube
TITLE "Pentax_ReversalFilm_33_Rec709"
# 33^3 LUT extracted from Pentax DCU Reversal Film
LUT_3D_SIZE 33
DOMAIN_MIN 0.0 0.0 0.0
DOMAIN_MAX 1.0 1.0 1.0
0.000000 0.000000 0.000000
0.009314 0.000000 0.000368
0.021936 0.000000 0.000674
0.041115 0.000000 0.001103
0.065686 0.000000 0.000980
0.096140 0.000000 0.001225
0.130331 0.000000 0.001287
0.167525 0.000000 0.001348
0.207904 0.000000 0.001471
0.254228 0.000000 0.001348
0.299326 0.000000 0.001593
0.345834 0.000000 0.001225
0.391605 0.000000 0.001471
0.434436 0.000000 0.001471
0.477819 0.000000 0.001532
0.516667 0.000000 0.001593
0.552328 0.000000 0.001593
0.585172 0.000000 0.001716
0.617831 0.000000 0.001777
0.649081 0.000000 0.001593
0.679473 0.000000 0.001777
0.708456 0.000000 0.002022
0.736826 0.000000 0.002083
0.764461 0.000000 0.001900
0.791850 0.000000 0.002206
0.818689 0.000000 0.002145
0.845281 0.000000 0.001961
0.870342 0.000000 0.002328
0.894976 0.000000 0.002941
0.919670 0.000000 0.003554
0.944547 0.000000 0.003554
0.969608 0.000000 0.004105
0.999510 0.000980 0.010784
0.031985 0.006434 0.000123
0.007414 0.009069 0.000245
0.020037 0.009130 0.000123
0.040074 0.009007 0.000368
0.063664 0.008885 0.000368
0.093627 0.008885 0.000368
0.128799 0.008824 0.000368
0.165135 0.008762 0.000368
0.207414 0.008333 0.000429
0.251409 0.008456 0.000368
0.298652 0.007659 0.000490
0.344853 0.007659 0.000735
0.389767 0.007598 0.000245
0.434007 0.007659 0.000245
0.476103 0.007169 0.000306
0.515012 0.007108 0.000613
0.550674 0.006740 0.000490
0.584988 0.006250 0.000551
0.616973 0.005944 0.000797
0.648101 0.005821 0.001042
0.678676 0.005331 0.001042
0.707660 0.005270 0.000735
0.736581 0.004534 0.000797
0.763909 0.004228 0.001164
0.791544 0.004167 0.001103
0.818443 0.003615 0.001103
0.844914 0.002635 0.001471
0.870342 0.002574 0.001164
0.894976 0.001471 0.001593
0.919363 0.000674 0.001961
0.944241 0.000490 0.001961
0.969608 0.000490 0.002451
0.999265 0.005760 0.010417
0.043199 0.016054 0.000000
0.008088 0.021017 0.000061
0.018934 0.021752 0.000061
0.038174 0.021569 0.000061
0.061520 0.021814 0.000184
0.093015 0.021262 0.000306
0.126777 0.020895 0.000245
0.165257 0.020895 0.000184
0.205392 0.021017 0.000184
0.248897 0.020833 0.000245
0.295772 0.020833 0.000245
0.342525 0.020404 0.000184
0.389093 0.020098 0.000245
0.432475 0.019914 0.000245
0.475919 0.019792 0.000245
0.513848 0.019179 0.000184
0.550245 0.018873 0.000184
0.583824 0.019056 0.000184
0.616544 0.018505 0.000245
0.647856 0.017708 0.000245
0.678615 0.017157 0.000245
0.707292 0.016973 0.000184
0.735846 0.016728 0.000184
0.763909 0.015748 0.000429
0.790931 0.015625 0.000306
0.818015 0.014890 0.000490
0.844730 0.014461 0.000368
0.870097 0.013358 0.000490
0.894792 0.012132 0.000735
0.919363 0.010539 0.001103
0.944057 0.009681 0.001103
0.969547 0.007598 0.001593
0.999265 0.015441 0.009191
0.051777 0.033027 0.000000
0.006495 0.042341 0.000000
0.019179 0.041912 0.000000
0.036887 0.042157 0.000061
0.060355 0.041912 0.000061
0.089093 0.041973 0.000123
0.125000 0.041851 0.000061
0.162377 0.041483 0.000061
0.203860 0.041054 0.000061
0.247488 0.040993 0.000061
0.294179 0.040257 0.000061
0.341605 0.040074 0.000061
0.387745 0.039583 0.000000
0.431372 0.039951 0.000061
0.473775 0.039400 0.000061
0.512990 0.039338 0.000061
0.548713 0.038787 0.000061
0.583027 0.037929 0.000061
0.615563 0.037623 0.000061
0.646998 0.037500 0.000123
0.678064 0.036887 0.000061
0.706557 0.036336 0.000184
0.735601 0.035294 0.000184
0.763174 0.034743 0.000184
0.790808 0.033578 0.000184
0.817953 0.032353 0.000184
0.844240 0.031924 0.000184
0.869975 0.030208 0.000184
0.894670 0.029228 0.000245
0.919118 0.027574 0.000490
0.943934 0.025184 0.000674
0.969486 0.021385 0.000980
0.999265 0.034559 0.008578
0.058946 0.054534 0.000000
0.006373 0.066667 0.000000
0.018689 0.066299 0.000000
0.036397 0.066544 0.000000
0.058701 0.067525 0.000000
0.088542 0.066728 0.000000
0.121385 0.066667 0.000000
0.160662 0.066115 0.000000
0.201348 0.066605 0.000000
0.245895 0.065993 0.000000
0.291176 0.065870 0.000000
0.338113 0.065441 0.000000
0.385355 0.064951 0.000000
0.428737 0.064093 0.000000
0.472611 0.064522 0.000000
0.512132 0.063051 0.000000
0.548161 0.062745 0.000000
0.581495 0.063051 0.000000
0.614951 0.062561 0.000000
0.646446 0.061642 0.000000
0.677206 0.060907 0.000000
0.706250 0.060417 0.000000
0.734865 0.059804 0.000000
0.762929 0.059559 0.000000
0.790196 0.057966 0.000000
0.817463 0.057047 0.000000
0.843872 0.055944 0.000061
0.869423 0.054473 0.000000
0.894608 0.053002 0.000123
0.918934 0.051532 0.000245
0.943812 0.048591 0.000184
0.969424 0.043811 0.000429
0.999142 0.059252 0.007782
0.064032 0.079596 0.000000
0.004963 0.097794 0.000000
0.016789 0.097365 0.000000
0.034007 0.097426 0.000000
0.059130 0.097181 0.000000
0.085110 0.097917 0.000000
0.120404 0.096998 0.000000
0.156740 0.096998 0.000000
0.199510 0.097243 0.000000
0.242525 0.096507 0.000000
0.289645 0.096262 0.000000
0.336887 0.096385 0.000000
0.382292 0.096017 0.000000
0.427512 0.094914 0.000000
0.470711 0.094975 0.000000
0.510417 0.093873 0.000000
0.546201 0.093627 0.000000
0.580454 0.093750 0.000000
0.613664 0.093015 0.000000
0.645343 0.092034 0.000000
0.676042 0.090748 0.000000
0.705638 0.090625 0.000000
0.733946 0.090135 0.000000
0.762194 0.088480 0.000000
0.789889 0.087623 0.000000
0.817095 0.086703 0.000000
0.843627 0.085968 0.000000
0.869178 0.084007 0.000000
0.894302 0.082476 0.000000
0.918750 0.079596 0.000061
0.943628 0.077267 0.000061
0.969363 0.072120 0.000123
0.998958 0.090441 0.006985
0.067708 0.110846 0.000000
0.003983 0.132721 0.000000
0.014645 0.131801 0.000000
0.033640 0.131373 0.000000
0.055392 0.132169 0.000000
0.085478 0.132169 0.000000
0.116483 0.131985 0.000000
0.153738 0.132598 0.000000
0.195711 0.131618 0.000000
0.240257 0.130821 0.000000
0.286887 0.130821 0.000000
0.333456 0.131066 0.000000
0.381127 0.130024 0.000000
0.425306 0.129228 0.000000
0.469179 0.129534 0.000000
0.508333 0.129412 0.000000
0.544669 0.129167 0.000000
0.579596 0.128186 0.000000
0.612745 0.127696 0.000000
0.644118 0.126838 0.000000
0.675306 0.126654 0.000000
0.704841 0.124755 0.000000
0.733824 0.124265 0.000000
0.761765 0.124265 0.000000
0.789215 0.122059 0.000000
0.816605 0.121201 0.000000
0.843504 0.120650 0.000000
0.868933 0.118566 0.000000
0.894241 0.116667 0.000000
0.918567 0.114890 0.000000
0.943383 0.111703 0.000000
0.969302 0.105821 0.000061
0.998713 0.127635 0.006127
0.070282 0.142463 0.000000
0.002819 0.170037 0.000000
0.013725 0.169792 0.000000
0.031005 0.169547 0.000000
0.054105 0.169976 0.000000
0.081434 0.169547 0.000000
0.116238 0.169240 0.000000
0.150980 0.169363 0.000000
0.192892 0.169669 0.000000
0.236520 0.169056 0.000000
0.284253 0.168811 0.000000
0.331250 0.168137 0.000000
0.376777 0.168076 0.000000
0.422794 0.167525 0.000000
0.466054 0.167402 0.000000
0.506985 0.166360 0.000000
0.543566 0.165993 0.000000
0.578493 0.166299 0.000000
0.611274 0.165625 0.000000
0.643444 0.164400 0.000000
0.674326 0.163480 0.000000
0.703738 0.163174 0.000000
0.733211 0.162561 0.000000
0.761091 0.161213 0.000000
0.788603 0.160846 0.000000
0.816115 0.159252 0.000000
0.843014 0.157414 0.000000
0.868627 0.156495 0.000000
0.893812 0.154963 0.000000
0.918505 0.151654 0.000000
0.943077 0.149571 0.000000
0.969241 0.143444 0.000000
0.998652 0.165625 0.005025
0.072426 0.179534 0.000000
0.001532 0.211887 0.000000
0.011642 0.211765 0.000000
0.028493 0.211336 0.000000
0.051838 0.210907 0.000000
0.080331 0.210723 0.000000
0.113419 0.210723 0.000000
0.148775 0.210784 0.000000
0.188909 0.210907 0.000000
0.234314 0.210662 0.000000
0.279841 0.210539 0.000000
0.326777 0.210478 0.000000
0.374816 0.209559 0.000000
0.420159 0.209069 0.000000
0.464093 0.209436 0.000000
0.504779 0.208149 0.000000
0.541850 0.207537 0.000000
0.576287 0.207537 0.000000
0.610110 0.207169 0.000000
0.642096 0.206250 0.000000
0.673284 0.205331 0.000000
0.703003 0.204718 0.000000
0.732047 0.204167 0.000000
0.760600 0.202512 0.000000
0.788296 0.202145 0.000000
0.815686 0.200919 0.000000
0.842402 0.199081 0.000000
0.868259 0.198162 0.000000
0.893628 0.196446 0.000000
0.918444 0.192892 0.000000
0.943015 0.190502 0.000000
0.969057 0.184498 0.000000
0.998652 0.209069 0.004412
0.073652 0.221446 0.000000
0.000797 0.256495 0.000000
0.010110 0.256679 0.000000
0.026164 0.256311 0.000000
0.048346 0.256434 0.000000
0.077880 0.255698 0.000000
0.111642 0.255576 0.000000
0.147672 0.255637 0.000000
0.185968 0.256618 0.000000
0.229351 0.255882 0.000000
0.276961 0.255576 0.000000
0.324204 0.255392 0.000000
0.371875 0.254718 0.000000
0.417095 0.254228 0.000000
0.461887 0.253922 0.000000
0.501716 0.252696 0.000000
0.540380 0.252451 0.000000
0.575061 0.252696 0.000000
0.608762 0.252022 0.000000
0.640687 0.250245 0.000000
0.672610 0.249571 0.000000
0.702084 0.249081 0.000000
0.731250 0.248836 0.000000
0.759743 0.247181 0.000000
0.787377 0.246507 0.000000
0.814951 0.245343 0.000000
0.841973 0.244669 0.000000
0.867708 0.242831 0.000000
0.893015 0.240870 0.000000
0.918199 0.237623 0.000000
0.942648 0.235662 0.000000
0.968934 0.228922 0.000000
0.998407 0.254289 0.003799
0.074755 0.266422 0.000000
0.000184 0.303738 0.000000
0.007414 0.303738 0.000000
0.023284 0.303370 0.000000
0.046752 0.302819 0.000000
0.074203 0.302573 0.000000
0.107659 0.302819 0.000000
0.143934 0.302635 0.000000
0.184130 0.302022 0.000000
0.227206 0.303125 0.000000
0.272978 0.302573 0.000000
0.321140 0.301471 0.000000
0.369056 0.301348 0.000000
0.413174 0.301042 0.000000
0.458762 0.300490 0.000000
0.500551 0.300061 0.000000
0.538051 0.299510 0.000000
0.573284 0.298346 0.000000
0.607169 0.298162 0.000000
0.639645 0.298529 0.000000
0.671507 0.297304 0.000000
0.701226 0.296691 0.000000
0.730515 0.294669 0.000000
0.758885 0.294424 0.000000
0.786581 0.293627 0.000000
0.814461 0.292218 0.000000
0.841421 0.290748 0.000000
0.867401 0.289522 0.000000
0.892648 0.287929 0.000000
0.917954 0.284865 0.000000
0.942586 0.282537 0.000000
0.968628 0.276287 0.000000
0.998162 0.302206 0.003248
0.075797 0.311642 0.000000
0.000000 0.350000 0.000000
0.006373 0.349816 0.000000
0.021201 0.349510 0.000000
0.042708 0.349142 0.000000
0.071324 0.348897 0.000000
0.104841 0.348959 0.000000
0.140012 0.348652 0.000000
0.181618 0.348162 0.000000
0.224510 0.348285 0.000000
0.269363 0.348897 0.000000
0.316973 0.348591 0.000000
0.365870 0.348223 0.000000
0.410784 0.347856 0.000000
0.456495 0.347856 0.000000
0.497059 0.346875 0.000000
0.535539 0.346017 0.000000
0.571201 0.346508 0.000000
0.605944 0.345711 0.000000
0.637990 0.344792 0.000000
0.670343 0.343995 0.000000
0.700123 0.343076 0.000000
0.729657 0.342586 0.000000
0.758211 0.341605 0.000000
0.785968 0.340748 0.000000
0.813725 0.339400 0.000000
0.840992 0.337500 0.000000
0.867034 0.337010 0.000000
0.892219 0.335049 0.000000
0.917709 0.331924 0.000000
0.942219 0.330086 0.000000
0.968444 0.323652 0.000000
0.997978 0.348958 0.002819
0.076348 0.357904 0.000000
0.000000 0.395588 0.000000
0.004657 0.395404 0.000000
0.018199 0.395343 0.000000
0.040135 0.395772 0.000000
0.067279 0.395956 0.000000
0.101593 0.394975 0.000000
0.137132 0.395343 0.000000
0.178493 0.395282 0.000000
0.220895 0.394424 0.000000
0.267524 0.394301 0.000000
0.314277 0.394669 0.000000
0.361520 0.393811 0.000000
0.408395 0.393811 0.000000
0.452574 0.393872 0.000000
0.494424 0.393689 0.000000
0.533211 0.392831 0.000000
0.569976 0.392095 0.000000
0.604105 0.391360 0.000000
0.636704 0.390564 0.000000
0.668566 0.391115 0.000000
0.698897 0.389644 0.000000
0.728309 0.389154 0.000000
0.757169 0.388725 0.000000
0.785233 0.386765 0.000000
0.813296 0.385907 0.000000
0.840257 0.385049 0.000000
0.866727 0.383333 0.000000
0.891667 0.382169 0.000000
0.917280 0.380515 0.000000
0.942096 0.376838 0.000000
0.968199 0.371324 0.000000
0.997917 0.396814 0.002267
0.077022 0.403186 0.000000
0.000000 0.440686 0.000000
0.003064 0.439890 0.000000
0.015870 0.440380 0.000000
0.037010 0.439706 0.000000
0.063909 0.439706 0.000000
0.097672 0.439829 0.000000
0.133701 0.439522 0.000000
0.174939 0.438848 0.000000
0.218873 0.438909 0.000000
0.263970 0.438358 0.000000
0.313174 0.438051 0.000000
0.357108 0.437868 0.000000
0.404412 0.437806 0.000000
0.449939 0.437316 0.000000
0.491851 0.437561 0.000000
0.530943 0.436826 0.000000
0.567035 0.436152 0.000000
0.602451 0.435539 0.000000
0.635172 0.435171 0.000000
0.666973 0.434436 0.000000
0.697549 0.434130 0.000000
0.727512 0.433210 0.000000
0.756434 0.432904 0.000000
0.784681 0.431556 0.000000
0.812438 0.430453 0.000000
0.839828 0.429595 0.000000
0.866298 0.428186 0.000000
0.891177 0.426715 0.000000
0.916728 0.425245 0.000000
0.941974 0.421752 0.000000
0.968015 0.416299 0.000000
0.997855 0.440441 0.001900
0.077451 0.446079 0.000000
0.000000 0.482169 0.000000
0.001471 0.481924 0.000000
0.013787 0.481802 0.000000
0.033640 0.481434 0.000000
0.060723 0.481311 0.000000
0.092770 0.481434 0.000000
0.129596 0.481311 0.000000
0.169976 0.480331 0.000000
0.213848 0.480760 0.000000
0.259743 0.480821 0.000000
0.306985 0.480821 0.000000
0.356373 0.480025 0.000000
0.401287 0.480270 0.000000
0.447059 0.479473 0.000000
0.489093 0.479841 0.000000
0.528676 0.479412 0.000000
0.565564 0.478064 0.000000
0.600674 0.477758 0.000000
0.633763 0.477819 0.000000
0.665748 0.477206 0.000000
0.696385 0.476838 0.000000
0.726103 0.476532 0.000000
0.755208 0.475552 0.000000
0.783885 0.475123 0.000000
0.811764 0.474755 0.000000
0.839460 0.472549 0.000000
0.865563 0.472427 0.000000
0.890993 0.470711 0.000000
0.916361 0.468689 0.000000
0.941851 0.466544 0.000000
0.967647 0.461581 0.000000
0.997672 0.482537 0.001471
0.077635 0.486213 0.000000
0.000000 0.520343 0.000000
0.000797 0.520282 0.000000
0.011703 0.520159 0.000000
0.030270 0.519730 0.000000
0.056618 0.519791 0.000000
0.089216 0.519791 0.000000
0.125123 0.519485 0.000000
0.166054 0.519117 0.000000
0.209865 0.518995 0.000000
0.255637 0.519301 0.000000
0.303738 0.518627 0.000000
0.353370 0.518505 0.000000
0.399448 0.518321 0.000000
0.442709 0.518321 0.000000
0.486275 0.518260 0.000000
0.525490 0.517953 0.000000
0.563664 0.516850 0.000000
0.599020 0.516728 0.000000
0.631924 0.516850 0.000000
0.664829 0.516299 0.000000
0.695099 0.515931 0.000000
0.725429 0.514583 0.000000
0.754596 0.514583 0.000000
0.782782 0.514277 0.000000
0.811151 0.513848 0.000000
0.838602 0.512316 0.000000
0.864828 0.511765 0.000000
0.890687 0.510600 0.000000
0.915809 0.508640 0.000000
0.941483 0.506924 0.000000
0.967341 0.502512 0.000000
0.997365 0.522059 0.000858
0.077819 0.524877 0.000000
0.000000 0.555882 0.000000
0.000245 0.556004 0.000000
0.008640 0.555759 0.000000
0.027757 0.555330 0.000000
0.052757 0.555576 0.000000
0.084007 0.555514 0.000000
0.121078 0.555208 0.000000
0.161152 0.554840 0.000000
0.205637 0.554840 0.000000
0.252022 0.554166 0.000000
0.298407 0.554228 0.000000
0.348101 0.554534 0.000000
0.395894 0.553860 0.000000
0.441238 0.553615 0.000000
0.483211 0.554044 0.000000
0.523162 0.553737 0.000000
0.560600 0.553063 0.000000
0.596752 0.552880 0.000000
0.630209 0.552512 0.000000
0.662990 0.551899 0.000000
0.693996 0.551960 0.000000
0.723897 0.551164 0.000000
0.753309 0.550857 0.000000
0.782046 0.550367 0.000000
0.810110 0.549693 0.000000
0.837867 0.549142 0.000000
0.864215 0.548345 0.000000
0.890258 0.546630 0.000000
0.915503 0.545711 0.000000
0.941177 0.544117 0.000000
0.966912 0.540380 0.000000
0.997181 0.557659 0.000429
0.077880 0.561213 0.000000
0.000000 0.588971 0.000000
0.000000 0.589032 0.000000
0.006863 0.588971 0.000000
0.024020 0.588909 0.000000
0.048529 0.588235 0.000000
0.079779 0.588174 0.000000
0.116299 0.588113 0.000000
0.156128 0.588297 0.000000
0.200735 0.587806 0.000000
0.246875 0.587745 0.000000
0.293689 0.587868 0.000000
0.345098 0.587377 0.000000
0.391421 0.587377 0.000000
0.437868 0.587194 0.000000
0.480331 0.587071 0.000000
0.519791 0.586887 0.000000
0.558027 0.587071 0.000000
0.594485 0.586642 0.000000
0.628309 0.586213 0.000000
0.661275 0.586275 0.000000
0.692464 0.585110 0.000000
0.722611 0.584865 0.000000
0.752206 0.584865 0.000000
0.781066 0.583885 0.000000
0.809129 0.583395 0.000000
0.837071 0.583150 0.000000
0.863786 0.582353 0.000000
0.889707 0.581495 0.000000
0.915197 0.580147 0.000000
0.940932 0.578738 0.000000
0.966790 0.575368 0.000000
0.997059 0.591851 0.000123
0.077880 0.596568 0.000000
0.000000 0.621201 0.000000
0.000000 0.621139 0.000000
0.003799 0.621139 0.000000
0.020343 0.621323 0.000000
0.044179 0.621078 0.000000
0.074939 0.620956 0.000000
0.111152 0.620588 0.000000
0.150123 0.620833 0.000000
0.195466 0.620465 0.000000
0.242034 0.620465 0.000000
0.288542 0.620404 0.000000
0.338358 0.620220 0.000000
0.386642 0.619914 0.000000
0.432169 0.619914 0.000000
0.477512 0.619301 0.000000
0.517586 0.619546 0.000000
0.554963 0.619853 0.000000
0.591544 0.619362 0.000000
0.626103 0.618933 0.000000
0.659253 0.618321 0.000000
0.690687 0.618198 0.000000
0.721079 0.618014 0.000000
0.751042 0.617402 0.000000
0.780024 0.617157 0.000000
0.808149 0.616728 0.000000
0.836090 0.616360 0.000000
0.863235 0.615686 0.000000
0.888726 0.615073 0.000000
0.914584 0.613909 0.000000
0.940442 0.612500 0.000000
0.966606 0.609497 0.000000
0.996936 0.624203 0.000000
0.078002 0.631066 0.000000
0.000000 0.652206 0.000000
0.000000 0.652022 0.000000
0.002145 0.652083 0.000000
0.016483 0.651961 0.000000
0.039338 0.652022 0.000000
0.069363 0.652083 0.000000
0.105576 0.651716 0.000000
0.144301 0.651777 0.000000
0.189093 0.651655 0.000000
0.235723 0.651226 0.000000
0.284069 0.650981 0.000000
0.333027 0.650981 0.000000
0.381863 0.651226 0.000000
0.427328 0.650981 0.000000
0.473530 0.650674 0.000000
0.515073 0.650429 0.000000
0.551838 0.650613 0.000000
0.589216 0.650307 0.000000
0.623713 0.650245 0.000000
0.657292 0.649755 0.000000
0.688971 0.649510 0.000000
0.719792 0.649265 0.000000
0.749449 0.649204 0.000000
0.778737 0.648223 0.000000
0.807230 0.647672 0.000000
0.835478 0.647610 0.000000
0.862316 0.646936 0.000000
0.888113 0.646569 0.000000
0.914032 0.646079 0.000000
0.939890 0.644302 0.000000
0.966422 0.641544 0.000000
0.996507 0.655454 0.000000
0.077696 0.663971 0.000000
0.000000 0.682843 0.000000
0.000000 0.682782 0.000000
0.000735 0.682782 0.000000
0.012255 0.682782 0.000000
0.035172 0.682782 0.000000
0.063971 0.682721 0.000000
0.098591 0.682659 0.000000
0.138664 0.682292 0.000000
0.182047 0.682292 0.000000
0.229167 0.681863 0.000000
0.278309 0.681740 0.000000
0.328615 0.681618 0.000000
0.375919 0.681618 0.000000
0.421262 0.681495 0.000000
0.467892 0.681495 0.000000
0.510723 0.681250 0.000000
0.549816 0.680944 0.000000
0.586581 0.680821 0.000000
0.621078 0.680944 0.000000
0.654780 0.680699 0.000000
0.686520 0.680515 0.000000
0.717893 0.679841 0.000000
0.748039 0.679718 0.000000
0.777267 0.679657 0.000000
0.806066 0.678738 0.000000
0.834375 0.678615 0.000000
0.861396 0.677941 0.000000
0.887378 0.677819 0.000000
0.913481 0.677145 0.000000
0.939400 0.675490 0.000000
0.966238 0.672978 0.000000
0.996201 0.686091 0.000000
0.077512 0.695037 0.000000
0.000000 0.711336 0.000000
0.000000 0.711397 0.000000
0.000000 0.711336 0.000000
0.008762 0.711275 0.000000
0.028860 0.711336 0.000000
0.057108 0.711336 0.000000
0.091851 0.711336 0.000000
0.131127 0.711091 0.000000
0.175245 0.711214 0.000000
0.220895 0.711214 0.000000
0.269792 0.711030 0.000000
0.321140 0.710846 0.000000
0.369608 0.710601 0.000000
0.415992 0.710478 0.000000
0.462378 0.710294 0.000000
0.506189 0.710049 0.000000
0.546017 0.709988 0.000000
0.584130 0.709804 0.000000
0.618198 0.710111 0.000000
0.652329 0.709804 0.000000
0.684681 0.709620 0.000000
0.715932 0.709559 0.000000
0.746446 0.708946 0.000000
0.775858 0.708579 0.000000
0.804656 0.708395 0.000000
0.833272 0.707905 0.000000
0.860477 0.707598 0.000000
0.886949 0.706986 0.000000
0.912868 0.706312 0.000000
0.939032 0.705270 0.000000
0.965993 0.703125 0.000000
0.995956 0.714951 0.000000
0.077267 0.725061 0.000000
0.000000 0.739829 0.000000
0.000000 0.739829 0.000000
0.000000 0.739890 0.000000
0.004779 0.739890 0.000000
0.024081 0.739706 0.000000
0.051226 0.739767 0.000000
0.083946 0.739645 0.000000
0.123897 0.739277 0.000000
0.167157 0.739338 0.000000
0.213603 0.738848 0.000000
0.263174 0.738909 0.000000
0.313726 0.739093 0.000000
0.362194 0.738848 0.000000
0.408394 0.738787 0.000000
0.456066 0.738787 0.000000
0.500490 0.738726 0.000000
0.541605 0.738358 0.000000
0.579780 0.738113 0.000000
0.615502 0.738174 0.000000
0.649694 0.738113 0.000000
0.681863 0.737929 0.000000
0.713787 0.737806 0.000000
0.744424 0.737561 0.000000
0.774264 0.737378 0.000000
0.803247 0.737194 0.000000
0.832046 0.736581 0.000000
0.859497 0.736397 0.000000
0.886153 0.735968 0.000000
0.911949 0.735294 0.000000
0.938542 0.734559 0.000000
0.965748 0.732169 0.000000
0.995895 0.743137 0.000000
0.076838 0.754779 0.000000
0.000000 0.767769 0.000000
0.000000 0.767402 0.000000
0.000000 0.767647 0.000000
0.001777 0.767524 0.000000
0.017831 0.767463 0.000000
0.043689 0.767402 0.000000
0.075552 0.767402 0.000000
0.115625 0.767340 0.000000
0.158395 0.767340 0.000000
0.204779 0.767034 0.000000
0.254105 0.766973 0.000000
0.305392 0.766850 0.000000
0.354167 0.766973 0.000000
0.401654 0.766789 0.000000
0.448591 0.766789 0.000000
0.493811 0.766789 0.000000
0.536826 0.766238 0.000000
0.575429 0.766238 0.000000
0.612010 0.765747 0.000000
0.647243 0.765809 0.000000
0.679228 0.765992 0.000000
0.711643 0.765625 0.000000
0.742525 0.765625 0.000000
0.772120 0.765196 0.000000
0.801715 0.764951 0.000000
0.830576 0.764706 0.000000
0.858455 0.764277 0.000000
0.885050 0.763909 0.000000
0.911459 0.763419 0.000000
0.937991 0.762684 0.000000
0.965442 0.761029 0.000000
0.995404 0.770956 0.000000
0.076287 0.783210 0.000000
0.000000 0.794669 0.000000
0.000000 0.794669 0.000000
0.000000 0.794607 0.000000
0.000490 0.794607 0.000000
0.012071 0.794546 0.000000
0.035784 0.794485 0.000000
0.067770 0.794301 0.000000
0.105515 0.794362 0.000000
0.149265 0.794056 0.000000
0.194669 0.794179 0.000000
0.243199 0.794179 0.000000
0.295098 0.794056 0.000000
0.345834 0.793872 0.000000
0.395220 0.793811 0.000000
0.442525 0.793750 0.000000
0.487684 0.793750 0.000000
0.530637 0.793504 0.000000
0.570221 0.793504 0.000000
0.608272 0.793321 0.000000
0.643566 0.793076 0.000000
0.677390 0.792953 0.000000
0.708517 0.793137 0.000000
0.739890 0.793014 0.000000
0.770404 0.792830 0.000000
0.799632 0.792524 0.000000
0.829044 0.792340 0.000000
0.856862 0.791973 0.000000
0.884008 0.791544 0.000000
0.910724 0.791237 0.000000
0.937133 0.790257 0.000000
0.964890 0.788786 0.000000
0.994914 0.797549 0.000000
0.075797 0.811213 0.000000
0.000000 0.821446 0.000000
0.000000 0.821385 0.000000
0.000000 0.821385 0.000000
0.000000 0.821323 0.000000
0.006311 0.821262 0.000000
0.027267 0.821201 0.000000
0.058456 0.821201 0.000000
0.096201 0.821140 0.000000
0.138235 0.821078 0.000000
0.184988 0.821140 0.000000
0.231863 0.821078 0.000000
0.283395 0.821078 0.000000
0.335172 0.821017 0.000000
0.385233 0.820833 0.000000
0.432965 0.820894 0.000000
0.479596 0.820833 0.000000
0.523529 0.820649 0.000000
0.564767 0.820404 0.000000
0.603186 0.820404 0.000000
0.639338 0.820404 0.000000
0.673468 0.820343 0.000000
0.705821 0.820159 0.000000
0.737316 0.819975 0.000000
0.767769 0.819975 0.000000
0.797732 0.819791 0.000000
0.827206 0.819363 0.000000
0.855575 0.819301 0.000000
0.882721 0.818750 0.000000
0.909682 0.818566 0.000000
0.936275 0.817769 0.000000
0.964216 0.816483 0.000000
0.994608 0.824326 0.000000
0.075245 0.838848 0.000000
0.000000 0.847794 0.000000
0.000000 0.847794 0.000000
0.000000 0.847671 0.000000
0.000000 0.847671 0.000000
0.001961 0.847671 0.000000
0.019240 0.847610 0.000000
0.047794 0.847610 0.000000
0.083456 0.847549 0.000000
0.126471 0.847549 0.000000
0.170956 0.847549 0.000000
0.220159 0.847549 0.000000
0.271323 0.847549 0.000000
0.323775 0.847426 0.000000
0.374326 0.847242 0.000000
0.423345 0.847242 0.000000
0.470527 0.847242 0.000000
0.516912 0.847120 0.000000
0.558701 0.847058 0.000000
0.598284 0.846936 0.000000
0.634682 0.846813 0.000000
0.669424 0.846813 0.000000
0.702268 0.846752 0.000000
0.735110 0.846323 0.000000
0.765196 0.846323 0.000000
