assets/luts/LUTs/Pentax_Satobi_33_Rec709.cube
TITLE "Pentax_Satobi_33_Rec709"
# 33^3 LUT extracted from Pentax DCU SATOBI
LUT_3D_SIZE 5
DOMAIN_MIN 0.0 0.0 0.0
DOMAIN_MAX 1.0 1.0 1.0
0.000000 0.000000 0.000000
0.187377 0.025735 0.035968
0.416544 0.074939 0.093750
0.685969 0.150306 0.182230
0.979841 0.370588 0.436274
0.111581 0.169547 0.048958
0.228370 0.207353 0.085049
0.448652 0.241238 0.136520
0.701961 0.299081 0.218628
0.980637 0.493076 0.464951
0.200674 0.397671 0.121078
0.295282 0.428921 0.156066
0.499816 0.455760 0.200919
0.726716 0.501471 0.275367
0.983334 0.638848 0.507966
0.324939 0.672488 0.238113
0.402880 0.689829 0.265931
0.578799 0.702513 0.304167
0.767157 0.725307 0.370343
0.988235 0.800000 0.574878
0.638051 0.976961 0.554166
0.676593 0.979963 0.568321
0.765502 0.981740 0.591789
0.873775 0.984804 0.630638
0.999632 0.993627 0.740870
0.002451 0.032782 0.169976
0.190380 0.063358 0.196997
0.419608 0.106679 0.238481
0.687562 0.177819 0.309927
0.978861 0.393137 0.534252
0.121324 0.198529 0.196446
0.233333 0.233088 0.232905
0.450490 0.264890 0.273100
0.703187 0.321262 0.341299
0.980392 0.510171 0.556311
0.205576 0.418995 0.257966
0.297304 0.448468 0.288297
0.501654 0.474816 0.325613
0.728003 0.518505 0.390747
0.983334 0.649878 0.589461
0.327512 0.683027 0.356373
0.405024 0.699204 0.382353
0.579780 0.712010 0.416360
0.768198 0.733762 0.475797
0.988297 0.805943 0.642586
0.638786 0.978432 0.624449
0.677880 0.981373 0.636642
0.766421 0.983027 0.655944
0.874388 0.986030 0.688113
0.999632 0.994485 0.781188
0.004596 0.089216 0.378248
0.192647 0.114890 0.399632
0.420037 0.154412 0.432965
0.688236 0.220037 0.491360
0.978003 0.426961 0.655025
0.129228 0.241176 0.396507
0.235478 0.271569 0.428063
0.452451 0.302757 0.460478
0.703922 0.357231 0.515135
0.979902 0.537010 0.669302
0.210110 0.452819 0.445282
0.299816 0.479535 0.473285
0.503738 0.503983 0.503738
0.728554 0.543688 0.552880
0.983027 0.667463 0.693199
0.330086 0.699571 0.525429
0.406985 0.714461 0.546813
0.581250 0.726410 0.571262
0.768750 0.747120 0.612500
0.988235 0.815992 0.731863
0.640073 0.980637 0.717402
0.678860 0.983456 0.726838
0.766973 0.984988 0.740993
0.874756 0.987929 0.765196
0.999632 0.995711 0.836519
0.010355 0.176226 0.642586
0.197365 0.197365 0.654289
0.423774 0.231924 0.671998
0.689461 0.290319 0.702451
0.977022 0.483946 0.796507
0.139890 0.311397 0.650674
0.239216 0.338051 0.669363
0.455270 0.366544 0.686827
0.705515 0.417708 0.715380
0.979228 0.580821 0.805147
0.217341 0.508027 0.677390
0.303125 0.530208 0.693260
0.506618 0.551409 0.709375
0.730209 0.587132 0.736091
0.982537 0.697182 0.819117
0.335478 0.727451 0.719669
0.410294 0.740074 0.732537
0.584069 0.751103 0.746569
0.770098 0.770037 0.770159
0.988052 0.832843 0.843076
0.642340 0.984682 0.833456
0.680331 0.986826 0.839644
0.768137 0.988297 0.848223
0.875246 0.990686 0.863418
0.999694 0.997059 0.909376
0.040993 0.422978 0.960172
0.218260 0.439277 0.962194
0.441422 0.465503 0.965442
0.698469 0.509926 0.970650
0.977145 0.641361 0.987378
0.168076 0.526715 0.960907
0.257659 0.544853 0.964584
0.472733 0.564645 0.968076
0.714216 0.599449 0.973285
0.979841 0.704473 0.988787
0.240993 0.658517 0.965748
0.321201 0.671875 0.969118
0.521814 0.685907 0.972182
0.737623 0.709069 0.976839
0.983211 0.785907 0.990993
0.355024 0.809007 0.973346
0.426532 0.817524 0.976226
0.595037 0.825306 0.978432
0.776654 0.839277 0.982660
0.988358 0.885172 0.994118
0.653370 0.994976 0.992831
0.689093 0.996078 0.993750
0.774326 0.996998 0.995037
0.879167 0.997917 0.996691
0.999755 1.000000 0.999694
