assets/luts/LUTs/GRII/Ricoh_GR2_POSI_ultimate_33_Rec709.cube
TITLE "Ricoh_GR2_POSI_ultimate_33_Rec709"
LUT_3D_SIZE 5
DOMAIN_MIN 0 0 0
DOMAIN_MAX 1 1 1
0.000527 0.000000 0.000000
0.207066 0.000000 0.000000
0.417820 0.000000 0.000000
0.638159 0.000000 0.000000
0.866502 0.000000 0.000000
0.000000 0.194942 0.000000
0.194692 0.190701 0.000000
0.416723 0.187944 0.000000
0.646259 0.186799 0.000000
0.883799 0.187173 0.000000
0.000000 0.405955 0.000000
0.191818 0.407192 0.000000
0.422897 0.410306 0.000000
0.660774 0.415286 0.000000
0.900132 0.423565 0.000000
0.000000 0.632850 0.000000
0.195159 0.640391 0.000000
0.434136 0.648440 0.000000
0.674796 0.660187 0.000000
0.913663 0.676201 0.000000
0.000000 0.873357 0.000000
0.209413 0.884441 0.000000
0.454927 0.896632 0.000000
0.698704 0.914430 0.019038
0.941310 0.937491 0.059657
0.000000 0.000000 0.214577
0.206508 0.000000 0.204125
0.420303 0.000000 0.198173
0.643206 0.000000 0.194080
0.873189 0.000000 0.191150
0.000000 0.195583 0.194487
0.197014 0.192077 0.190225
0.421133 0.190003 0.187105
0.652872 0.189554 0.185417
0.892269 0.190701 0.185409
0.000000 0.409010 0.183085
0.195906 0.411056 0.181202
0.428815 0.414973 0.180916
0.667213 0.421121 0.184899
0.907293 0.431119 0.194979
0.000000 0.638696 0.176468
0.201315 0.646233 0.179752
0.441227 0.655819 0.189328
0.682406 0.669055 0.207333
0.921679 0.687486 0.234411
0.000000 0.880561 0.183729
0.219433 0.891846 0.200621
0.465782 0.906179 0.227117
0.710449 0.926323 0.259232
0.954230 0.951546 0.298948
0.000000 0.000000 0.428795
0.206937 0.000000 0.420423
0.423546 0.000000 0.418213
0.648422 0.000000 0.417575
0.880399 0.000000 0.417885
0.000000 0.196628 0.414121
0.199755 0.193727 0.413372
0.425984 0.192390 0.413481
0.659881 0.192601 0.415374
0.900532 0.194803 0.419362
0.000000 0.412392 0.409107
0.200261 0.415286 0.410750
0.434898 0.420020 0.414440
0.673974 0.427674 0.421674
0.914105 0.439682 0.434152
0.000000 0.644795 0.409560
0.208003 0.652613 0.416318
0.448730 0.663849 0.428131
0.690710 0.678907 0.447634
0.930723 0.699738 0.473533
0.000000 0.888499 0.422201
0.230548 0.899996 0.440996
0.477498 0.916780 0.466405
0.723457 0.938995 0.497707
0.968626 0.966824 0.533724
0.000000 0.000000 0.643148
0.208160 0.000000 0.639153
0.427215 0.000000 0.641138
0.653915 0.000000 0.643521
0.888211 0.000000 0.647312
0.000000 0.197949 0.636678
0.202946 0.195696 0.638988
0.431270 0.195075 0.642503
0.667110 0.196003 0.648285
0.907096 0.200460 0.655159
0.000000 0.416151 0.637731
0.204855 0.419863 0.643247
0.441208 0.425595 0.650040
0.681028 0.434958 0.659344
0.920285 0.449667 0.673135
0.000000 0.650770 0.644969
0.214988 0.659722 0.653773
0.457320 0.672345 0.667150
0.699857 0.689779 0.685999
0.940767 0.712944 0.710704
0.000000 0.895721 0.661215
0.242585 0.909113 0.679500
0.490240 0.928325 0.703718
0.737808 0.952581 0.733585
0.984239 0.983086 0.765909
0.000000 0.000000 0.859226
0.209956 0.000000 0.861137
0.431177 0.000000 0.866607
0.659851 0.000000 0.871951
0.896518 0.000000 0.879681
0.000000 0.199530 0.861856
0.206579 0.197996 0.867046
0.436920 0.198048 0.874438
0.674371 0.199903 0.883930
0.913817 0.206920 0.891821
0.000000 0.420285 0.869230
0.209725 0.424797 0.878549
0.447855 0.431882 0.886492
0.688342 0.443012 0.897813
0.926924 0.460818 0.910402
0.000000 0.656885 0.881214
0.222263 0.667566 0.892129
0.466772 0.681784 0.904546
0.709934 0.701638 0.922386
0.951761 0.727195 0.945606
0.005199 0.903525 0.898736
0.255410 0.919289 0.916019
0.504392 0.940662 0.938856
0.753055 0.967367 0.966580
1.000000 0.999824 0.999561
