assets/luts/LUTs/GRII/Ricoh_GR2_POSI_ultimate_33_Rec709.cube
TITLE "Ricoh_GR2_POSI_ultimate_33_Rec709"
LUT_3D_SIZE 9
DOMAIN_MIN 0 0 0
DOMAIN_MAX 1 1 1
0.000527 0.000000 0.000000
0.103634 0.000000 0.000000
0.207066 0.000000 0.000000
0.311480 0.000000 0.000000
0.417820 0.000000 0.000000
0.526736 0.000000 0.000000
0.638159 0.000000 0.000000
0.751545 0.000000 0.000000
0.866502 0.000000 0.000000
0.000000 0.095915 0.000000
0.093510 0.091748 0.000000
0.199114 0.088383 0.000000
0.306578 0.085481 0.000000
0.416260 0.082864 0.000000
0.527991 0.080581 0.000000
0.641478 0.078749 0.000000
0.756705 0.077386 0.000000
0.873911 0.076403 0.000000
0.000000 0.194942 0.000000
0.086728 0.192582 0.000000
0.194692 0.190701 0.000000
0.304736 0.189144 0.000000
0.416723 0.187944 0.000000
0.530537 0.187165 0.000000
0.646259 0.186799 0.000000
0.764030 0.186798 0.000000
0.883799 0.187173 0.000000
0.000000 0.298383 0.000000
0.081787 0.297564 0.000000
0.192240 0.297013 0.000000
0.304636 0.296821 0.000000
0.418896 0.297061 0.000000
0.535078 0.297730 0.000000
0.653191 0.298813 0.000000
0.773005 0.300368 0.000000
0.893689 0.302661 0.000000
0.000000 0.405955 0.000000
0.079000 0.406356 0.000000
0.191818 0.407192 0.000000
0.306436 0.408518 0.000000
0.422897 0.410306 0.000000
0.541132 0.412538 0.000000
0.660774 0.415286 0.000000
0.780232 0.418920 0.000000
0.900132 0.423565 0.000000
0.000000 0.517194 0.000000
0.078100 0.519164 0.000000
0.192919 0.521652 0.000000
0.309546 0.524573 0.000000
0.427869 0.527889 0.000000
0.547274 0.531456 0.000000
0.667132 0.535997 0.000000
0.787398 0.541565 0.000000
0.907078 0.548283 0.000000
0.000000 0.632850 0.000000
0.078252 0.636472 0.000000
0.195159 0.640391 0.000000
0.314320 0.644001 0.000000
0.434136 0.648440 0.000000
0.554361 0.653904 0.000000
0.674796 0.660187 0.000000
0.794600 0.667471 0.000000
0.913663 0.676201 0.000000
0.000000 0.752782 0.000000
0.081371 0.756557 0.000000
0.201143 0.760894 0.000000
0.321328 0.766254 0.000000
0.442236 0.772242 0.000000
0.563617 0.778621 0.000000
0.684474 0.786318 0.000000
0.804805 0.795497 0.005639
0.924833 0.806122 0.022982
0.000000 0.873357 0.000000
0.088299 0.878614 0.000000
0.209413 0.884441 0.000000
0.332293 0.889956 0.000000
0.454927 0.896632 0.000000
0.577023 0.904779 0.001804
0.698704 0.914430 0.019038
0.820187 0.925373 0.037968
0.941310 0.937491 0.059657
0.000000 0.000000 0.107193
0.102794 0.000000 0.101262
0.206656 0.000000 0.096440
0.311743 0.000000 0.092538
0.418940 0.000000 0.089207
0.528663 0.000000 0.086158
0.640660 0.000000 0.083328
0.754431 0.000000 0.080820
0.869792 0.000000 0.078717
0.000000 0.095364 0.094810
0.093578 0.091579 0.090830
0.199712 0.088451 0.087449
0.307811 0.085685 0.084365
0.418071 0.083204 0.081494
0.530267 0.081110 0.078934
0.644201 0.079490 0.076778
0.759965 0.078309 0.075002
0.877797 0.077466 0.073531
0.000000 0.195200 0.085697
0.087287 0.193086 0.082577
0.195803 0.191357 0.079667
0.306386 0.189950 0.077055
0.418875 0.188931 0.074845
0.533213 0.188340 0.073022
0.649507 0.188141 0.071509
0.767839 0.188300 0.070295
0.888040 0.188878 0.069532
0.000000 0.299357 0.077845
0.082795 0.298655 0.075183
0.193815 0.298251 0.072918
0.306735 0.298245 0.071047
0.421518 0.298678 0.069493
0.538220 0.299530 0.068230
0.656785 0.300808 0.067394
0.776881 0.302619 0.067325
0.896887 0.305531 0.069379
0.000000 0.407447 0.070998
0.080527 0.408026 0.069079
0.193825 0.409077 0.067483
0.308915 0.410612 0.066173
0.425833 0.412595 0.065268
0.544445 0.415038 0.065087
0.663951 0.418115 0.066839
0.783603 0.422173 0.070730
0.903676 0.427250 0.075865
0.000000 0.519342 0.065478
0.079925 0.521548 0.064123
0.195191 0.524239 0.063151
0.312269 0.527335 0.062863
0.431019 0.530708 0.064311
0.550626 0.534665 0.068079
0.670659 0.539639 0.073087
0.791097 0.545641 0.079361
0.910186 0.552974 0.089982
0.000000 0.635736 0.061044
0.080364 0.639507 0.060654
0.198093 0.643312 0.061794
0.317654 0.647167 0.065441
0.437645 0.652038 0.070322
0.558043 0.657937 0.076465
0.678526 0.664503 0.086603
0.798358 0.672374 0.099422
0.917546 0.681719 0.114065
0.000000 0.755926 0.059290
0.084686 0.759680 0.062815
0.204636 0.764447 0.067570
0.324993 0.770242 0.073586
0.446552 0.776203 0.083246
0.568087 0.783095 0.095860
0.689074 0.791399 0.110367
0.809607 0.801191 0.126169
0.929882 0.812381 0.143262
0.000000 0.876867 0.064831
0.091946 0.882559 0.070720
0.214277 0.888067 0.079911
0.337461 0.894010 0.092313
0.460249 0.901272 0.106678
0.582497 0.910058 0.122381
0.704432 0.920276 0.139332
0.826211 0.931694 0.158356
0.947591 0.944372 0.179823
0.000000 0.000000 0.214577
0.102177 0.000000 0.208683
0.206508 0.000000 0.204125
0.312295 0.000000 0.200752
0.420303 0.000000 0.198173
0.530725 0.000000 0.196003
0.643206 0.000000 0.194080
0.757359 0.000000 0.192437
0.873189 0.000000 0.191150
0.000000 0.094990 0.202458
0.093793 0.091530 0.198977
0.200461 0.088587 0.196326
0.309164 0.085946 0.194113
0.419957 0.083622 0.192149
0.532609 0.081733 0.190462
0.647027 0.080317 0.189124
0.763367 0.079298 0.188153
0.881818 0.078587 0.187534
0.000000 0.195583 0.194487
0.087936 0.193664 0.192227
0.197014 0.192077 0.190225
0.308132 0.190833 0.188492
0.421133 0.190003 0.187105
0.536011 0.189592 0.186086
0.652872 0.189554 0.185417
0.771721 0.189884 0.185135
0.892269 0.190701 0.185409
0.000000 0.300385 0.188306
0.083930 0.299806 0.186528
0.195503 0.299568 0.185092
0.308938 0.299755 0.184024
0.424236 0.300376 0.183306
0.541433 0.301413 0.182966
0.660398 0.302904 0.183157
0.780699 0.305014 0.184201
0.900169 0.308580 0.187490
0.000000 0.409010 0.183085
0.082146 0.409789 0.181968
0.195906 0.411056 0.181202
0.311459 0.412794 0.180805
0.428815 0.414973 0.180916
0.547766 0.417646 0.181843
0.667213 0.421121 0.184899
0.787048 0.425607 0.189310
0.907293 0.431119 0.194979
0.000000 0.521596 0.179105
0.081802 0.524027 0.178652
0.197528 0.526905 0.178687
0.315061 0.530174 0.179500
0.434262 0.533672 0.182319
0.554054 0.538056 0.186606
0.674258 0.543464 0.192147
0.794411 0.549968 0.199816
0.913388 0.557933 0.210716
0.000000 0.638696 0.176468
0.082595 0.642592 0.177171
0.201315 0.646233 0.179752
0.321064 0.650514 0.183915
0.441227 0.655819 0.189328
0.561852 0.662001 0.196648
0.682406 0.669055 0.207333
0.802309 0.677532 0.220097
0.921679 0.687486 0.234411
0.000000 0.758805 0.177198
0.088078 0.762984 0.181236
0.208200 0.768185 0.186522
0.329033 0.774177 0.193503
0.451085 0.780360 0.203967
0.572765 0.787815 0.216563
0.693902 0.796739 0.230760
0.814664 0.807126 0.246189
0.935169 0.818865 0.263157
0.000000 0.880561 0.183729
0.095971 0.886487 0.190381
0.219433 0.891846 0.200621
0.342861 0.898293 0.213041
0.465782 0.906179 0.227117
0.588210 0.915586 0.242440
0.710449 0.926323 0.259232
0.832541 0.938221 0.278286
0.954230 0.951546 0.298948
0.000000 0.000000 0.321747
0.101776 0.000000 0.316072
0.206609 0.000000 0.312054
0.313099 0.000000 0.309482
0.421855 0.000000 0.307826
0.532878 0.000000 0.306574
0.645790 0.000000 0.305509
0.760355 0.000000 0.304679
0.876719 0.000000 0.304198
0.000000 0.094772 0.310317
0.094131 0.091575 0.307614
0.201337 0.088780 0.305879
0.310616 0.086271 0.304586
0.421914 0.084127 0.303489
0.535034 0.082449 0.302617
0.649973 0.081222 0.302085
0.766910 0.080348 0.301956
0.885951 0.079774 0.302248
0.000000 0.196066 0.303939
0.088681 0.194307 0.302604
0.198329 0.192865 0.301474
0.309980 0.191798 0.300561
0.423502 0.191157 0.299978
0.538927 0.190917 0.299795
0.656337 0.191038 0.300029
0.775646 0.191560 0.300726
0.896444 0.192667 0.302037
0.000000 0.301465 0.299464
0.085193 0.301024 0.298511
0.197300 0.300968 0.297879
0.311240 0.301350 0.297641
0.427039 0.302156 0.297818
0.544700 0.303383 0.298449
0.664009 0.305116 0.299673
0.783902 0.307806 0.301995
0.903530 0.311809 0.305820
0.000000 0.410656 0.295785
0.083843 0.411647 0.295494
0.198053 0.413127 0.295614
0.314062 0.415061 0.296181
0.431837 0.417445 0.297321
0.550973 0.420405 0.299473
0.670556 0.424307 0.303176
0.790566 0.429225 0.308116
0.910983 0.435171 0.314317
0.000000 0.523953 0.293418
0.083737 0.526593 0.293921
0.199938 0.529647 0.294980
0.318049 0.533014 0.296964
0.437586 0.536815 0.300544
0.557555 0.541629 0.305357
0.677930 0.547472 0.311432
0.797798 0.554552 0.320121
0.916730 0.563162 0.331073
0.000000 0.641719 0.292650
0.085131 0.645633 0.294466
0.204620 0.649333 0.297925
0.324548 0.654045 0.302612
0.444882 0.659784 0.308560
0.565826 0.666226 0.316936
0.686460 0.673853 0.327706
0.806479 0.682946 0.340268
0.926072 0.693494 0.354223
0.000000 0.761861 0.295319
0.091544 0.766470 0.299880
0.211838 0.772106 0.305700
0.333554 0.778064 0.313769
0.455837 0.784737 0.324353
0.577657 0.792789 0.336771
0.698966 0.802332 0.350616
0.819976 0.813291 0.365747
0.940696 0.825580 0.382636
0.000000 0.884438 0.302853
0.100997 0.890059 0.310622
0.224864 0.895811 0.321016
0.348479 0.902826 0.333285
0.471528 0.911352 0.347018
0.594187 0.921343 0.362025
0.716783 0.932560 0.378722
0.839190 0.944989 0.397549
0.961246 0.959034 0.416878
0.000000 0.000000 0.428795
0.101579 0.000000 0.423602
0.206937 0.000000 0.420423
0.314115 0.000000 0.418871
0.423546 0.000000 0.418213
0.535094 0.000000 0.417843
0.648422 0.000000 0.417575
0.763447 0.000000 0.417531
0.880399 0.000000 0.417885
0.000000 0.094685 0.418588
0.094574 0.091695 0.416894
0.202324 0.089030 0.416164
0.312157 0.086669 0.415766
0.423950 0.084723 0.415471
0.537559 0.083253 0.415383
0.653050 0.082196 0.415679
0.770583 0.081457 0.416447
0.890165 0.081036 0.417698
0.000000 0.196628 0.414121
0.089533 0.195012 0.413692
0.199755 0.193727 0.413372
0.311936 0.192847 0.413242
0.425984 0.192390 0.413481
0.541953 0.192313 0.414186
0.659881 0.192601 0.415374
0.779583 0.193346 0.417064
0.900532 0.194803 0.419362
0.000000 0.302602 0.411277
0.086578 0.302319 0.411107
0.199198 0.302454 0.411290
0.313629 0.303027 0.411934
0.429913 0.304017 0.413058
0.548004 0.305450 0.414681
0.667600 0.307463 0.416896
0.787154 0.310789 0.420027
0.906966 0.315220 0.424371
0.000000 0.412392 0.409107
0.085606 0.413601 0.409689
0.200261 0.415286 0.410750
0.316721 0.417415 0.412306
0.434898 0.420020 0.414440
0.554205 0.423346 0.417455
0.673974 0.427674 0.421674
0.794156 0.433026 0.427146
0.914105 0.439682 0.434152
0.000000 0.526408 0.408450
0.085739 0.529240 0.409939
0.202438 0.532466 0.411995
0.321261 0.535912 0.414894
0.440986 0.540139 0.418989
0.561127 0.545387 0.424334
0.681546 0.551694 0.431133
0.801295 0.559403 0.440136
0.920252 0.568655 0.450973
0.000000 0.644795 0.409560
0.088321 0.648489 0.412346
0.208003 0.652613 0.416318
0.328103 0.657758 0.421535
0.448730 0.663849 0.428131
0.569976 0.670679 0.436956
0.690710 0.678907 0.447634
0.810884 0.688612 0.459913
0.930723 0.699738 0.473533
0.000000 0.765099 0.413658
0.095082 0.770140 0.418749
0.215673 0.776138 0.425147
0.338328 0.782136 0.433791
0.460808 0.789354 0.444309
0.582767 0.798023 0.456458
0.704274 0.808169 0.469964
0.825551 0.819681 0.484859
0.946481 0.832540 0.501586
0.000000 0.888499 0.422201
0.106360 0.893768 0.430642
0.230548 0.899996 0.440996
0.354304 0.907624 0.453012
0.477498 0.916780 0.466405
0.600462 0.927307 0.481160
0.723457 0.938995 0.497707
0.846156 0.952037 0.515944
0.968626 0.966824 0.533724
0.000000 0.000000 0.535865
0.101568 0.000000 0.531474
0.207464 0.000000 0.529411
0.315301 0.000000 0.529008
0.425340 0.000000 0.529330
0.537364 0.000000 0.529767
0.651122 0.000000 0.530248
0.766662 0.000000 0.531003
0.884232 0.000000 0.532244
0.000000 0.094703 0.527454
0.095112 0.091876 0.526915
0.203412 0.089340 0.527185
0.313785 0.087149 0.527607
0.426074 0.085413 0.528062
0.540197 0.084138 0.528766
0.656257 0.083232 0.529940
0.774369 0.082628 0.531658
0.894423 0.082392 0.533892
0.000000 0.197257 0.525044
0.090503 0.195783 0.525450
0.201293 0.194670 0.525881
0.314002 0.193979 0.526536
0.428576 0.193697 0.527644
0.545076 0.193780 0.529294
0.663480 0.194250 0.531464
0.783500 0.195265 0.534118
0.903855 0.197500 0.537155
0.000000 0.303803 0.523705
0.088075 0.303697 0.524313
0.201185 0.304026 0.525356
0.316097 0.304786 0.526938
0.432848 0.305964 0.529042
0.551331 0.307626 0.531634
0.670929 0.310105 0.534639
0.790486 0.313952 0.538276
0.910474 0.318814 0.543147
0.000000 0.414223 0.523076
0.087428 0.415647 0.524589
0.202528 0.417531 0.526629
0.319436 0.419860 0.529158
0.438008 0.422719 0.532136
0.557519 0.426465 0.535651
0.677465 0.431224 0.540396
0.797818 0.437011 0.546402
0.917161 0.444524 0.553819
0.000000 0.528952 0.524223
0.087825 0.531964 0.526689
0.205092 0.535344 0.529645
0.324555 0.538989 0.533039
0.444460 0.543645 0.537658
0.564772 0.549328 0.543537
0.685189 0.556174 0.550802
0.804940 0.564522 0.559757
0.923990 0.574404 0.570373
0.000000 0.647918 0.527136
0.091597 0.651523 0.530439
0.211459 0.656076 0.534933
0.331730 0.661656 0.540684
0.452920 0.667987 0.547798
0.574318 0.675376 0.556597
0.695171 0.684216 0.567070
0.815535 0.694521 0.579044
0.935625 0.706218 0.592364
0.000000 0.768518 0.532220
0.098693 0.773994 0.537844
0.220368 0.779956 0.544810
0.343348 0.786419 0.553451
0.465996 0.794222 0.563779
0.588100 0.803513 0.575627
0.709840 0.814240 0.588828
0.831400 0.826298 0.603485
0.952561 0.839756 0.619850
0.000000 0.892076 0.541836
0.112035 0.897650 0.550319
0.236463 0.904424 0.560499
0.360330 0.912689 0.572221
0.483721 0.922446 0.585304
0.607078 0.933462 0.599817
0.730477 0.945654 0.616037
0.853406 0.959399 0.633397
0.976315 0.974864 0.649879
0.000000 0.000000 0.643148
0.101720 0.000000 0.639894
0.208160 0.000000 0.639153
0.316623 0.000000 0.639922
0.427215 0.000000 0.641138
0.539693 0.000000 0.642302
0.653915 0.000000 0.643521
0.770013 0.000000 0.645123
0.888211 0.000000 0.647312
0.000000 0.094804 0.637061
0.095740 0.092115 0.637717
0.204597 0.089719 0.638907
0.315504 0.087720 0.640065
0.428298 0.086194 0.641251
0.542955 0.085095 0.642790
0.659588 0.084328 0.644903
0.778243 0.083870 0.647613
0.898686 0.083865 0.650814
0.000000 0.197949 0.636678
0.091597 0.196626 0.637831
0.202946 0.195696 0.638988
0.316175 0.195191 0.640465
0.431270 0.195075 0.642503
0.548280 0.195322 0.645142
0.667110 0.196003 0.648285
0.787369 0.197343 0.651824
0.907096 0.200460 0.655159
0.000000 0.305077 0.636730
0.089670 0.305159 0.638149
0.203253 0.305682 0.640112
0.318634 0.306626 0.642679
0.435831 0.308003 0.645762
0.554669 0.309929 0.649252
0.674149 0.313022 0.652593
0.793895 0.317295 0.656746
0.914054 0.322591 0.662149
0.000000 0.416151 0.637731
0.089302 0.417783 0.640225
0.204855 0.419863 0.643247
0.322213 0.422404 0.646686
0.441208 0.425595 0.650040
0.560909 0.429766 0.654068
0.681028 0.434958 0.659344
0.801315 0.441324 0.665767
0.920285 0.449667 0.673135
0.000000 0.531579 0.640738
0.090014 0.534762 0.644125
0.208271 0.538177 0.647498
0.327928 0.542246 0.651403
0.448006 0.547335 0.656552
0.568500 0.553460 0.662903
0.688966 0.560916 0.670136
0.808763 0.569908 0.678914
0.927970 0.580397 0.689266
0.000000 0.650770 0.644969
0.094951 0.654737 0.648751
0.214988 0.659722 0.653773
0.335448 0.665730 0.660050
0.457320 0.672345 0.667150
0.578864 0.680324 0.675784
0.699857 0.689779 0.685999
0.820438 0.700668 0.697679
0.940767 0.712944 0.710704
0.000000 0.772120 0.651006
0.102377 0.778031 0.657163
0.225357 0.783948 0.664176
0.348606 0.790935 0.672667
0.471396 0.799350 0.682744
0.593666 0.809251 0.694300
0.715682 0.820537 0.707206
0.837541 0.833153 0.721525
0.958981 0.847228 0.737314
0.000000 0.895721 0.661215
0.117993 0.901740 0.669563
0.242585 0.909113 0.679500
0.366566 0.918014 0.690930
0.490240 0.928325 0.703718
0.614070 0.939809 0.717907
0.737808 0.952581 0.733585
0.860878 0.967075 0.750061
0.984239 0.983086 0.765909
0.000000 0.000000 0.750861
0.102012 0.000000 0.749044
0.208998 0.000000 0.749725
0.318053 0.000000 0.751589
0.429160 0.000000 0.753580
0.542096 0.000000 0.755420
0.656820 0.000000 0.757410
0.773508 0.000000 0.759928
0.892316 0.000000 0.763120
0.000000 0.094973 0.747496
0.096462 0.092411 0.749284
0.205884 0.090178 0.751273
0.317321 0.088385 0.753107
0.430631 0.087058 0.755051
0.545834 0.086118 0.757492
0.663029 0.085484 0.760603
0.782175 0.085199 0.764310
0.902914 0.085485 0.768417
0.000000 0.198705 0.748968
0.092818 0.197548 0.750798
0.204710 0.196806 0.752700
0.318450 0.196479 0.755065
0.434055 0.196525 0.758094
0.551547 0.196948 0.761736
0.670747 0.197879 0.765798
0.790886 0.199807 0.769809
0.910418 0.203599 0.773380
0.000000 0.306431 0.750355
0.091351 0.306708 0.752648
0.205392 0.307420 0.755596
0.321232 0.308551 0.759168
0.438856 0.310146 0.763183
0.557967 0.312427 0.767312
0.677453 0.316119 0.770762
0.797377 0.320822 0.775439
0.917708 0.326553 0.781376
0.000000 0.418172 0.753106
0.091232 0.420006 0.756608
0.207250 0.422283 0.760574
0.325062 0.425058 0.764807
0.444492 0.428648 0.768157
0.564374 0.433248 0.772708
0.684664 0.438875 0.778517
0.804640 0.446047 0.784839
0.923524 0.455102 0.792013
0.000000 0.534284 0.757969
0.092334 0.537637 0.762170
0.211536 0.541188 0.765564
0.331375 0.545685 0.769989
0.451624 0.551209 0.775672
0.572372 0.557837 0.781995
0.692904 0.565926 0.789044
0.812793 0.575553 0.797576
0.932206 0.586626 0.807665
0.000000 0.653738 0.762983
0.098381 0.658133 0.767283
0.218589 0.663552 0.772839
0.339824 0.669784 0.779159
0.461937 0.676940 0.786087
0.583621 0.685528 0.794480
0.704775 0.695588 0.804432
0.825597 0.707051 0.815828
0.946142 0.719930 0.828488
0.000000 0.775906 0.770018
0.107009 0.781879 0.776333
0.230627 0.788141 0.783141
0.354090 0.795699 0.791396
0.477008 0.804735 0.801210
0.599482 0.815227 0.812486
0.721825 0.827058 0.825041
0.843993 0.840259 0.838859
0.965780 0.854930 0.854016
0.000000 0.899525 0.780208
0.124199 0.906065 0.788325
0.248901 0.914069 0.798000
0.373037 0.923585 0.809154
0.497113 0.934399 0.821602
0.621444 0.946367 0.835308
0.745373 0.959813 0.850359
0.868494 0.975030 0.866331
0.992326 0.991420 0.882356
0.000000 0.000000 0.859226
0.102423 0.000000 0.859057
0.209956 0.000000 0.861137
0.319575 0.000000 0.863950
0.431177 0.000000 0.866607
0.544589 0.000000 0.869120
0.659851 0.000000 0.871951
0.777141 0.000000 0.875459
0.896518 0.000000 0.879681
0.000000 0.095200 0.858781
0.097285 0.092774 0.861560
0.207276 0.090724 0.864231
0.319244 0.089140 0.866728
0.433078 0.087998 0.869494
0.548829 0.087200 0.872913
0.666561 0.086709 0.877056
0.786133 0.086635 0.881728
0.907070 0.087285 0.886624
0.000000 0.199530 0.861856
0.094163 0.198551 0.864341
0.206579 0.197996 0.867046
0.320819 0.197840 0.870377
0.436920 0.198048 0.874438
0.554858 0.198670 0.879056
0.674371 0.199903 0.883930
0.794095 0.202702 0.887736
0.913817 0.206920 0.891821
0.000000 0.307870 0.864607
0.093104 0.308342 0.867852
0.207594 0.309240 0.871830
0.323887 0.310564 0.876390
0.441919 0.312408 0.881239
0.561156 0.315280 0.885189
0.680834 0.319396 0.889150
0.800931 0.324532 0.894358
0.921158 0.330893 0.900547
0.000000 0.420285 0.869230
0.093223 0.422315 0.873729
0.209725 0.424797 0.878549
0.328222 0.427868 0.882654
0.447855 0.431882 0.886492
0.567911 0.436915 0.891572
0.688342 0.443012 0.897813
0.808053 0.451071 0.903506
0.926924 0.460818 0.910402
0.000000 0.537063 0.875862
0.095293 0.540466 0.880131
0.214880 0.544378 0.883846
0.334895 0.549308 0.888800
0.455317 0.555266 0.895015
0.576409 0.562473 0.900694
0.697027 0.571203 0.907468
0.817051 0.581446 0.915743
0.936702 0.593084 0.925586
0.000000 0.656885 0.881214
0.101883 0.661711 0.886041
0.222263 0.667566 0.892129
0.344449 0.674050 0.897892
0.466772 0.681784 0.904546
0.588594 0.690987 0.912678
0.709934 0.701638 0.922386
0.831013 0.713674 0.933461
0.951761 0.727195 0.945606
0.000000 0.779876 0.889255
0.112185 0.785795 0.895098
0.236161 0.792558 0.901635
0.359785 0.800720 0.909627
0.482837 0.810373 0.919197
0.605576 0.821431 0.930166
0.728295 0.833810 0.942228
0.850767 0.847624 0.955429
0.972965 0.862806 0.970218
0.005199 0.903525 0.898736
0.130621 0.910646 0.906588
0.255410 0.919289 0.916019
0.379793 0.929378 0.926879
0.504392 0.940662 0.938856
0.629156 0.953175 0.951946
0.753055 0.967367 0.966580
0.876184 0.983198 0.982727
1.000000 0.999824 0.999561
