assets/luts/LUTs/GRII/Ricoh_GR2_POSI_ultimate_33_Rec709.cube
TITLE "Ricoh_GR2_POSI_ultimate_33_Rec709"
LUT_3D_SIZE 33
DOMAIN_MIN 0 0 0
DOMAIN_MAX 1 1 1
0.000527 0.000000 0.000000
0.026289 0.000000 0.000000
0.052060 0.000000 0.000000
0.077840 0.000000 0.000000
0.103634 0.000000 0.000000
0.129444 0.000000 0.000000
0.155280 0.000000 0.000000
0.181150 0.000000 0.000000
0.207066 0.000000 0.000000
0.233042 0.000000 0.000000
0.259092 0.000000 0.000000
0.285233 0.000000 0.000000
0.311480 0.000000 0.000000
0.337849 0.000000 0.000000
0.364354 0.000000 0.000000
0.391008 0.000000 0.000000
0.417820 0.000000 0.000000
0.444797 0.000000 0.000000
0.471943 0.000000 0.000000
0.499257 0.000000 0.000000
0.526736 0.000000 0.000000
0.554374 0.000000 0.000000
0.582164 0.000000 0.000000
0.610096 0.000000 0.000000
0.638159 0.000000 0.000000
0.666344 0.000000 0.000000
0.694642 0.000000 0.000000
0.723044 0.000000 0.000000
0.751545 0.000000 0.000000
0.780141 0.000000 0.000000
0.808831 0.000000 0.000000
0.837617 0.000000 0.000000
0.866502 0.000000 0.000000
0.000000 0.023643 0.000000
0.023086 0.022195 0.000000
0.048938 0.020816 0.000000
0.074804 0.019505 0.000000
0.100690 0.018260 0.000000
0.126602 0.017078 0.000000
0.152552 0.015955 0.000000
0.178551 0.014885 0.000000
0.204612 0.013864 0.000000
0.230751 0.012885 0.000000
0.256983 0.011942 0.000000
0.283322 0.011028 0.000000
0.309784 0.010138 0.000000
0.336381 0.009266 0.000000
0.363124 0.008408 0.000000
0.390020 0.007559 0.000000
0.417076 0.006719 0.000000
0.444291 0.005886 0.000000
0.471667 0.005061 0.000000
0.499198 0.004245 0.000000
0.526878 0.003441 0.000000
0.554699 0.002653 0.000000
0.582653 0.001883 0.000000
0.610731 0.001136 0.000000
0.638924 0.000416 0.000000
0.667225 0.000000 0.000000
0.695628 0.000000 0.000000
0.724130 0.000000 0.000000
0.752729 0.000000 0.000000
0.781425 0.000000 0.000000
0.810221 0.000000 0.000000
0.839122 0.000000 0.000000
0.868132 0.000000 0.000000
0.000000 0.047592 0.000000
0.020153 0.046245 0.000000
0.046090 0.044966 0.000000
0.072047 0.043753 0.000000
0.098032 0.042604 0.000000
0.124056 0.041513 0.000000
0.150131 0.040477 0.000000
0.176270 0.039489 0.000000
0.202489 0.038544 0.000000
0.228802 0.037636 0.000000
0.255223 0.036758 0.000000
0.281765 0.035905 0.000000
0.308441 0.035072 0.000000
0.335259 0.034255 0.000000
0.362226 0.033451 0.000000
0.389345 0.032658 0.000000
0.416618 0.031877 0.000000
0.444041 0.031107 0.000000
0.471612 0.030350 0.000000
0.499323 0.029609 0.000000
0.527168 0.028886 0.000000
0.555139 0.028186 0.000000
0.583227 0.027511 0.000000
0.611426 0.026864 0.000000
0.639731 0.026247 0.000000
0.668137 0.025662 0.000000
0.696643 0.025110 0.000000
0.725249 0.024592 0.000000
0.753957 0.024105 0.000000
0.782769 0.023650 0.000000
0.811692 0.023224 0.000000
0.840730 0.022825 0.000000
0.869890 0.022451 0.000000
0.000000 0.071677 0.000000
0.017482 0.070434 0.000000
0.043505 0.069257 0.000000
0.069556 0.068145 0.000000
0.095647 0.067092 0.000000
0.121790 0.066095 0.000000
0.147998 0.065146 0.000000
0.174287 0.064242 0.000000
0.200669 0.063375 0.000000
0.227160 0.062539 0.000000
0.253771 0.061730 0.000000
0.280512 0.060943 0.000000
0.307393 0.060175 0.000000
0.334417 0.059422 0.000000
0.361588 0.058683 0.000000
0.388905 0.057958 0.000000
0.416367 0.057249 0.000000
0.443969 0.056555 0.000000
0.471704 0.055880 0.000000
0.499566 0.055226 0.000000
0.527549 0.054596 0.000000
0.555646 0.053993 0.000000
0.583851 0.053418 0.000000
0.612162 0.052874 0.000000
0.640575 0.052361 0.000000
0.669090 0.051880 0.000000
0.697709 0.051431 0.000000
0.726434 0.051012 0.000000
0.755269 0.050623 0.000000
0.784219 0.050260 0.000000
0.813289 0.049922 0.000000
0.842484 0.049608 0.000000
0.871810 0.049314 0.000000
0.000000 0.095915 0.000000
0.015051 0.094780 0.000000
0.041160 0.093710 0.000000
0.067309 0.092701 0.000000
0.093510 0.091748 0.000000
0.119777 0.090846 0.000000
0.146124 0.089988 0.000000
0.172565 0.089169 0.000000
0.199114 0.088383 0.000000
0.225781 0.087625 0.000000
0.252576 0.086891 0.000000
0.279507 0.086177 0.000000
0.306578 0.085481 0.000000
0.333790 0.084801 0.000000
0.361143 0.084138 0.000000
0.388634 0.083491 0.000000
0.416260 0.082864 0.000000
0.444014 0.082257 0.000000
0.471891 0.081672 0.000000
0.499885 0.081113 0.000000
0.527991 0.080581 0.000000
0.556205 0.080077 0.000000
0.584524 0.079604 0.000000
0.612949 0.079161 0.000000
0.641478 0.078749 0.000000
0.670115 0.078367 0.000000
0.698862 0.078013 0.000000
0.727724 0.077687 0.000000
0.756705 0.077386 0.000000
0.785810 0.077109 0.000000
0.815043 0.076854 0.000000
0.844409 0.076619 0.000000
0.873911 0.076403 0.000000
0.000000 0.120330 0.000000
0.012827 0.119308 0.000000
0.039023 0.118350 0.000000
0.065271 0.117448 0.000000
0.091586 0.116599 0.000000
0.117980 0.115795 0.000000
0.144469 0.115031 0.000000
0.171064 0.114301 0.000000
0.197777 0.113600 0.000000
0.224615 0.112924 0.000000
0.251587 0.112269 0.000000
0.278694 0.111634 0.000000
0.305939 0.111017 0.000000
0.333321 0.110418 0.000000
0.360837 0.109838 0.000000
0.388482 0.109277 0.000000
0.416253 0.108739 0.000000
0.444143 0.108224 0.000000
0.472149 0.107735 0.000000
0.500266 0.107272 0.000000
0.528491 0.106839 0.000000
0.556824 0.106434 0.000000
0.585264 0.106059 0.000000
0.613813 0.105714 0.000000
0.642472 0.105396 0.000000
0.671246 0.105106 0.000000
0.700138 0.104842 0.000000
0.729152 0.104603 0.000000
0.758294 0.104386 0.000000
0.787566 0.104190 0.000000
0.816971 0.104014 0.000000
0.846512 0.103858 0.000000
0.876189 0.103720 0.000000
0.000000 0.144951 0.000000
0.010770 0.144050 0.000000
0.037054 0.143207 0.000000
0.063405 0.142417 0.000000
0.089836 0.141673 0.000000
0.116361 0.140970 0.000000
0.142993 0.140301 0.000000
0.169742 0.139662 0.000000
0.196615 0.139049 0.000000
0.223619 0.138457 0.000000
0.250756 0.137887 0.000000
0.278029 0.137335 0.000000
0.305434 0.136802 0.000000
0.332971 0.136289 0.000000
0.360634 0.135796 0.000000
0.388421 0.135326 0.000000
0.416326 0.134880 0.000000
0.444345 0.134459 0.000000
0.472476 0.134065 0.000000
0.500717 0.133699 0.000000
0.529067 0.133362 0.000000
0.557527 0.133053 0.000000
0.586098 0.132772 0.000000
0.614784 0.132518 0.000000
0.643587 0.132291 0.000000
0.672512 0.132089 0.000000
0.701561 0.131910 0.000000
0.730740 0.131753 0.000000
0.760049 0.131618 0.000000
0.789492 0.131502 0.000000
0.819069 0.131407 0.000000
0.848780 0.131332 0.000000
0.878623 0.131277 0.000000
0.000000 0.169812 0.000000
0.008838 0.169035 0.000000
0.035215 0.168310 0.000000
0.061673 0.167632 0.000000
0.088226 0.166995 0.000000
0.114885 0.166392 0.000000
0.141662 0.165819 0.000000
0.168563 0.165272 0.000000
0.195594 0.164747 0.000000
0.222757 0.164242 0.000000
0.250053 0.163757 0.000000
0.277480 0.163291 0.000000
0.305036 0.162844 0.000000
0.332718 0.162419 0.000000
0.360521 0.162016 0.000000
0.388442 0.161637 0.000000
0.416478 0.161284 0.000000
0.444627 0.160956 0.000000
0.472887 0.160657 0.000000
0.501258 0.160384 0.000000
0.529741 0.160140 0.000000
0.558339 0.159923 0.000000
0.587054 0.159732 0.000000
0.615888 0.159566 0.000000
0.644847 0.159426 0.000000
0.673931 0.159308 0.000000
0.703145 0.159212 0.000000
0.732490 0.159138 0.000000
0.761967 0.159085 0.000000
0.791577 0.159053 0.000000
0.821317 0.159042 0.000000
0.851184 0.159053 0.000000
0.881175 0.159088 0.000000
0.000000 0.194942 0.000000
0.006998 0.194289 0.000000
0.033474 0.193682 0.000000
0.060047 0.193115 0.000000
0.086728 0.192582 0.000000
0.113527 0.192077 0.000000
0.140452 0.191597 0.000000
0.167506 0.191139 0.000000
0.194692 0.190701 0.000000
0.222010 0.190283 0.000000
0.249458 0.189883 0.000000
0.277035 0.189503 0.000000
0.304736 0.189144 0.000000
0.332558 0.188807 0.000000
0.360498 0.188494 0.000000
0.388554 0.188206 0.000000
0.416723 0.187944 0.000000
0.445005 0.187708 0.000000
0.473401 0.187500 0.000000
0.501910 0.187319 0.000000
0.530537 0.187165 0.000000
0.559282 0.187037 0.000000
0.588149 0.186933 0.000000
0.617141 0.186854 0.000000
0.646259 0.186799 0.000000
0.675507 0.186765 0.000000
0.704885 0.186754 0.000000
0.734393 0.186765 0.000000
0.764030 0.186798 0.000000
0.793794 0.186853 0.000000
0.823680 0.186933 0.000000
0.853684 0.187038 0.000000
0.883799 0.187173 0.000000
0.000000 0.220362 0.000000
0.005225 0.219829 0.000000
0.031812 0.219335 0.000000
0.058511 0.218873 0.000000
0.085330 0.218438 0.000000
0.112276 0.218027 0.000000
0.139352 0.217637 0.000000
0.166560 0.217265 0.000000
0.193901 0.216912 0.000000
0.221372 0.216577 0.000000
0.248970 0.216262 0.000000
0.276693 0.215968 0.000000
0.304536 0.215695 0.000000
0.332499 0.215447 0.000000
0.360577 0.215223 0.000000
0.388769 0.215025 0.000000
0.417077 0.214853 0.000000
0.445498 0.214708 0.000000
0.474036 0.214591 0.000000
0.502692 0.214499 0.000000
0.531469 0.214433 0.000000
0.560368 0.214393 0.000000
0.589392 0.214377 0.000000
0.618542 0.214384 0.000000
0.647821 0.214415 0.000000
0.677228 0.214468 0.000000
0.706763 0.214544 0.000000
0.736423 0.214644 0.000000
0.766206 0.214768 0.000000
0.796106 0.214918 0.000000
0.826117 0.215096 0.000000
0.856232 0.215306 0.000000
0.886441 0.215549 0.000000
0.000000 0.246080 0.000000
0.003515 0.245660 0.000000
0.030229 0.245270 0.000000
0.057066 0.244905 0.000000
0.084033 0.244562 0.000000
0.111131 0.244238 0.000000
0.138363 0.243931 0.000000
0.165728 0.243643 0.000000
0.193223 0.243372 0.000000
0.220846 0.243120 0.000000
0.248593 0.242889 0.000000
0.276461 0.242680 0.000000
0.304447 0.242494 0.000000
0.332550 0.242333 0.000000
0.360769 0.242198 0.000000
0.389103 0.242090 0.000000
0.417553 0.242008 0.000000
0.446120 0.241954 0.000000
0.474806 0.241925 0.000000
0.503612 0.241923 0.000000
0.532542 0.241946 0.000000
0.561596 0.241994 0.000000
0.590776 0.242066 0.000000
0.620083 0.242162 0.000000
0.649515 0.242282 0.000000
0.679072 0.242426 0.000000
0.708751 0.242594 0.000000
0.738547 0.242789 0.000000
0.768456 0.243011 0.000000
0.798469 0.243263 0.000000
0.828579 0.243549 0.000000
0.858776 0.243871 0.000000
0.889047 0.244234 0.000000
0.000000 0.272092 0.000000
0.001877 0.271773 0.000000
0.028734 0.271477 0.000000
0.055723 0.271201 0.000000
0.082846 0.270941 0.000000
0.110104 0.270699 0.000000
0.137495 0.270472 0.000000
0.165017 0.270264 0.000000
0.192667 0.270074 0.000000
0.220440 0.269905 0.000000
0.248335 0.269757 0.000000
0.276348 0.269634 0.000000
0.304478 0.269536 0.000000
0.332724 0.269464 0.000000
0.361086 0.269419 0.000000
0.389564 0.269401 0.000000
0.418160 0.269410 0.000000
0.446874 0.269446 0.000000
0.475710 0.269508 0.000000
0.504668 0.269596 0.000000
0.533750 0.269709 0.000000
0.562956 0.269847 0.000000
0.592287 0.270010 0.000000
0.621741 0.270198 0.000000
0.651316 0.270411 0.000000
0.681008 0.270650 0.000000
0.710814 0.270916 0.000000
0.740726 0.271212 0.000000
0.770737 0.271540 0.000000
0.800838 0.271903 0.000000
0.831018 0.272305 0.000000
0.861264 0.272750 0.000000
0.891565 0.273243 0.000000
0.000000 0.298383 0.000000
0.000336 0.298154 0.000000
0.027350 0.297942 0.000000
0.054500 0.297745 0.000000
0.081787 0.297564 0.000000
0.109208 0.297399 0.000000
0.136759 0.297251 0.000000
0.164437 0.297121 0.000000
0.192240 0.297013 0.000000
0.220163 0.296927 0.000000
0.248204 0.296866 0.000000
0.276362 0.296830 0.000000
0.304636 0.296821 0.000000
0.333025 0.296840 0.000000
0.361531 0.296886 0.000000
0.390154 0.296960 0.000000
0.418896 0.297061 0.000000
0.447759 0.297189 0.000000
0.476743 0.297344 0.000000
0.505849 0.297524 0.000000
0.535078 0.297730 0.000000
0.564429 0.297961 0.000000
0.593900 0.298218 0.000000
0.623489 0.298502 0.000000
0.653191 0.298813 0.000000
0.683001 0.299152 0.000000
0.712913 0.299523 0.000000
0.742918 0.299927 0.000000
0.773005 0.300368 0.000000
0.803166 0.300849 0.000000
0.833385 0.301376 0.000000
0.863651 0.301952 0.000000
0.893689 0.302661 0.000000
0.000000 0.324933 0.000000
0.000000 0.324783 0.000000
0.026098 0.324647 0.000000
0.053417 0.324525 0.000000
0.080869 0.324419 0.000000
0.108452 0.324330 0.000000
0.136162 0.324260 0.000000
0.163994 0.324212 0.000000
0.191946 0.324188 0.000000
0.220016 0.324189 0.000000
0.248202 0.324216 0.000000
0.276503 0.324271 0.000000
0.304919 0.324355 0.000000
0.333451 0.324466 0.000000
0.362100 0.324606 0.000000
0.390867 0.324774 0.000000
0.419754 0.324969 0.000000
0.448761 0.325192 0.000000
0.477889 0.325440 0.000000
0.507137 0.325715 0.000000
0.536504 0.326017 0.000000
0.565989 0.326345 0.000000
0.595588 0.326700 0.000000
0.625296 0.327083 0.000000
0.655108 0.327497 0.000000
0.685016 0.327942 0.000000
0.715011 0.328423 0.000000
0.745083 0.328941 0.000000
0.775221 0.329502 0.000000
0.805413 0.330109 0.000000
0.835460 0.330816 0.000000
0.865289 0.331650 0.000000
0.895148 0.332546 0.000000
0.000000 0.351720 0.000000
0.000000 0.351642 0.000000
0.024998 0.351578 0.000000
0.052485 0.351530 0.000000
0.080101 0.351500 0.000000
0.107842 0.351490 0.000000
0.135705 0.351503 0.000000
0.163687 0.351540 0.000000
0.191785 0.351604 0.000000
0.219997 0.351695 0.000000
0.248324 0.351815 0.000000
0.276765 0.351965 0.000000
0.305322 0.352143 0.000000
0.333994 0.352350 0.000000
0.362784 0.352586 0.000000
0.391692 0.352850 0.000000
0.420718 0.353142 0.000000
0.449864 0.353460 0.000000
0.479128 0.353806 0.000000
0.508510 0.354178 0.000000
0.538005 0.354578 0.000000
0.567611 0.355005 0.000000
0.597322 0.355462 0.000000
0.627132 0.355949 0.000000
0.657034 0.356469 0.000000
0.687017 0.357025 0.000000
0.717073 0.357621 0.000000
0.747188 0.358259 0.000000
0.777231 0.358972 0.000000
0.807057 0.359800 0.000000
0.836913 0.360689 0.000000
0.866799 0.361641 0.000000
0.896713 0.362656 0.000000
0.000000 0.378729 0.000000
0.000000 0.378722 0.000000
0.024057 0.378732 0.000000
0.051708 0.378760 0.000000
0.079481 0.378810 0.000000
0.107374 0.378884 0.000000
0.135384 0.378984 0.000000
0.163508 0.379111 0.000000
0.191746 0.379268 0.000000
0.220097 0.379455 0.000000
0.248561 0.379672 0.000000
0.277139 0.379918 0.000000
0.305832 0.380195 0.000000
0.334641 0.380500 0.000000
0.363567 0.380834 0.000000
0.392611 0.381196 0.000000
0.421772 0.381586 0.000000
0.451050 0.382003 0.000000
0.480441 0.382446 0.000000
0.509944 0.382918 0.000000
0.539555 0.383418 0.000000
0.569267 0.383947 0.000000
0.599074 0.384508 0.000000
0.628968 0.385102 0.000000
0.658939 0.385733 0.000000
0.688977 0.386403 0.000000
0.719002 0.387129 0.000000
0.748825 0.387950 0.000000
0.778678 0.388834 0.000000
0.808561 0.389779 0.000000
0.838472 0.390788 0.000000
0.868411 0.391860 0.000000
0.898376 0.392995 0.000000
0.000000 0.405955 0.000000
0.000000 0.406022 0.000000
0.023274 0.406109 0.000000
0.051078 0.406219 0.000000
0.079000 0.406356 0.000000
0.107036 0.406520 0.000000
0.135185 0.406713 0.000000
0.163446 0.406937 0.000000
0.191818 0.407192 0.000000
0.220302 0.407478 0.000000
0.248899 0.407795 0.000000
0.277610 0.408142 0.000000
0.306436 0.408518 0.000000
0.335378 0.408923 0.000000
0.364436 0.409357 0.000000
0.393609 0.409818 0.000000
0.422897 0.410306 0.000000
0.452298 0.410821 0.000000
0.481807 0.411365 0.000000
0.511420 0.411936 0.000000
0.541132 0.412538 0.000000
0.570936 0.413170 0.000000
0.600822 0.413837 0.000000
0.630781 0.414541 0.000000
0.660774 0.415286 0.000000
0.690593 0.416101 0.000000
0.720444 0.416978 0.000000
0.750324 0.417918 0.000000
0.780232 0.418920 0.000000
0.810168 0.419986 0.000000
0.840130 0.421115 0.000000
0.870119 0.422308 0.000000
0.900132 0.423565 0.000000
0.000000 0.433401 0.000000
0.000000 0.433548 0.000000
0.022633 0.433720 0.000000
0.050581 0.433921 0.000000
0.078641 0.434151 0.000000
0.106812 0.434412 0.000000
0.135092 0.434705 0.000000
0.163483 0.435030 0.000000
0.191984 0.435386 0.000000
0.220597 0.435774 0.000000
0.249323 0.436193 0.000000
0.278164 0.436641 0.000000
0.307119 0.437118 0.000000
0.336189 0.437623 0.000000
0.365373 0.438156 0.000000
0.394670 0.438716 0.000000
0.424078 0.439303 0.000000
0.453592 0.439917 0.000000
0.483208 0.440559 0.000000
0.512920 0.441231 0.000000
0.542720 0.441934 0.000000
0.572600 0.442671 0.000000
0.602546 0.443444 0.000000
0.632362 0.444253 0.000000
0.662209 0.445124 0.000000
0.692087 0.446057 0.000000
0.721992 0.447053 0.000000
0.751925 0.448112 0.000000
0.781885 0.449235 0.000000
0.811871 0.450421 0.000000
0.841882 0.451672 0.000000
0.871918 0.452987 0.000000
0.901980 0.454366 0.000000
0.000000 0.461078 0.000000
0.000000 0.461314 0.000000
0.022114 0.461581 0.000000
0.050195 0.461879 0.000000
0.078384 0.462209 0.000000
0.106681 0.462573 0.000000
0.135087 0.462969 0.000000
0.163603 0.463398 0.000000
0.192230 0.463859 0.000000
0.220969 0.464350 0.000000
0.249821 0.464871 0.000000
0.278788 0.465420 0.000000
0.307869 0.465997 0.000000
0.337063 0.466601 0.000000
0.366369 0.467232 0.000000
0.395783 0.467889 0.000000
0.425303 0.468572 0.000000
0.454922 0.469284 0.000000
0.484635 0.470024 0.000000
0.514433 0.470795 0.000000
0.544309 0.471599 0.000000
0.574131 0.472406 0.000000
0.603976 0.473270 0.000000
0.633850 0.474197 0.000000
0.663752 0.475187 0.000000
0.693683 0.476239 0.000000
0.723640 0.477356 0.000000
0.753623 0.478536 0.000000
0.783632 0.479780 0.000000
0.813665 0.481088 0.000000
0.843724 0.482461 0.000000
0.873809 0.483898 0.000000
0.903919 0.485400 0.000000
0.000000 0.489003 0.000000
0.000000 0.489338 0.000000
0.021693 0.489706 0.000000
0.049898 0.490108 0.000000
0.078209 0.490544 0.000000
0.106628 0.491013 0.000000
0.135155 0.491516 0.000000
0.163794 0.492050 0.000000
0.192544 0.492614 0.000000
0.221407 0.493208 0.000000
0.250384 0.493829 0.000000
0.279475 0.494477 0.000000
0.308678 0.495152 0.000000
0.337993 0.495852 0.000000
0.367415 0.496577 0.000000
0.396941 0.497328 0.000000
0.426566 0.498106 0.000000
0.456282 0.498912 0.000000
0.486082 0.499747 0.000000
0.515901 0.500559 0.000000
0.545742 0.501417 0.000000
0.575613 0.502337 0.000000
0.605513 0.503321 0.000000
0.635441 0.504367 0.000000
0.665395 0.505477 0.000000
0.695376 0.506651 0.000000
0.725382 0.507888 0.000000
0.755413 0.509190 0.000000
0.785469 0.510556 0.000000
0.815551 0.511987 0.000000
0.845658 0.513482 0.000000
0.875792 0.515041 0.000000
0.905779 0.516691 0.000000
0.000000 0.517194 0.000000
0.000000 0.517635 0.000000
0.021349 0.518110 0.000000
0.049671 0.518620 0.000000
0.078100 0.519164 0.000000
0.106638 0.519740 0.000000
0.135286 0.520348 0.000000
0.164046 0.520986 0.000000
0.192919 0.521652 0.000000
0.221906 0.522344 0.000000
0.251007 0.523063 0.000000
0.280221 0.523806 0.000000
0.309546 0.524573 0.000000
0.338978 0.525365 0.000000
0.368513 0.526181 0.000000
0.398145 0.527021 0.000000
0.427869 0.527889 0.000000
0.457670 0.528712 0.000000
0.487509 0.529564 0.000000
0.517377 0.530479 0.000000
0.547274 0.531456 0.000000
0.577199 0.532495 0.000000
0.607150 0.533599 0.000000
0.637128 0.534766 0.000000
0.667132 0.535997 0.000000
0.697161 0.537293 0.000000
0.727215 0.538653 0.000000
0.757294 0.540077 0.000000
0.787398 0.541565 0.000000
0.817529 0.543118 0.000000
0.847579 0.544743 0.000000
0.877364 0.546467 0.000000
0.907078 0.548283 0.000000
0.000000 0.545668 0.000000
0.000000 0.546218 0.000000
0.021064 0.546803 0.000000
0.049501 0.547422 0.000000
0.078047 0.548073 0.000000
0.106704 0.548755 0.000000
0.135474 0.549465 0.000000
0.164357 0.550202 0.000000
0.193356 0.550965 0.000000
0.222468 0.551751 0.000000
0.251695 0.552561 0.000000
0.281032 0.553393 0.000000
0.310477 0.554247 0.000000
0.340025 0.555124 0.000000
0.369670 0.556024 0.000000
0.399441 0.556867 0.000000
0.429276 0.557712 0.000000
0.459141 0.558620 0.000000
0.489035 0.559591 0.000000
0.518957 0.560625 0.000000
0.548906 0.561722 0.000000
0.578881 0.562882 0.000000
0.608882 0.564107 0.000000
0.638909 0.565396 0.000000
0.668960 0.566749 0.000000
0.699037 0.568167 0.000000
0.729139 0.569649 0.000000
0.759267 0.571195 0.000000
0.789364 0.572803 0.000000
0.819230 0.574480 0.000000
0.849035 0.576244 0.000000
0.878775 0.578099 0.000000
0.908450 0.580048 0.000000
0.000000 0.574434 0.000000
0.000000 0.575095 0.000000
0.020828 0.575789 0.000000
0.049382 0.576515 0.000000
0.078048 0.577269 0.000000
0.106828 0.578051 0.000000
0.135724 0.578858 0.000000
0.164735 0.579688 0.000000
0.193862 0.580540 0.000000
0.223103 0.581413 0.000000
0.252457 0.582306 0.000000
0.281919 0.583220 0.000000
0.311485 0.584153 0.000000
0.341211 0.585021 0.000000
0.371043 0.585861 0.000000
0.400905 0.586763 0.000000
0.430796 0.587727 0.000000
0.460716 0.588754 0.000000
0.490662 0.589845 0.000000
0.520635 0.590999 0.000000
0.550633 0.592217 0.000000
0.580657 0.593500 0.000000
0.610706 0.594847 0.000000
0.640780 0.596258 0.000000
0.670879 0.597734 0.000000
0.701005 0.599273 0.000000
0.731135 0.600872 0.000000
0.761080 0.602502 0.000000
0.790973 0.604215 0.000000
0.820808 0.606016 0.000000
0.850585 0.607906 0.000000
0.880302 0.609889 0.000000
0.909962 0.611966 0.000000
0.000000 0.603496 0.000000
0.000000 0.604265 0.000000
0.020642 0.605064 0.000000
0.049319 0.605890 0.000000
0.078111 0.606741 0.000000
0.107020 0.607615 0.000000
0.136048 0.608510 0.000000
0.165193 0.609425 0.000000
0.194454 0.610357 0.000000
0.223830 0.611308 0.000000
0.253314 0.612275 0.000000
0.282982 0.613177 0.000000
0.312810 0.614010 0.000000
0.342670 0.614906 0.000000
0.372558 0.615864 0.000000
0.402475 0.616885 0.000000
0.432418 0.617969 0.000000
0.462388 0.619117 0.000000
0.492384 0.620329 0.000000
0.522405 0.621605 0.000000
0.552452 0.622945 0.000000
0.582523 0.624350 0.000000
0.612620 0.625819 0.000000
0.642743 0.627352 0.000000
0.672891 0.628948 0.000000
0.702914 0.630533 0.000000
0.732893 0.632196 0.000000
0.762823 0.633943 0.000000
0.792700 0.635776 0.000000
0.822523 0.637698 0.000000
0.852292 0.639712 0.000000
0.882010 0.641819 0.000000
0.911681 0.644020 0.000000
0.000000 0.632850 0.000000
0.000000 0.633720 0.000000
0.020518 0.634616 0.000000
0.049325 0.635534 0.000000
0.078252 0.636472 0.000000
0.107301 0.637428 0.000000
0.136469 0.638401 0.000000
0.165756 0.639388 0.000000
0.195159 0.640391 0.000000
0.224753 0.641333 0.000000
0.254578 0.642160 0.000000
0.284434 0.643049 0.000000
0.314320 0.644001 0.000000
0.344234 0.645016 0.000000
0.374175 0.646093 0.000000
0.404142 0.647235 0.000000
0.434136 0.648440 0.000000
0.464154 0.649710 0.000000
0.494198 0.651044 0.000000
0.524267 0.652442 0.000000
0.554361 0.653904 0.000000
0.584481 0.655431 0.000000
0.614628 0.657022 0.000000
0.644732 0.658572 0.000000
0.674796 0.660187 0.000000
0.704818 0.661880 0.000000
0.734795 0.663656 0.000000
0.764722 0.665519 0.000000
0.794600 0.667471 0.000000
0.824430 0.669514 0.000000
0.854214 0.671650 0.000000
0.883956 0.673879 0.000000
0.913663 0.676201 0.000000
0.000000 0.662481 0.000000
0.000000 0.663444 0.000000
0.020476 0.664425 0.000000
0.049426 0.665423 0.000000
0.078500 0.666436 0.000000
0.107698 0.667462 0.000000
0.137018 0.668499 0.000000
0.166524 0.669490 0.000000
0.196346 0.670311 0.000000
0.226200 0.671194 0.000000
0.256082 0.672139 0.000000
0.285993 0.673147 0.000000
0.315932 0.674219 0.000000
0.345896 0.675354 0.000000
0.375887 0.676553 0.000000
0.405903 0.677816 0.000000
0.435944 0.679143 0.000000
0.466011 0.680535 0.000000
0.496103 0.681991 0.000000
0.526220 0.683511 0.000000
0.556364 0.685096 0.000000
0.586534 0.686621 0.000000
0.616682 0.688187 0.000000
0.646795 0.689827 0.000000
0.676869 0.691547 0.000000
0.706901 0.693351 0.000000
0.736887 0.695241 0.000000
0.766827 0.697221 0.000000
0.796724 0.699292 0.000000
0.826580 0.701455 0.000000
0.856399 0.703712 0.000000
0.886187 0.706061 0.000000
0.915949 0.708503 0.000235
0.000000 0.692369 0.000000
0.000000 0.693409 0.000000
0.020549 0.694463 0.000000
0.049657 0.695527 0.000000
0.078892 0.696600 0.000000
0.108296 0.697647 0.000000
0.138115 0.698462 0.000000
0.167965 0.699339 0.000000
0.197845 0.700278 0.000000
0.227753 0.701279 0.000000
0.257689 0.702344 0.000000
0.287651 0.703473 0.000000
0.317639 0.704666 0.000000
0.347652 0.705922 0.000000
0.377691 0.707243 0.000000
0.407755 0.708628 0.000000
0.437844 0.710078 0.000000
0.467959 0.711592 0.000000
0.498100 0.713170 0.000000
0.528321 0.714677 0.000000
0.558550 0.716196 0.000000
0.588753 0.717785 0.000000
0.618924 0.719449 0.000000
0.649058 0.721194 0.000000
0.679151 0.723023 0.000000
0.709203 0.724939 0.000000
0.739212 0.726946 0.000000
