static/luts/Pentax_Miyabi_33_Rec709.cube
TITLE "Pentax_Miyabi_33_Rec709"
# 33^3 LUT extracted from Pentax DCU Miyabi
LUT_3D_SIZE 9
DOMAIN_MIN 0.0 0.0 0.0
DOMAIN_MAX 1.0 1.0 1.0
0.000000 0.000000 0.000000
0.151042 0.000061 0.003983
0.280086 0.000123 0.008946
0.403370 0.000123 0.013664
0.520343 0.000245 0.020527
0.635723 0.001042 0.029167
0.753983 0.003125 0.043199
0.878003 0.008088 0.061581
1.000000 0.109498 0.161213
0.070833 0.128493 0.012010
0.142341 0.154289 0.021324
0.274939 0.155024 0.028493
0.399571 0.155453 0.032230
0.517095 0.155453 0.038909
0.633579 0.156556 0.046324
0.752757 0.158027 0.058211
0.877023 0.161029 0.075000
1.000000 0.218811 0.172733
0.080515 0.250613 0.031434
0.133885 0.284007 0.046998
0.266421 0.285294 0.051164
0.393321 0.285968 0.056127
0.512255 0.286275 0.061887
0.630209 0.287071 0.068444
0.750368 0.288358 0.078615
0.875552 0.289645 0.093382
1.000000 0.332843 0.186642
0.083701 0.383762 0.056985
0.117279 0.408578 0.074571
0.259069 0.408946 0.077390
0.384620 0.409375 0.082598
0.506189 0.409988 0.086703
0.625797 0.410845 0.092341
0.747610 0.411029 0.101716
0.873836 0.412561 0.113297
0.999510 0.447365 0.204473
0.084314 0.504657 0.081801
0.096140 0.525184 0.102145
0.246324 0.525490 0.104044
0.376532 0.526103 0.108701
0.498652 0.526654 0.111581
0.620710 0.526777 0.117402
0.744056 0.527818 0.124203
0.871874 0.528186 0.135846
0.999203 0.553860 0.223836
0.083027 0.625061 0.111091
0.062194 0.641177 0.133456
0.228493 0.641544 0.135294
0.365135 0.641544 0.138664
0.489706 0.641851 0.142463
0.613909 0.642525 0.146507
0.739277 0.642954 0.154167
0.868382 0.643812 0.163664
0.998775 0.660907 0.247733
0.078431 0.748100 0.148039
0.006985 0.759620 0.174081
0.200368 0.759865 0.176042
0.344792 0.759926 0.178431
0.473713 0.760049 0.181128
0.603676 0.760049 0.185478
0.732231 0.760784 0.191115
0.864705 0.761029 0.199877
0.998039 0.772120 0.279963
0.071201 0.875184 0.210355
0.000000 0.882844 0.228677
0.150306 0.882844 0.229780
0.311091 0.882844 0.232353
0.447488 0.882966 0.234620
0.585907 0.883150 0.238603
0.720527 0.883273 0.242463
0.857414 0.883579 0.251164
0.997059 0.889155 0.321324
0.165625 0.999877 0.363787
0.111336 1.000000 0.376287
0.111520 1.000000 0.377145
0.250123 1.000000 0.381556
0.397549 1.000000 0.388051
0.546139 1.000000 0.397610
0.689890 1.000000 0.412439
0.833823 1.000000 0.438052
0.995956 1.000000 0.536458
0.001900 0.000000 0.131679
0.150000 0.000000 0.133701
0.281005 0.000000 0.137255
0.403921 0.000000 0.138725
0.520588 0.000000 0.142402
0.636275 0.000000 0.145956
0.754412 0.000000 0.153677
0.878126 0.000184 0.164093
1.000000 0.100858 0.237378
0.077819 0.120159 0.118689
0.144669 0.144240 0.144302
0.275306 0.144179 0.146201
0.399448 0.145466 0.149510
0.517279 0.145711 0.153003
0.633640 0.146140 0.157782
0.752819 0.148346 0.163664
0.877145 0.150735 0.173652
1.000000 0.212377 0.245282
0.083211 0.249387 0.132047
0.133701 0.277451 0.156985
0.266850 0.278186 0.160233
0.393260 0.279166 0.162806
0.512500 0.279412 0.166360
0.630147 0.280392 0.169485
0.750735 0.281250 0.176103
0.875859 0.282292 0.185233
0.999816 0.327696 0.257414
0.085172 0.380269 0.145711
0.117341 0.403247 0.173468
0.259559 0.403737 0.175000
0.384988 0.404166 0.178431
0.505944 0.404350 0.181495
0.625980 0.404902 0.185294
0.747794 0.405882 0.191483
0.873774 0.407169 0.200551
0.999510 0.442953 0.271140
0.085172 0.501899 0.163358
0.096752 0.521507 0.191544
0.246078 0.521752 0.193566
0.377267 0.521752 0.196017
0.498775 0.522733 0.199694
0.620956 0.523284 0.202941
0.744240 0.523529 0.207414
0.871874 0.524571 0.216667
0.999081 0.551041 0.287132
0.083456 0.622978 0.191912
0.062316 0.638603 0.214890
0.228493 0.638603 0.216973
0.364829 0.638787 0.218505
0.489583 0.638971 0.221385
0.613970 0.640074 0.224571
0.739461 0.639890 0.230208
0.868627 0.640748 0.238664
0.998591 0.659130 0.307659
0.078676 0.746569 0.226471
0.006863 0.757721 0.246262
0.200429 0.757843 0.247610
0.343873 0.758272 0.249877
0.473285 0.758333 0.251777
0.603676 0.758272 0.254963
0.732169 0.758946 0.259620
0.864705 0.759314 0.267279
0.998039 0.770466 0.335233
0.071324 0.874388 0.275245
0.000000 0.881802 0.291483
0.149939 0.881863 0.292831
0.310784 0.881925 0.294853
0.447917 0.881863 0.296323
0.585784 0.882231 0.299510
0.720589 0.882231 0.303186
0.857536 0.882537 0.310356
0.997059 0.888359 0.372978
0.167402 0.999877 0.408885
0.113480 1.000000 0.420649
0.113971 1.000000 0.421507
0.251532 1.000000 0.425490
0.398284 1.000000 0.431679
0.546875 1.000000 0.440013
0.690687 1.000000 0.453615
0.834191 1.000000 0.477635
0.996201 1.000000 0.566238
0.001348 0.000000 0.247243
0.149081 0.000000 0.249203
0.278370 0.000000 0.250919
0.403186 0.000000 0.252328
0.519791 0.000000 0.254657
0.635539 0.000000 0.257598
0.754289 0.000000 0.262684
0.877881 0.000000 0.270098
1.000000 0.095221 0.325797
0.083395 0.105515 0.227757
0.143811 0.126287 0.255024
0.273652 0.127819 0.257414
0.399019 0.128125 0.258701
0.516360 0.128248 0.261458
0.632843 0.131189 0.264032
0.752880 0.131189 0.269179
0.877084 0.134069 0.276042
1.000000 0.201471 0.333578
0.085600 0.239277 0.239154
0.130821 0.267034 0.264706
0.267034 0.266912 0.267279
0.392095 0.267463 0.268872
0.511336 0.267402 0.271875
0.629473 0.268198 0.274387
0.750368 0.269118 0.278799
0.875246 0.270833 0.286520
0.999571 0.318995 0.342892
0.086152 0.372426 0.254657
0.113664 0.394363 0.277144
0.257353 0.394669 0.277696
0.383885 0.394975 0.280821
0.504718 0.395894 0.283456
0.625184 0.396568 0.286029
0.747427 0.396691 0.290319
0.873468 0.398039 0.297549
0.999449 0.435845 0.354534
0.085600 0.495282 0.270466
0.092892 0.514461 0.291176
0.243873 0.514767 0.292157
0.376225 0.515380 0.294118
0.497733 0.515931 0.296385
0.620098 0.515993 0.299387
0.743811 0.516912 0.303431
0.871323 0.517892 0.310294
0.999020 0.545282 0.368015
0.083395 0.618811 0.289645
0.058150 0.633579 0.308395
0.227574 0.634008 0.309253
0.363481 0.633946 0.311152
0.487868 0.634069 0.314216
0.613051 0.634682 0.317096
0.738542 0.635233 0.321079
0.868688 0.635417 0.327696
0.998529 0.654535 0.385171
0.078309 0.743811 0.317647
0.004473 0.754657 0.334314
0.197733 0.754657 0.335172
0.342708 0.754657 0.337071
0.471937 0.754779 0.338848
0.602696 0.755208 0.341605
0.731924 0.755637 0.345343
0.864215 0.755882 0.351409
0.998039 0.767708 0.408946
0.071324 0.872427 0.358027
0.000000 0.879535 0.371936
0.146752 0.879658 0.372855
0.309252 0.879719 0.374632
0.446569 0.879964 0.376042
0.584743 0.879780 0.378615
0.719976 0.880148 0.381679
0.857230 0.880393 0.387867
0.997059 0.886275 0.442402
0.169179 0.999877 0.471875
0.115686 1.000000 0.481924
0.115870 1.000000 0.482905
0.251471 1.000000 0.486458
0.399265 1.000000 0.491667
0.547059 1.000000 0.498652
0.690993 1.000000 0.510171
0.834558 1.000000 0.529718
0.996201 1.000000 0.607292
0.000613 0.000000 0.356618
0.145037 0.000000 0.359191
0.276103 0.000000 0.359927
0.400551 0.000000 0.361826
0.517953 0.000000 0.362929
0.634253 0.000000 0.365503
0.753738 0.000000 0.369056
0.877452 0.000000 0.375000
0.999939 0.093505 0.421140
0.086642 0.082843 0.340257
0.139828 0.100429 0.363603
0.270282 0.101654 0.364890
0.396752 0.102145 0.366667
0.515012 0.103493 0.368505
0.632169 0.104841 0.370895
0.752083 0.105944 0.373836
0.876287 0.108824 0.379718
0.999694 0.187623 0.426103
0.087377 0.224571 0.349449
0.127083 0.250735 0.371201
0.265931 0.251103 0.371936
0.390564 0.252145 0.374387
0.510171 0.252512 0.375551
0.628677 0.254167 0.378309
0.749694 0.254657 0.381127
0.875000 0.256556 0.386887
0.999510 0.308824 0.433823
0.087194 0.361949 0.360662
0.110233 0.382598 0.380331
0.255208 0.382966 0.381556
0.383333 0.383640 0.383517
0.503615 0.383395 0.385600
0.624632 0.384191 0.388113
0.746691 0.385171 0.391421
0.873345 0.386029 0.397610
0.999081 0.426225 0.444424
0.086152 0.486581 0.374387
0.087806 0.505699 0.392095
0.241544 0.505147 0.393382
0.374020 0.505882 0.394485
0.496324 0.506434 0.396997
0.618995 0.507230 0.398652
0.743199 0.507475 0.402880
0.871139 0.508701 0.408088
0.998958 0.537622 0.456005
0.083578 0.612623 0.390135
0.051961 0.626961 0.406679
0.223713 0.627084 0.407843
0.361152 0.627451 0.409743
0.486520 0.627819 0.410662
0.611703 0.628187 0.413480
0.738113 0.628738 0.416605
0.868259 0.629657 0.421875
0.998529 0.649081 0.470282
0.077941 0.739583 0.412990
0.001900 0.750123 0.427757
0.194547 0.750306 0.428492
0.340441 0.750306 0.430086
0.470650 0.750674 0.432108
0.601716 0.750490 0.434130
0.731005 0.750797 0.437500
0.863909 0.751532 0.442770
0.997978 0.763787 0.490503
0.071385 0.870098 0.447610
0.000000 0.877207 0.459498
0.143995 0.877268 0.460723
0.306801 0.877268 0.462133
0.445282 0.877391 0.463297
0.583578 0.877329 0.465135
0.719241 0.877452 0.468811
0.856617 0.877942 0.473775
0.997059 0.884069 0.517769
0.171262 0.999816 0.540318
0.118444 1.000000 0.548774
0.118689 1.000000 0.549571
0.250919 1.000000 0.552451
0.398897 1.000000 0.556372
0.547304 1.000000 0.562194
0.691299 1.000000 0.571079
0.834865 1.000000 0.587316
0.996324 1.000000 0.652880
0.000000 0.000000 0.463052
0.142892 0.000000 0.464338
0.274265 0.000000 0.465870
0.399019 0.000000 0.466606
0.516115 0.000000 0.468444
0.633272 0.000000 0.469976
0.752819 0.000000 0.473591
0.877023 0.000000 0.478309
0.999571 0.094792 0.515502
0.088787 0.048775 0.447794
0.135049 0.063542 0.468321
0.268995 0.065074 0.470037
0.394914 0.067953 0.470772
0.512745 0.067708 0.472365
0.631189 0.068015 0.474878
0.750980 0.071752 0.477267
0.876042 0.076287 0.482476
0.999510 0.167463 0.519118
0.088480 0.204167 0.455454
0.121752 0.231128 0.474571
0.262806 0.231128 0.475797
0.388235 0.232169 0.477084
0.508395 0.233517 0.478983
0.627941 0.234008 0.480515
0.748468 0.235294 0.483579
0.874694 0.236704 0.488297
0.999326 0.293873 0.525000
0.088051 0.347917 0.464461
0.106434 0.368505 0.482476
0.251654 0.368260 0.483272
0.381801 0.369179 0.484865
0.502696 0.369730 0.486765
0.623529 0.370159 0.488113
0.745772 0.371262 0.491422
0.872732 0.373223 0.495650
0.999020 0.415502 0.532782
0.086275 0.477206 0.474939
0.081434 0.494853 0.491789
0.239032 0.494976 0.492341
0.372672 0.495037 0.493934
0.495343 0.495711 0.495588
0.618076 0.496140 0.497917
0.742463 0.496324 0.500184
0.870649 0.497549 0.504718
0.998713 0.528983 0.541850
0.083456 0.605147 0.489706
0.045588 0.619179 0.504044
0.219669 0.619424 0.505147
0.358027 0.619669 0.506127
0.485049 0.619730 0.507721
0.610907 0.620220 0.509436
0.737316 0.620894 0.512194
0.867708 0.621507 0.516483
0.998346 0.642402 0.553063
0.077267 0.734314 0.507720
0.000797 0.744730 0.521201
0.192157 0.744853 0.521691
0.338480 0.745037 0.523039
0.468811 0.745466 0.524142
0.600797 0.745343 0.526041
0.730086 0.745956 0.528492
0.863357 0.746385 0.532230
0.997733 0.759314 0.569608
0.071446 0.866973 0.535233
0.000000 0.874081 0.546078
0.139890 0.874204 0.546752
0.303738 0.874204 0.547733
0.442770 0.874265 0.548835
0.582108 0.874449 0.550551
0.718505 0.874633 0.552573
0.856066 0.874939 0.557291
0.996998 0.881251 0.591912
0.173039 0.999755 0.608149
0.121324 1.000000 0.614583
0.121385 1.000000 0.615073
0.248836 1.000000 0.617157
0.398039 1.000000 0.620466
0.546630 1.000000 0.624633
0.691790 1.000000 0.632292
0.835355 1.000000 0.645895
0.996814 1.000000 0.700184
0.000000 0.000000 0.575490
0.137561 0.000000 0.576838
0.270343 0.000000 0.577696
0.395465 0.000000 0.578248
0.514277 0.000000 0.579473
0.631679 0.000000 0.581189
0.751287 0.000000 0.582966
0.876165 0.000000 0.586642
0.999449 0.094608 0.613235
0.090257 0.000368 0.562255
0.128554 0.000797 0.579718
0.266421 0.001103 0.580270
0.391544 0.002941 0.581556
0.511152 0.003248 0.582476
0.629351 0.003799 0.584069
0.749755 0.007904 0.586152
0.875307 0.012745 0.589828
0.999265 0.137316 0.616054
0.089767 0.173958 0.568015
0.117463 0.202022 0.584069
0.258333 0.202512 0.584926
0.385171 0.203370 0.585784
0.506250 0.205147 0.587010
0.626042 0.204963 0.588725
0.747733 0.206924 0.590380
0.873774 0.208272 0.594179
0.999020 0.273774 0.620282
0.088480 0.328064 0.575368
0.099449 0.347917 0.589767
0.247549 0.348407 0.590441
0.378799 0.348652 0.591115
0.500000 0.348652 0.592708
0.621752 0.349694 0.594056
0.744730 0.350674 0.596201
0.872303 0.351900 0.599387
0.998775 0.398591 0.626287
0.086458 0.461887 0.582904
0.076226 0.478922 0.596324
0.234681 0.479106 0.596936
0.369363 0.478922 0.597978
0.493566 0.480209 0.598958
0.616605 0.480454 0.600490
0.740993 0.480883 0.602757
0.870036 0.481924 0.605882
0.998529 0.517402 0.632721
0.083027 0.594975 0.593198
0.037010 0.608640 0.605024
0.216973 0.608823 0.605882
0.355515 0.608762 0.606556
0.482659 0.609007 0.607966
0.609497 0.609559 0.609436
0.736213 0.609804 0.611826
0.866727 0.610355 0.615073
0.998101 0.632904 0.642280
0.076164 0.727267 0.607475
0.000000 0.737194 0.618260
0.186887 0.737378 0.618811
0.334865 0.737745 0.619791
0.466973 0.737806 0.620895
0.598652 0.738052 0.621753
0.728554 0.738542 0.623836
0.862622 0.738971 0.627022
0.997610 0.752757 0.654351
0.071446 0.862499 0.628615
0.000000 0.869423 0.637316
0.133885 0.869423 0.637990
0.301042 0.869423 0.639032
0.439829 0.869485 0.639951
0.580576 0.869852 0.640870
0.716912 0.869791 0.643199
0.855453 0.870404 0.645833
0.996814 0.877389 0.672059
0.174816 0.999755 0.683027
0.123713 1.000000 0.688052
0.123897 1.000000 0.688604
0.247978 1.000000 0.689952
0.396814 1.000000 0.692464
0.546875 1.000000 0.695834
0.691728 1.000000 0.701226
0.835478 1.000000 0.711459
0.997243 1.000000 0.755331
0.000000 0.000000 0.692770
0.128186 0.000000 0.693751
0.265870 0.000000 0.694241
0.391605 0.000000 0.695037
0.510968 0.000000 0.695405
0.629473 0.000000 0.696692
0.749755 0.000000 0.698162
0.875307 0.000000 0.700858
0.999020 0.104596 0.718505
0.090993 0.000000 0.682782
0.119302 0.000000 0.695773
0.260417 0.000000 0.696263
0.387316 0.000000 0.697243
0.507537 0.000000 0.697795
0.626838 0.000000 0.698959
0.748101 0.000000 0.700307
0.874326 0.000000 0.702819
0.998958 0.118260 0.720160
0.090196 0.131985 0.686826
0.108578 0.154657 0.699143
0.252574 0.155392 0.699510
0.382537 0.155515 0.700123
0.502328 0.156740 0.701042
0.623284 0.158762 0.702329
0.746324 0.159620 0.703493
0.872977 0.161949 0.705760
0.998775 0.242708 0.723346
0.088603 0.296446 0.691973
0.089093 0.315686 0.703064
0.242770 0.315870 0.703738
0.374142 0.316912 0.704045
0.496017 0.317402 0.705086
0.618688 0.318260 0.706005
0.743382 0.319179 0.707353
0.871200 0.319731 0.709743
0.998529 0.375245 0.727696
0.086213 0.437378 0.697243
0.065257 0.453983 0.707721
0.228738 0.453615 0.707966
0.365135 0.454289 0.708824
0.489583 0.454473 0.710049
0.613909 0.455454 0.710785
0.739767 0.456128 0.712133
0.868933 0.457353 0.714400
0.998284 0.498162 0.732169
0.082169 0.578615 0.704718
0.021507 0.591544 0.714093
0.210784 0.591728 0.714584
0.351532 0.592096 0.715013
0.478554 0.592218 0.715932
0.607046 0.592525 0.717157
0.734743 0.593199 0.718383
0.865931 0.594302 0.720895
0.997978 0.620282 0.738971
0.074816 0.716728 0.714706
0.000000 0.726226 0.723101
0.180270 0.726532 0.723407
0.330576 0.726471 0.724142
0.463358 0.727084 0.725000
0.595956 0.727022 0.726042
0.727574 0.727390 0.727329
0.861519 0.727635 0.729657
0.997488 0.743750 0.747855
0.071385 0.856004 0.730331
0.000000 0.862622 0.737316
0.125551 0.862683 0.737868
0.295221 0.862806 0.738419
0.435662 0.862806 0.739032
0.578003 0.863051 0.739890
0.715503 0.863418 0.741422
0.854227 0.863725 0.743199
0.996569 0.871507 0.761519
0.175123 0.999755 0.768566
0.124449 1.000000 0.772181
0.124632 1.000000 0.772549
0.243444 1.000000 0.773774
0.393934 1.000000 0.775306
0.545527 1.000000 0.777573
0.691790 1.000000 0.781250
0.836703 1.000000 0.788174
0.997549 1.000000 0.820711
0.000000 0.000000 0.819730
0.114032 0.000000 0.820343
0.257537 0.000000 0.820649
0.384681 0.000000 0.821262
0.504841 0.000000 0.821568
0.625368 0.000000 0.822365
0.747365 0.000000 0.823223
0.873652 0.000000 0.824877
0.998591 0.121814 0.834007
0.090931 0.000000 0.812867
0.104596 0.000000 0.821630
0.251593 0.000000 0.821875
0.381801 0.000000 0.822488
0.501287 0.000000 0.823100
0.623162 0.000000 0.823713
0.745588 0.000000 0.824571
0.873039 0.000000 0.825919
0.998468 0.119914 0.835110
0.089522 0.035355 0.815380
0.092463 0.049020 0.823713
0.243750 0.049877 0.824142
0.375551 0.050674 0.824510
0.497243 0.052757 0.825245
0.619669 0.053922 0.825551
0.743505 0.057843 0.826593
0.871568 0.061520 0.828125
0.998468 0.186458 0.837193
0.087561 0.238909 0.818382
0.071262 0.259497 0.826103
0.231985 0.259988 0.826470
0.366912 0.259988 0.827144
0.491422 0.260845 0.827573
0.614951 0.262132 0.828186
0.740380 0.262194 0.829166
0.869485 0.264154 0.830759
0.998101 0.334743 0.840134
0.084681 0.395466 0.821936
0.041054 0.411336 0.829289
0.219056 0.411458 0.829534
0.357598 0.412132 0.830085
0.483946 0.412071 0.830576
0.609743 0.413113 0.831495
0.736581 0.413909 0.832291
0.867401 0.415747 0.833456
0.997978 0.466483 0.843382
0.080331 0.549755 0.826715
0.007353 0.562377 0.833456
0.200858 0.562500 0.833762
0.343566 0.563174 0.834130
0.472917 0.563235 0.834742
0.603125 0.563971 0.835539
0.732047 0.565074 0.836274
0.864950 0.565441 0.837500
0.997610 0.597917 0.847732
0.072733 0.698285 0.833333
0.000000 0.707537 0.839215
0.168995 0.707660 0.839522
0.322794 0.707537 0.840012
0.457476 0.708089 0.840563
0.592402 0.708517 0.840931
0.725000 0.708456 0.841973
0.860294 0.709314 0.843321
0.997120 0.728554 0.854044
0.071324 0.845343 0.843137
0.000000 0.851838 0.848651
0.111213 0.851776 0.848835
0.287561 0.851899 0.849080
0.429534 0.852083 0.849509
0.573346 0.852205 0.850061
0.712562 0.852267 0.851225
0.853002 0.852757 0.852512
0.996385 0.862071 0.863419
0.168873 0.999387 0.867463
0.118811 1.000000 0.869485
0.119179 1.000000 0.870098
0.231189 1.000000 0.870527
0.386029 1.000000 0.871262
0.541728 1.000000 0.872426
0.689645 1.000000 0.874633
0.836826 1.000000 0.878065
0.998284 1.000000 0.898285
0.000000 0.000000 0.987868
0.075674 0.000000 0.987990
0.236397 0.000000 0.988052
0.371691 0.000000 0.988052
0.496201 0.000000 0.988052
0.618505 0.000000 0.988419
0.742647 0.000000 0.988664
0.871261 0.000000 0.988971
0.997917 0.184436 0.988297
0.088848 0.000000 0.985539
0.063971 0.000000 0.988235
0.230515 0.000000 0.988358
0.367157 0.000000 0.988481
0.492586 0.000000 0.988542
0.615073 0.000000 0.988726
0.741177 0.000000 0.988909
0.870404 0.000000 0.989155
0.997672 0.181311 0.988787
0.087010 0.000000 0.986275
0.047365 0.000000 0.988787
0.221569 0.000000 0.988909
0.360417 0.000000 0.988971
0.487561 0.000000 0.989093
0.611519 0.000000 0.989338
0.738787 0.000000 0.989277
0.868749 0.000000 0.989767
0.997672 0.176655 0.989216
0.084498 0.013909 0.987132
0.022304 0.019179 0.989522
0.211703 0.019547 0.989645
0.351961 0.020466 0.989706
0.480454 0.020650 0.989829
0.608027 0.022733 0.989951
0.735478 0.025919 0.990012
0.866911 0.030270 0.990503
0.997610 0.222549 0.989767
0.080392 0.260171 0.987684
0.008762 0.278493 0.990196
0.195711 0.278983 0.990196
0.342279 0.278676 0.990257
0.472733 0.280024 0.990503
0.602328 0.280331 0.990625
0.731986 0.280821 0.990931
0.864828 0.282720 0.991483
0.997243 0.382843 0.990748
0.074939 0.457966 0.989032
0.002451 0.471324 0.991299
0.175245 0.471385 0.991422
0.327880 0.471385 0.991483
0.460539 0.471936 0.991728
0.594792 0.472794 0.991728
0.727084 0.472549 0.991851
0.862070 0.474387 0.992341
0.997181 0.539461 0.992157
0.073039 0.641912 0.990809
0.000000 0.651471 0.992647
0.140257 0.651777 0.992647
0.305882 0.651777 0.992831
0.444424 0.651777 0.992831
0.583088 0.651961 0.992953
0.719118 0.652329 0.993076
0.856985 0.653125 0.993321
0.996630 0.689522 0.993444
0.070895 0.813174 0.993076
0.000000 0.819424 0.994730
0.072181 0.819424 0.994730
0.269608 0.819485 0.994792
0.415625 0.819914 0.994914
0.564277 0.819669 0.995037
0.706986 0.819791 0.995282
0.850183 0.820282 0.995650
0.995772 0.838296 0.996140
0.081985 0.998591 0.998346
0.015564 0.999877 0.998775
0.015931 0.999877 0.998836
0.146814 0.999939 0.998836
0.333088 0.999877 0.998897
0.506556 0.999939 0.998897
0.670221 0.999939 0.998897
0.828125 1.000000 0.999142
0.999142 1.000000 0.999510
