static/luts/Pentax_Miyabi_33_Rec709.cube
TITLE "Pentax_Miyabi_33_Rec709"
# 33^3 LUT extracted from Pentax DCU Miyabi
LUT_3D_SIZE 33
DOMAIN_MIN 0.0 0.0 0.0
DOMAIN_MAX 1.0 1.0 1.0
0.000000 0.000000 0.000000
0.043076 0.000000 0.001103
0.081250 0.000000 0.001716
0.115809 0.000000 0.003309
0.151042 0.000061 0.003983
0.184007 0.000000 0.005270
0.217157 0.000061 0.006434
0.249020 0.000000 0.006556
0.280086 0.000123 0.008946
0.312500 0.000061 0.009926
0.342463 0.000184 0.011949
0.372978 0.000429 0.011458
0.403370 0.000123 0.013664
0.432598 0.000184 0.015257
0.462500 0.000368 0.016728
0.491851 0.000184 0.018015
0.520343 0.000245 0.020527
0.548345 0.000797 0.022794
0.577451 0.001103 0.025000
0.606311 0.001042 0.026532
0.635723 0.001042 0.029167
0.664890 0.001593 0.033456
0.694302 0.002390 0.036397
0.724081 0.004167 0.038664
0.753983 0.003125 0.043199
0.784559 0.004289 0.046385
0.815502 0.006066 0.049755
0.846139 0.006495 0.055147
0.878003 0.008088 0.061581
0.910356 0.008088 0.068076
0.942403 0.010846 0.073468
0.975491 0.013787 0.079902
1.000000 0.109498 0.161213
0.051900 0.030025 0.002328
0.036642 0.043137 0.004841
0.076900 0.044118 0.005025
0.114706 0.043750 0.006434
0.148346 0.043689 0.006801
0.182476 0.044547 0.008211
0.216176 0.044792 0.010049
0.247059 0.045588 0.009865
0.279412 0.043689 0.012255
0.310723 0.045466 0.012929
0.342096 0.043750 0.015196
0.372549 0.043627 0.017034
0.402206 0.044669 0.016789
0.432291 0.046752 0.018873
0.462010 0.045527 0.019608
0.490931 0.046752 0.023346
0.518995 0.047365 0.024632
0.548039 0.046630 0.026777
0.576838 0.046875 0.028431
0.605576 0.048284 0.032659
0.634927 0.048591 0.034865
0.664032 0.049632 0.037132
0.694179 0.048407 0.039645
0.723836 0.050184 0.043137
0.753738 0.051777 0.046507
0.784375 0.052941 0.049939
0.815073 0.052512 0.054718
0.846078 0.055270 0.057843
0.877636 0.053554 0.063848
0.909927 0.054963 0.070221
0.942158 0.058150 0.075980
0.975368 0.056189 0.081985
1.000000 0.138542 0.164338
0.059926 0.061703 0.004657
0.038971 0.080208 0.006250
0.073958 0.081985 0.009252
0.111887 0.082108 0.010110
0.146140 0.083150 0.012316
0.181250 0.081924 0.014583
0.213970 0.082230 0.014767
0.246875 0.082659 0.015564
0.277757 0.083885 0.015686
0.309375 0.083946 0.016605
0.340380 0.083762 0.018934
0.370772 0.084130 0.020895
0.401777 0.084130 0.022794
0.431005 0.084191 0.024203
0.461336 0.084681 0.026348
0.490012 0.084191 0.026471
0.518811 0.084620 0.028064
0.546997 0.086091 0.030760
0.576471 0.086275 0.032904
0.605147 0.085417 0.035539
0.634927 0.085723 0.038419
0.663909 0.086520 0.039522
0.693567 0.087868 0.042586
0.723652 0.087010 0.046814
0.753431 0.088174 0.049816
0.784007 0.088848 0.053983
0.814767 0.090441 0.057782
0.845710 0.090748 0.062623
0.877207 0.091912 0.066973
0.909927 0.091299 0.072733
0.942158 0.093566 0.078676
0.975245 0.091851 0.084314
1.000000 0.163971 0.166728
0.066176 0.097304 0.007230
0.033517 0.119240 0.010723
0.074816 0.118750 0.013051
0.109498 0.119240 0.015686
0.143934 0.119240 0.016299
0.177941 0.119853 0.018505
0.212868 0.120221 0.019914
0.244547 0.119914 0.021262
0.276838 0.120037 0.020833
0.308211 0.120588 0.024142
0.339461 0.119547 0.023958
0.370404 0.120037 0.026103
0.401348 0.120037 0.027267
0.430576 0.121078 0.029718
0.459743 0.120895 0.030392
0.489461 0.121446 0.032230
0.517524 0.121814 0.032904
0.546385 0.121569 0.035601
0.575368 0.122181 0.036336
0.604350 0.122978 0.040257
0.634375 0.123162 0.042463
0.663235 0.123713 0.044301
0.693260 0.123468 0.047304
0.722917 0.124265 0.050797
0.753247 0.123591 0.053860
0.783762 0.123958 0.058456
0.814399 0.125735 0.061213
0.845588 0.125490 0.066176
0.877207 0.126716 0.070098
0.909621 0.127757 0.076532
0.942096 0.127267 0.083578
0.975000 0.126593 0.089093
1.000000 0.191789 0.169424
0.070833 0.128493 0.012010
0.031863 0.152512 0.017586
0.072978 0.152635 0.017831
0.108885 0.153186 0.019914
0.142341 0.154289 0.021324
0.176716 0.153983 0.023039
0.209375 0.154105 0.024265
0.243444 0.153799 0.025123
0.274939 0.155024 0.028493
0.307292 0.154596 0.028615
0.337868 0.154963 0.030208
0.368321 0.155515 0.030331
0.399571 0.155453 0.032230
0.428799 0.155453 0.033088
0.459191 0.156066 0.035294
0.488726 0.155331 0.038051
0.517095 0.155453 0.038909
0.545404 0.156679 0.040993
0.574939 0.156740 0.042218
0.604105 0.156495 0.043627
0.633579 0.156556 0.046324
0.662990 0.157047 0.049939
0.692341 0.157782 0.052451
0.722488 0.158762 0.056189
0.752757 0.158027 0.058211
0.783149 0.158946 0.061336
0.813970 0.159927 0.066605
0.845159 0.160110 0.068750
0.877023 0.161029 0.075000
0.909314 0.161765 0.081066
0.941974 0.162255 0.085846
0.974878 0.160846 0.091728
1.000000 0.218811 0.172733
0.074265 0.157598 0.016115
0.025613 0.187010 0.023284
0.068076 0.186703 0.023897
0.104841 0.186765 0.026777
0.142831 0.187132 0.028799
0.173346 0.187929 0.029289
0.208762 0.187500 0.030821
0.240257 0.187623 0.033517
0.273836 0.188480 0.033211
0.305086 0.188603 0.033395
0.336887 0.188725 0.036091
0.367647 0.189216 0.037990
0.397916 0.189154 0.037377
0.428309 0.188971 0.039032
0.457782 0.189461 0.042586
0.487439 0.189093 0.043811
0.515686 0.189216 0.043995
0.544240 0.190257 0.046017
0.573713 0.190380 0.047978
0.603125 0.190196 0.051103
0.632415 0.190074 0.052635
0.662071 0.190686 0.054779
0.691728 0.191422 0.056802
0.721998 0.190625 0.060784
0.752206 0.191728 0.062745
0.782904 0.192402 0.065502
0.813541 0.193260 0.070282
0.845036 0.193444 0.072794
0.876594 0.194240 0.078922
0.909008 0.193689 0.084743
0.941667 0.195098 0.089645
0.974755 0.194424 0.095098
1.000000 0.246998 0.175919
0.076961 0.187929 0.021630
0.019853 0.220282 0.031556
0.063113 0.219853 0.031679
0.104779 0.219608 0.033640
0.137868 0.220895 0.033640
0.174449 0.221017 0.035294
0.205024 0.220895 0.037806
0.238113 0.221814 0.037868
0.270894 0.221385 0.039890
0.303247 0.221262 0.040441
0.334988 0.221630 0.041973
0.365809 0.222427 0.042586
0.396997 0.221875 0.044301
0.426715 0.221875 0.045588
0.456802 0.222549 0.046630
0.485846 0.222978 0.049510
0.514522 0.223468 0.050245
0.543566 0.223039 0.052206
0.573284 0.223223 0.053615
0.602083 0.223101 0.054412
0.632047 0.224081 0.056740
0.661581 0.223223 0.059865
0.691300 0.223836 0.062929
0.721753 0.224939 0.064216
0.751654 0.224204 0.068321
0.782291 0.224633 0.070588
0.813174 0.225797 0.075123
0.844546 0.225674 0.078309
0.876287 0.226348 0.083395
0.908579 0.226838 0.089277
0.941483 0.227390 0.094792
0.974633 0.226471 0.099694
1.000000 0.276103 0.179289
0.079105 0.215870 0.026777
0.014461 0.252083 0.037745
0.059375 0.251961 0.038297
0.099939 0.252206 0.039093
0.136642 0.252819 0.039461
0.170098 0.252512 0.041544
0.204963 0.252635 0.043015
0.235478 0.253247 0.044240
0.268934 0.253554 0.046569
0.300980 0.253431 0.046446
0.333395 0.253983 0.048223
0.364155 0.253860 0.049877
0.394179 0.254289 0.049203
0.425184 0.254289 0.050858
0.454718 0.254779 0.052574
0.484682 0.254167 0.055208
0.513664 0.254350 0.056127
0.542708 0.255086 0.057476
0.571753 0.255208 0.059191
0.601103 0.254963 0.061520
0.631067 0.254963 0.064216
0.660539 0.255515 0.065380
0.690626 0.256189 0.067708
0.720711 0.255821 0.070895
0.751042 0.256618 0.073223
0.781801 0.256924 0.075613
0.812683 0.256801 0.079779
0.844178 0.257843 0.082537
0.875675 0.258333 0.087623
0.908334 0.257966 0.093444
0.941177 0.259130 0.098529
0.974510 0.258456 0.103922
1.000000 0.303922 0.183150
0.080515 0.250613 0.031434
0.008946 0.283946 0.044792
0.053860 0.284130 0.045527
0.095282 0.284069 0.047059
0.133885 0.284007 0.046998
0.168811 0.284191 0.047672
0.202696 0.284253 0.048713
0.234069 0.284927 0.050735
0.266421 0.285294 0.051164
0.299203 0.285110 0.053799
0.330392 0.285478 0.055025
0.361520 0.286152 0.054718
0.393321 0.285968 0.056127
0.423039 0.286030 0.056924
0.453615 0.286581 0.058701
0.483334 0.285907 0.059436
0.512255 0.286275 0.061887
0.541054 0.286826 0.063971
0.570834 0.287132 0.065135
0.600184 0.287071 0.065931
0.630209 0.287071 0.068444
0.659865 0.287132 0.071201
0.689706 0.287500 0.073346
0.720037 0.287439 0.075368
0.750368 0.288358 0.078615
0.781127 0.288603 0.081005
0.812377 0.288542 0.083701
0.843872 0.289154 0.087684
0.875552 0.289645 0.093382
0.908089 0.289400 0.098223
0.940993 0.290502 0.103493
0.974388 0.290135 0.108578
1.000000 0.332843 0.186642
0.081679 0.285355 0.038358
0.004350 0.315625 0.051164
0.047304 0.315870 0.052022
0.091299 0.315686 0.053125
0.129105 0.316299 0.054596
0.166238 0.315809 0.054412
0.200919 0.316238 0.054841
0.233640 0.316299 0.055882
0.264032 0.317034 0.059191
0.296691 0.316667 0.060110
0.328615 0.316728 0.061458
0.359988 0.317218 0.062377
0.391176 0.317463 0.061458
0.421446 0.317586 0.063113
0.451961 0.317708 0.066544
0.481250 0.317586 0.066728
0.511397 0.317525 0.067586
0.539889 0.318321 0.069608
0.569792 0.318383 0.071385
0.599020 0.318015 0.073101
0.629473 0.318260 0.075552
0.659069 0.318566 0.076593
0.688910 0.319363 0.078677
0.719547 0.318873 0.081863
0.749694 0.319608 0.083395
0.780698 0.320037 0.086091
0.812009 0.320343 0.090196
0.843443 0.320711 0.092770
0.875185 0.321079 0.097672
0.907844 0.320772 0.103125
0.940503 0.321753 0.108150
0.974326 0.320956 0.112806
0.999939 0.361458 0.191238
0.082414 0.318811 0.045159
0.001471 0.346998 0.058762
0.039522 0.347120 0.059314
0.086213 0.347120 0.060478
0.126838 0.346937 0.060478
0.162132 0.347427 0.061213
0.197243 0.347243 0.061765
0.230515 0.347549 0.062990
0.262806 0.347611 0.065564
0.294914 0.348039 0.066605
0.325919 0.348162 0.068260
0.357905 0.347856 0.067953
0.389461 0.348346 0.069485
0.418811 0.348407 0.070527
0.449939 0.348713 0.071017
0.480331 0.348652 0.071814
0.509865 0.348775 0.074020
0.538419 0.348468 0.075429
0.568505 0.348959 0.077022
0.598223 0.349694 0.077451
0.628432 0.349571 0.080025
0.658088 0.349939 0.082966
0.688236 0.349449 0.084927
0.718628 0.350245 0.086458
0.748958 0.350490 0.089461
0.780085 0.350981 0.092096
0.811397 0.351164 0.094363
0.842953 0.351593 0.098468
0.874939 0.352145 0.103309
0.907599 0.351900 0.108272
0.940380 0.352574 0.113174
0.974142 0.351900 0.118015
0.999755 0.390502 0.194975
0.083088 0.351226 0.050797
0.000490 0.377757 0.065135
0.033578 0.377757 0.065993
0.081985 0.377696 0.067096
0.121324 0.377696 0.067463
0.159498 0.377880 0.068076
0.194914 0.378064 0.068444
0.226961 0.377880 0.069730
0.261581 0.378002 0.071691
0.293382 0.378370 0.072120
0.324204 0.378860 0.074939
0.355699 0.378983 0.074816
0.387132 0.378983 0.075797
0.417463 0.379167 0.076287
0.448714 0.379473 0.077328
0.477758 0.379105 0.079534
0.507659 0.379167 0.079902
0.537255 0.379779 0.081556
0.567218 0.379963 0.083272
0.596752 0.380024 0.084130
0.627451 0.379963 0.086029
0.657169 0.379963 0.088480
0.687133 0.380392 0.090502
0.718138 0.380392 0.092402
0.748407 0.380576 0.095159
0.779473 0.381311 0.097365
0.810784 0.380760 0.101042
0.842279 0.381924 0.103676
0.874387 0.382108 0.108211
0.907231 0.382108 0.113297
0.939952 0.382843 0.118260
0.974081 0.382108 0.122978
0.999632 0.418443 0.200551
0.083701 0.383762 0.056985
0.000000 0.407904 0.072672
0.026409 0.407966 0.073223
0.074816 0.408027 0.073101
0.117279 0.408578 0.074571
0.154228 0.408640 0.075245
0.191728 0.408333 0.076103
0.224816 0.408946 0.076471
0.259069 0.408946 0.077390
0.290748 0.408946 0.079228
0.323284 0.409191 0.079228
0.353983 0.409559 0.081618
0.384620 0.409375 0.082598
0.415931 0.409559 0.083333
0.445956 0.409804 0.083946
0.475981 0.410233 0.084804
0.506189 0.409988 0.086703
0.536029 0.410171 0.086826
0.565625 0.410110 0.089093
0.595588 0.409926 0.090809
0.625797 0.410845 0.092341
0.655944 0.410417 0.093689
0.686030 0.410845 0.095343
0.716912 0.411397 0.098407
0.747610 0.411029 0.101716
0.778921 0.411336 0.103615
0.809926 0.412132 0.106127
0.841666 0.412010 0.109927
0.873836 0.412561 0.113297
0.906741 0.413235 0.118260
0.939584 0.412990 0.124020
0.973836 0.412500 0.128370
0.999510 0.447365 0.204473
0.084191 0.414767 0.062929
0.000000 0.438419 0.078493
0.018444 0.438174 0.079657
0.068873 0.438358 0.080515
0.112377 0.438235 0.081495
0.150797 0.438297 0.082230
0.188051 0.438480 0.083150
0.222304 0.438480 0.083824
0.256373 0.438297 0.083824
0.289461 0.438726 0.085478
0.320895 0.438419 0.085723
0.353248 0.438664 0.087132
0.382353 0.439093 0.089706
0.413358 0.439338 0.090564
0.444363 0.439522 0.090686
0.474081 0.439890 0.091728
0.504289 0.439890 0.093199
0.533701 0.439890 0.093015
0.564155 0.440013 0.094240
0.594302 0.440074 0.096569
0.624632 0.440196 0.098774
0.654780 0.440870 0.099265
0.685049 0.440748 0.101838
0.715993 0.441238 0.104412
0.747120 0.440932 0.106189
0.778002 0.440932 0.109865
0.809313 0.441606 0.111642
0.841237 0.441544 0.115380
0.873161 0.441851 0.118750
0.906250 0.442525 0.123529
0.939400 0.442096 0.128983
0.973714 0.441483 0.133824
0.999510 0.474571 0.209130
0.084436 0.445343 0.070098
0.000000 0.467954 0.085784
0.012132 0.467954 0.086029
0.062316 0.468015 0.087439
0.107230 0.467831 0.087439
0.146752 0.467892 0.088113
0.183456 0.468199 0.088726
0.218750 0.468383 0.089461
0.252512 0.467954 0.091176
0.285968 0.468505 0.091483
0.318137 0.468750 0.093015
0.349326 0.468934 0.093566
0.381924 0.468689 0.094424
0.411519 0.469118 0.096140
0.442341 0.469057 0.096875
0.472120 0.469302 0.097488
0.502573 0.469424 0.099265
0.532598 0.468873 0.100858
0.563113 0.469240 0.101838
0.593015 0.469731 0.102574
0.623529 0.469669 0.103738
0.653615 0.469914 0.106434
0.684069 0.470221 0.108211
0.715258 0.470282 0.109498
0.746017 0.470650 0.112561
0.777083 0.470895 0.114706
0.808700 0.470711 0.118628
0.840747 0.471446 0.120833
0.872732 0.471875 0.125000
0.905944 0.471753 0.129841
0.939155 0.472427 0.133824
0.973468 0.471508 0.138848
0.999510 0.501716 0.214583
0.084314 0.475000 0.075551
0.000000 0.497120 0.092770
0.005821 0.497059 0.093444
0.056679 0.497120 0.093444
0.101471 0.496814 0.094485
0.142157 0.497059 0.095037
0.180270 0.497059 0.096262
0.215196 0.497181 0.096262
0.250245 0.496998 0.096936
0.283211 0.497304 0.097978
0.315441 0.497733 0.098529
0.347733 0.497181 0.099877
0.380147 0.497488 0.101348
0.410233 0.497733 0.102022
0.439645 0.497855 0.103002
0.470160 0.498284 0.104351
0.500429 0.498346 0.106250
0.531311 0.497917 0.107292
0.561703 0.498346 0.108027
0.591299 0.498652 0.108824
0.622304 0.498529 0.110478
0.652574 0.498713 0.112623
0.683211 0.498468 0.114767
0.714216 0.499020 0.115564
0.744976 0.499571 0.119056
0.776470 0.499877 0.121140
0.807843 0.499939 0.123346
0.840012 0.500429 0.126899
0.872242 0.500490 0.130821
0.905270 0.500613 0.134314
0.938910 0.500858 0.139645
0.973223 0.500368 0.144056
0.999387 0.528125 0.218811
0.084314 0.504657 0.081801
0.000000 0.525612 0.099694
0.002819 0.525612 0.100980
0.046691 0.525551 0.101287
0.096140 0.525184 0.102145
0.137255 0.525551 0.102696
0.175306 0.525551 0.103493
0.211642 0.525674 0.103554
0.246324 0.525490 0.104044
0.280270 0.525919 0.104596
0.313603 0.525245 0.106005
0.344608 0.525919 0.107108
0.376532 0.526103 0.108701
0.408333 0.525980 0.109559
0.438664 0.525858 0.110539
0.468383 0.526593 0.111091
0.498652 0.526654 0.111581
0.528799 0.526470 0.112745
0.559436 0.526593 0.114032
0.590135 0.526899 0.115686
0.620710 0.526777 0.117402
0.651348 0.527267 0.118628
0.681924 0.527022 0.120221
0.713052 0.527451 0.122181
0.744056 0.527818 0.124203
0.775429 0.528002 0.127757
0.807352 0.528186 0.129657
0.839154 0.528554 0.133149
0.871874 0.528186 0.135846
0.904780 0.528676 0.140074
0.938481 0.529166 0.144363
0.973040 0.528676 0.148958
0.999203 0.553860 0.223836
0.084191 0.534191 0.089522
0.000000 0.553615 0.107169
0.000919 0.553737 0.107966
0.038726 0.553799 0.108762
0.089890 0.553982 0.108640
0.131924 0.553860 0.109436
0.170650 0.553921 0.109988
0.207475 0.553860 0.110355
0.242157 0.554228 0.111581
0.277451 0.553982 0.112316
0.310049 0.554228 0.113358
0.341299 0.554595 0.113480
0.374571 0.554534 0.114277
0.404902 0.554534 0.115686
0.436458 0.554534 0.116177
0.466177 0.554656 0.117586
0.496324 0.554902 0.119240
0.526654 0.555208 0.120527
0.557843 0.555208 0.121936
0.588358 0.555147 0.122426
0.619056 0.555453 0.123713
0.649816 0.555330 0.125674
0.680699 0.555453 0.127390
0.712010 0.556066 0.128615
0.743260 0.555759 0.131250
0.774755 0.555943 0.133088
0.806433 0.556372 0.136703
0.838725 0.556678 0.138664
0.871262 0.556801 0.142770
0.904167 0.556801 0.147059
0.938236 0.557046 0.151348
0.972733 0.556372 0.155515
0.999020 0.580209 0.229902
0.083885 0.564032 0.095895
0.000000 0.582782 0.115074
0.000000 0.582721 0.115503
0.026532 0.582966 0.116851
0.081985 0.583088 0.116789
0.125490 0.582904 0.117402
0.165380 0.582966 0.117770
0.203125 0.582904 0.117770
0.237868 0.583211 0.118382
0.273223 0.583027 0.119853
0.306740 0.583272 0.120772
0.338297 0.583333 0.121078
0.371017 0.583395 0.122181
0.402389 0.583517 0.123223
0.433149 0.583517 0.124694
0.464890 0.583027 0.125123
0.494608 0.583456 0.126654
0.524203 0.584191 0.128002
0.555637 0.584007 0.128738
0.586642 0.584007 0.129534
0.617647 0.584069 0.131005
0.648468 0.584191 0.133211
0.678983 0.584681 0.134620
0.710601 0.584314 0.136091
0.741912 0.584559 0.138297
0.773468 0.584743 0.140257
0.805453 0.585233 0.142341
0.837867 0.585355 0.145404
0.870220 0.585907 0.150000
0.903493 0.585907 0.153554
0.937684 0.586152 0.157782
0.972366 0.585294 0.161581
0.999020 0.606373 0.234743
0.083517 0.594485 0.103983
0.000000 0.611765 0.123652
0.000000 0.611581 0.123775
0.015748 0.611887 0.124755
0.073407 0.611642 0.124571
0.118566 0.612071 0.125613
0.159253 0.612132 0.125980
0.197733 0.612132 0.126471
0.233150 0.612071 0.127757
0.269056 0.612071 0.127880
0.302635 0.611887 0.128983
0.335662 0.612010 0.129044
0.367708 0.612010 0.130208
0.399877 0.612316 0.130882
0.430147 0.612193 0.131924
0.461949 0.612316 0.132782
0.492770 0.612316 0.133885
0.522120 0.612622 0.135723
0.553370 0.612561 0.136520
0.584436 0.612684 0.136948
0.615563 0.612745 0.138297
0.646814 0.612929 0.140809
0.677512 0.612806 0.142279
0.709069 0.613235 0.143137
0.740686 0.612867 0.145833
0.772304 0.613419 0.147488
0.804350 0.613787 0.150490
0.836887 0.613970 0.152512
0.869301 0.614215 0.156863
0.902880 0.614583 0.160968
0.937133 0.614338 0.164583
0.971998 0.613480 0.168689
0.999020 0.633395 0.242157
0.083027 0.625061 0.111091
0.000000 0.641177 0.132230
0.000000 0.641238 0.132169
0.007904 0.641238 0.132782
0.062194 0.641177 0.133456
0.111581 0.641361 0.134375
0.153493 0.641667 0.134620
0.191176 0.641606 0.135233
0.228493 0.641544 0.135294
0.263603 0.641606 0.136458
0.298591 0.641483 0.136765
0.331924 0.641544 0.137684
0.365135 0.641544 0.138664
0.396017 0.641851 0.139583
0.426348 0.641973 0.140870
0.457782 0.641912 0.141360
0.489706 0.641851 0.142463
0.520404 0.641973 0.143689
0.551348 0.641851 0.145159
0.582230 0.642464 0.145895
0.613909 0.642525 0.146507
0.644669 0.642770 0.149265
0.676348 0.642586 0.150368
0.708089 0.642831 0.151532
0.739277 0.642954 0.154167
0.771201 0.642770 0.155882
0.803431 0.643138 0.157782
0.835845 0.643015 0.160478
0.868382 0.643812 0.163664
0.902268 0.644302 0.167708
0.936520 0.643444 0.172427
0.971508 0.643015 0.176164
0.998775 0.660907 0.247733
0.082230 0.655515 0.119853
0.000000 0.670466 0.141422
0.000000 0.670588 0.141483
0.001838 0.670588 0.142463
0.051226 0.670527 0.142463
0.102083 0.670772 0.142953
0.145772 0.670895 0.143505
0.185110 0.670833 0.144179
0.222427 0.670527 0.145098
0.259007 0.670772 0.145588
0.293505 0.671079 0.146507
0.326348 0.671017 0.146446
0.360478 0.670956 0.147181
0.392647 0.670956 0.148223
0.422978 0.670956 0.148958
0.454473 0.671079 0.150000
0.486458 0.670895 0.151042
0.517341 0.670895 0.152206
0.549448 0.670895 0.153248
0.579657 0.671385 0.154289
0.610968 0.671324 0.155576
0.642709 0.671385 0.157598
0.673836 0.671569 0.159130
0.705821 0.671630 0.159804
0.737623 0.671814 0.162255
0.769730 0.671998 0.163848
0.802328 0.671936 0.166912
0.834926 0.672488 0.168444
0.867769 0.672733 0.172365
0.901532 0.672672 0.176471
0.935601 0.672917 0.179902
0.971263 0.672365 0.183946
0.998529 0.687929 0.255576
0.081434 0.685907 0.128615
0.000000 0.699817 0.150919
0.000000 0.699878 0.151164
0.000000 0.699878 0.151961
0.035172 0.699817 0.152083
0.092525 0.700000 0.152512
0.137745 0.699817 0.153003
0.177390 0.700000 0.153493
0.216605 0.699939 0.154657
0.252941 0.700123 0.155086
0.288113 0.699694 0.156128
0.322365 0.700123 0.156128
0.356005 0.700491 0.156924
0.387868 0.700429 0.157292
0.418321 0.700368 0.158456
0.450552 0.700552 0.160233
0.482414 0.700368 0.160417
0.514032 0.700368 0.161581
0.546323 0.700246 0.162316
0.577819 0.700613 0.162745
0.608946 0.700858 0.164522
0.640135 0.700736 0.166422
0.672549 0.700613 0.167892
0.704290 0.701042 0.169976
0.736091 0.701348 0.171078
0.768014 0.701471 0.172610
0.800919 0.701287 0.175490
0.833701 0.701655 0.177145
0.866789 0.701471 0.181066
0.900246 0.702145 0.184620
0.934988 0.702022 0.188419
0.970711 0.701287 0.192218
0.998529 0.715625 0.262745
0.079902 0.717280 0.137806
0.000000 0.729963 0.161152
0.000000 0.729841 0.161642
0.000000 0.729841 0.162500
0.018566 0.729902 0.163052
0.080086 0.729963 0.163726
0.127390 0.729902 0.163787
0.168811 0.729963 0.164522
0.209314 0.729902 0.164767
0.246507 0.730025 0.165625
0.282169 0.729902 0.165686
0.316789 0.729841 0.166728
0.350368 0.729902 0.167525
0.382598 0.730209 0.168382
0.413848 0.730270 0.169056
0.445895 0.730392 0.169547
0.477758 0.730637 0.169792
0.511091 0.730209 0.170895
0.542769 0.730454 0.171630
0.574939 0.730147 0.173530
0.607046 0.730454 0.174449
0.637684 0.730883 0.175674
0.669730 0.730760 0.177329
0.701961 0.731066 0.179228
0.734069 0.730760 0.180453
0.766789 0.730944 0.182843
0.799387 0.731373 0.184620
0.832353 0.731373 0.187132
0.865563 0.731679 0.189645
0.899633 0.731802 0.193260
0.934314 0.731557 0.197671
0.970160 0.731189 0.201899
0.998284 0.743873 0.270833
0.078431 0.748100 0.148039
0.000000 0.759497 0.172427
0.000000 0.759436 0.172181
0.000000 0.759559 0.173162
0.006985 0.759620 0.174081
0.063480 0.759681 0.174020
0.115748 0.759620 0.174510
0.160601 0.759559 0.175613
0.200368 0.759865 0.176042
0.239645 0.759681 0.175858
0.275245 0.759804 0.176777
0.309926 0.759804 0.177757
0.344792 0.759926 0.178431
0.377328 0.759743 0.178431
0.409559 0.759926 0.179841
0.441544 0.759865 0.180453
0.473713 0.760049 0.181128
0.506556 0.760110 0.181618
0.538419 0.760417 0.182659
0.571262 0.760171 0.184007
0.603676 0.760049 0.185478
0.635846 0.760171 0.185907
0.666973 0.760723 0.188051
0.699817 0.760845 0.189399
0.732231 0.760784 0.191115
0.764338 0.760845 0.192708
0.797855 0.760968 0.195343
0.830576 0.760907 0.197671
0.864705 0.761029 0.199877
0.898775 0.761213 0.203247
0.933885 0.761458 0.206985
0.969792 0.760784 0.210539
0.998039 0.772120 0.279963
0.076348 0.779289 0.161887
0.000000 0.789889 0.184375
0.000000 0.789767 0.184498
0.000000 0.789889 0.185172
0.000429 0.789706 0.184988
0.044547 0.789951 0.185846
0.102022 0.790012 0.186336
0.149387 0.789889 0.186520
0.191667 0.789767 0.187623
0.230637 0.789951 0.187806
0.268382 0.790134 0.188603
0.302757 0.790257 0.188787
0.337929 0.790196 0.189277
0.370650 0.790196 0.190074
0.404228 0.790134 0.190686
0.435662 0.790318 0.192218
0.468137 0.790257 0.193015
0.501287 0.790380 0.193689
0.534068 0.790318 0.194485
0.567280 0.790318 0.195098
0.599877 0.790318 0.195956
0.632415 0.790318 0.197917
0.665012 0.790563 0.199142
0.696875 0.790563 0.201225
0.729473 0.790931 0.202512
0.762561 0.791054 0.204105
0.795710 0.790931 0.206434
0.829411 0.791482 0.208149
0.862867 0.791421 0.210907
0.897427 0.791482 0.214400
0.932782 0.791544 0.217831
0.969179 0.791115 0.220956
0.998039 0.800551 0.289767
0.073407 0.810907 0.176532
0.000000 0.820649 0.197365
0.000000 0.820649 0.197794
0.000000 0.820711 0.198039
0.000000 0.820649 0.198468
0.023039 0.820711 0.199203
0.086029 0.820894 0.199755
0.136213 0.820772 0.200122
0.179228 0.820711 0.200368
0.220956 0.820833 0.200980
0.258456 0.820894 0.201042
0.295037 0.821017 0.201961
0.330086 0.821017 0.202819
0.364277 0.821017 0.203431
0.396997 0.820956 0.203983
0.429350 0.821017 0.204657
0.461949 0.821017 0.206127
0.496201 0.820833 0.205821
0.529350 0.820894 0.206556
0.563113 0.820956 0.207904
0.595895 0.820894 0.209069
0.628861 0.821017 0.209865
0.661458 0.821201 0.211213
0.694547 0.821140 0.212622
0.727512 0.821323 0.213848
