static/luts/Pentax_Miyabi_33_Rec709.cube
TITLE "Pentax_Miyabi_33_Rec709"
# 33^3 LUT extracted from Pentax DCU Miyabi
LUT_3D_SIZE 5
DOMAIN_MIN 0.0 0.0 0.0
DOMAIN_MAX 1.0 1.0 1.0
0.000000 0.000000 0.000000
0.280086 0.000123 0.008946
0.520343 0.000245 0.020527
0.753983 0.003125 0.043199
1.000000 0.109498 0.161213
0.080515 0.250613 0.031434
0.266421 0.285294 0.051164
0.512255 0.286275 0.061887
0.750368 0.288358 0.078615
1.000000 0.332843 0.186642
0.084314 0.504657 0.081801
0.246324 0.525490 0.104044
0.498652 0.526654 0.111581
0.744056 0.527818 0.124203
0.999203 0.553860 0.223836
0.078431 0.748100 0.148039
0.200368 0.759865 0.176042
0.473713 0.760049 0.181128
0.732231 0.760784 0.191115
0.998039 0.772120 0.279963
0.165625 0.999877 0.363787
0.111520 1.000000 0.377145
0.397549 1.000000 0.388051
0.689890 1.000000 0.412439
0.995956 1.000000 0.536458
0.001348 0.000000 0.247243
0.278370 0.000000 0.250919
0.519791 0.000000 0.254657
0.754289 0.000000 0.262684
1.000000 0.095221 0.325797
0.085600 0.239277 0.239154
0.267034 0.266912 0.267279
0.511336 0.267402 0.271875
0.750368 0.269118 0.278799
0.999571 0.318995 0.342892
0.085600 0.495282 0.270466
0.243873 0.514767 0.292157
0.497733 0.515931 0.296385
0.743811 0.516912 0.303431
0.999020 0.545282 0.368015
0.078309 0.743811 0.317647
0.197733 0.754657 0.335172
0.471937 0.754779 0.338848
0.731924 0.755637 0.345343
0.998039 0.767708 0.408946
0.169179 0.999877 0.471875
0.115870 1.000000 0.482905
0.399265 1.000000 0.491667
0.690993 1.000000 0.510171
0.996201 1.000000 0.607292
0.000000 0.000000 0.463052
0.274265 0.000000 0.465870
0.516115 0.000000 0.468444
0.752819 0.000000 0.473591
0.999571 0.094792 0.515502
0.088480 0.204167 0.455454
0.262806 0.231128 0.475797
0.508395 0.233517 0.478983
0.748468 0.235294 0.483579
0.999326 0.293873 0.525000
0.086275 0.477206 0.474939
0.239032 0.494976 0.492341
0.495343 0.495711 0.495588
0.742463 0.496324 0.500184
0.998713 0.528983 0.541850
0.077267 0.734314 0.507720
0.192157 0.744853 0.521691
0.468811 0.745466 0.524142
0.730086 0.745956 0.528492
0.997733 0.759314 0.569608
0.173039 0.999755 0.608149
0.121385 1.000000 0.615073
0.398039 1.000000 0.620466
0.691790 1.000000 0.632292
0.996814 1.000000 0.700184
0.000000 0.000000 0.692770
0.265870 0.000000 0.694241
0.510968 0.000000 0.695405
0.749755 0.000000 0.698162
0.999020 0.104596 0.718505
0.090196 0.131985 0.686826
0.252574 0.155392 0.699510
0.502328 0.156740 0.701042
0.746324 0.159620 0.703493
0.998775 0.242708 0.723346
0.086213 0.437378 0.697243
0.228738 0.453615 0.707966
0.489583 0.454473 0.710049
0.739767 0.456128 0.712133
0.998284 0.498162 0.732169
0.074816 0.716728 0.714706
0.180270 0.726532 0.723407
0.463358 0.727084 0.725000
0.727574 0.727390 0.727329
0.997488 0.743750 0.747855
0.175123 0.999755 0.768566
0.124632 1.000000 0.772549
0.393934 1.000000 0.775306
0.691790 1.000000 0.781250
0.997549 1.000000 0.820711
0.000000 0.000000 0.987868
0.236397 0.000000 0.988052
0.496201 0.000000 0.988052
0.742647 0.000000 0.988664
0.997917 0.184436 0.988297
0.087010 0.000000 0.986275
0.221569 0.000000 0.988909
0.487561 0.000000 0.989093
0.738787 0.000000 0.989277
0.997672 0.176655 0.989216
0.080392 0.260171 0.987684
0.195711 0.278983 0.990196
0.472733 0.280024 0.990503
0.731986 0.280821 0.990931
0.997243 0.382843 0.990748
0.073039 0.641912 0.990809
0.140257 0.651777 0.992647
0.444424 0.651777 0.992831
0.719118 0.652329 0.993076
0.996630 0.689522 0.993444
0.081985 0.998591 0.998346
0.015931 0.999877 0.998836
0.333088 0.999877 0.998897
0.670221 0.999939 0.998897
0.999142 1.000000 0.999510
