static/luts/Ricoh_GR2_Posi_33_Rec709.cube
# Generated from DCU output TIFF (16-bit) sampled at patch centers
# Input chart: 33x33x33 full cube packed into 4928x3264 JPEG
# Intended use: apply on Rec.709/Display-referred footage AFTER any log->709 transform.
TITLE "Ricoh_GR2_Posi_33_Rec709"
LUT_3D_SIZE 33
DOMAIN_MIN 0 0 0
DOMAIN_MAX 1 1 1
0.047426 0.047426 0.047426
0.055868 0.047831 0.047401
0.065835 0.048308 0.047371
0.077557 0.048870 0.047335
0.091274 0.049528 0.047294
0.107236 0.050293 0.047246
0.125689 0.051177 0.047191
0.146862 0.052192 0.047127
0.170944 0.053346 0.047055
0.198066 0.054646 0.046973
0.228274 0.056094 0.046882
0.261506 0.057687 0.046782
0.297570 0.059416 0.046674
0.336133 0.061264 0.046558
0.376724 0.063210 0.046436
0.418746 0.065224 0.046310
0.461509 0.067274 0.046181
0.504273 0.069323 0.046053
0.546295 0.071337 0.045926
0.586886 0.073283 0.045804
0.625449 0.075131 0.045689
0.661513 0.076860 0.045580
0.694744 0.078453 0.045480
0.724953 0.079901 0.045390
0.752075 0.081201 0.045308
0.776157 0.082355 0.045236
0.797329 0.083370 0.045172
0.815783 0.084254 0.045117
0.831745 0.085020 0.045069
0.845462 0.085677 0.045027
0.857183 0.086239 0.044992
0.867151 0.086717 0.044962
0.875593 0.087121 0.044937
0.047719 0.056347 0.048229
0.056161 0.056752 0.048204
0.066129 0.057229 0.048174
0.077850 0.057791 0.048139
0.091567 0.058449 0.048097
0.107529 0.059214 0.048049
0.125983 0.060098 0.047994
0.147155 0.061113 0.047930
0.171237 0.062267 0.047858
0.198359 0.063567 0.047776
0.228568 0.065015 0.047686
0.261799 0.066608 0.047586
0.297863 0.068337 0.047477
0.336426 0.070185 0.047362
0.377017 0.072131 0.047240
0.419039 0.074145 0.047113
0.461803 0.076195 0.046985
0.504566 0.078244 0.046856
0.546588 0.080259 0.046730
0.587179 0.082204 0.046608
0.625742 0.084053 0.046492
0.661806 0.085781 0.046384
0.695037 0.087374 0.046284
0.725246 0.088822 0.046193
0.752368 0.090122 0.046111
0.776450 0.091276 0.046039
0.797623 0.092291 0.045975
0.816076 0.093176 0.045920
0.832038 0.093941 0.045872
0.845755 0.094598 0.045831
0.857476 0.095160 0.045795
0.867444 0.095638 0.045766
0.875886 0.096042 0.045740
0.048065 0.066881 0.049178
0.056507 0.067285 0.049152
0.066475 0.067763 0.049123
0.078196 0.068325 0.049087
0.091913 0.068982 0.049046
0.107875 0.069748 0.048998
0.126329 0.070632 0.048943
0.147501 0.071647 0.048879
0.171583 0.072801 0.048807
0.198706 0.074101 0.048725
0.228914 0.075549 0.048634
0.262145 0.077142 0.048534
0.298209 0.078871 0.048426
0.336772 0.080719 0.048310
0.377363 0.082665 0.048188
0.419386 0.084679 0.048062
0.462149 0.086728 0.047933
0.504912 0.088778 0.047805
0.546934 0.090792 0.047678
0.587525 0.092738 0.047556
0.626089 0.094586 0.047441
0.662152 0.096315 0.047332
0.695384 0.097908 0.047232
0.725592 0.099356 0.047141
0.752714 0.100656 0.047060
0.776796 0.101810 0.046988
0.797969 0.102825 0.046924
0.816422 0.103709 0.046868
0.832384 0.104474 0.046821
0.846101 0.105132 0.046779
0.857823 0.105694 0.046744
0.867790 0.106171 0.046714
0.876232 0.106576 0.046689
0.048472 0.079268 0.050293
0.056914 0.079672 0.050268
0.066882 0.080150 0.050238
0.078603 0.080712 0.050203
0.092320 0.081369 0.050162
0.108282 0.082134 0.050114
0.126736 0.083019 0.050058
0.147908 0.084034 0.049994
0.171990 0.085188 0.049922
0.199113 0.086488 0.049841
0.229321 0.087936 0.049750
0.262552 0.089529 0.049650
0.298616 0.091257 0.049542
0.337179 0.093106 0.049426
0.377770 0.095051 0.049304
0.419793 0.097066 0.049177
0.462556 0.099115 0.049049
0.505319 0.101165 0.048920
0.547341 0.103179 0.048794
0.587932 0.105125 0.048672
0.626496 0.106973 0.048556
0.662559 0.108702 0.048448
0.695791 0.110295 0.048348
0.725999 0.111742 0.048257
0.753121 0.113042 0.048175
0.777203 0.114197 0.048103
0.798376 0.115212 0.048039
0.816829 0.116096 0.047984
0.832791 0.116861 0.047936
0.846508 0.117519 0.047895
0.858230 0.118081 0.047860
0.868197 0.118558 0.047830
0.876639 0.118963 0.047804
0.048949 0.093763 0.051599
0.057390 0.094168 0.051573
0.067358 0.094646 0.051543
0.079079 0.095208 0.051508
0.092796 0.095865 0.051467
0.108759 0.096630 0.051419
0.127212 0.097515 0.051364
0.148385 0.098530 0.051300
0.172467 0.099684 0.051227
0.199589 0.100984 0.051146
0.229797 0.102432 0.051055
0.263029 0.104025 0.050955
0.299092 0.105753 0.050847
0.337656 0.107602 0.050731
0.378247 0.109547 0.050609
0.420269 0.111561 0.050483
0.463032 0.113611 0.050354
0.505795 0.115661 0.050226
0.547818 0.117675 0.050099
0.588409 0.119621 0.049977
0.626972 0.121469 0.049861
0.663035 0.123198 0.049753
0.696267 0.124790 0.049653
0.726475 0.126238 0.049562
0.753597 0.127538 0.049481
0.777680 0.128693 0.049408
0.798852 0.129707 0.049345
0.817306 0.130592 0.049289
0.833268 0.131357 0.049241
0.846985 0.132015 0.049200
0.858706 0.132576 0.049165
0.868674 0.133054 0.049135
0.877116 0.133459 0.049110
0.049503 0.110632 0.053118
0.057945 0.111037 0.053092
0.067913 0.111514 0.053062
0.079634 0.112076 0.053027
0.093351 0.112734 0.052986
0.109313 0.113499 0.052938
0.127766 0.114383 0.052883
0.148939 0.115398 0.052819
0.173021 0.116552 0.052747
0.200143 0.117852 0.052665
0.230352 0.119300 0.052574
0.263583 0.120893 0.052474
0.299647 0.122622 0.052366
0.338210 0.124470 0.052250
0.378801 0.126416 0.052128
0.420823 0.128430 0.052002
0.463586 0.130480 0.051873
0.506350 0.132529 0.051745
0.548372 0.134544 0.051618
0.588963 0.136489 0.051496
0.627526 0.138338 0.051381
0.663590 0.140066 0.051272
0.696821 0.141659 0.051172
0.727030 0.143107 0.051081
0.754152 0.144407 0.051000
0.778234 0.145561 0.050928
0.799407 0.146576 0.050864
0.817860 0.147461 0.050808
0.833822 0.148226 0.050760
0.847539 0.148883 0.050719
0.859260 0.149445 0.050684
0.869228 0.149923 0.050654
0.877670 0.150327 0.050629
0.050144 0.130133 0.054874
0.058586 0.130538 0.054849
0.068553 0.131016 0.054819
0.080275 0.131578 0.054783
0.093992 0.132235 0.054742
0.109954 0.133000 0.054694
0.128407 0.133885 0.054639
0.149580 0.134899 0.054575
0.173662 0.136054 0.054503
0.200784 0.137354 0.054421
0.230992 0.138802 0.054330
0.264224 0.140395 0.054231
0.300287 0.142123 0.054122
0.338851 0.143971 0.054006
0.379442 0.145917 0.053884
0.421464 0.147931 0.053758
0.464227 0.149981 0.053629
0.506991 0.152031 0.053501
0.549013 0.154045 0.053375
0.589604 0.155990 0.053253
0.628167 0.157839 0.053137
0.664231 0.159567 0.053028
0.697462 0.161160 0.052928
0.727671 0.162608 0.052838
0.754793 0.163908 0.052756
0.778875 0.165063 0.052684
0.800047 0.166077 0.052620
0.818501 0.166962 0.052565
0.834463 0.167727 0.052517
0.848180 0.168384 0.052475
0.859901 0.168946 0.052440
0.869869 0.169424 0.052410
0.878311 0.169829 0.052385
0.050879 0.152508 0.056889
0.059321 0.152913 0.056864
0.069289 0.153391 0.056834
0.081010 0.153952 0.056798
0.094727 0.154610 0.056757
0.110689 0.155375 0.056709
0.129143 0.156259 0.056654
0.150315 0.157274 0.056590
0.174397 0.158429 0.056518
0.201519 0.159729 0.056436
0.231728 0.161176 0.056345
0.264959 0.162769 0.056245
0.301023 0.164498 0.056137
0.339586 0.166346 0.056021
0.380177 0.168292 0.055899
0.422199 0.170306 0.055773
0.464963 0.172356 0.055644
0.507726 0.174405 0.055516
0.549748 0.176420 0.055390
0.590339 0.178365 0.055268
0.628903 0.180214 0.055152
0.664966 0.181942 0.055043
0.698198 0.183535 0.054943
0.728406 0.184983 0.054853
0.755528 0.186283 0.054771
0.779610 0.187437 0.054699
0.800783 0.188452 0.054635
0.819236 0.189337 0.054580
0.835198 0.190102 0.054532
0.848915 0.190759 0.054490
0.860637 0.191321 0.054455
0.870604 0.191799 0.054425
0.879046 0.192203 0.054400
0.051715 0.177958 0.059181
0.060157 0.178362 0.059155
0.070125 0.178840 0.059125
0.081846 0.179402 0.059090
0.095563 0.180059 0.059049
0.111525 0.180824 0.059001
0.129979 0.181709 0.058945
0.151152 0.182724 0.058882
0.175234 0.183878 0.058809
0.202356 0.185178 0.058728
0.232564 0.186626 0.058637
0.265796 0.188219 0.058537
0.301859 0.189947 0.058429
0.340422 0.191796 0.058313
0.381014 0.193741 0.058191
0.423036 0.195756 0.058065
0.465799 0.197805 0.057936
0.508562 0.199855 0.057808
0.550584 0.201869 0.057681
0.591176 0.203815 0.057559
0.629739 0.205663 0.057443
0.665802 0.207392 0.057335
0.699034 0.208985 0.057235
0.729242 0.210433 0.057144
0.756364 0.211733 0.057063
0.780446 0.212887 0.056990
0.801619 0.213902 0.056927
0.820073 0.214786 0.056871
0.836035 0.215551 0.056823
0.849752 0.216209 0.056782
0.861473 0.216771 0.056747
0.871441 0.217248 0.056717
0.879882 0.217653 0.056692
0.052657 0.206620 0.061762
0.061099 0.207025 0.061736
0.071067 0.207502 0.061707
0.082788 0.208064 0.061671
0.096505 0.208722 0.061630
0.112467 0.209487 0.061582
0.130921 0.210371 0.061527
0.152093 0.211386 0.061463
0.176176 0.212540 0.061391
0.203298 0.213840 0.061309
0.233506 0.215288 0.061218
0.266738 0.216881 0.061118
0.302801 0.218610 0.061010
0.341364 0.220458 0.060894
0.381955 0.222404 0.060772
0.423978 0.224418 0.060646
0.466741 0.226468 0.060517
0.509504 0.228517 0.060389
0.551526 0.230531 0.060262
0.592117 0.232477 0.060140
0.630681 0.234325 0.060025
0.666744 0.236054 0.059916
0.699976 0.237647 0.059816
0.730184 0.239095 0.059725
0.757306 0.240395 0.059644
0.781388 0.241549 0.059572
0.802561 0.242564 0.059508
0.821014 0.243448 0.059452
0.836977 0.244214 0.059405
0.850694 0.244871 0.059363
0.862415 0.245433 0.059328
0.872383 0.245911 0.059298
0.880824 0.246315 0.059273
0.053706 0.238543 0.064637
0.062148 0.238948 0.064611
0.072116 0.239426 0.064581
0.083837 0.239988 0.064546
0.097554 0.240645 0.064505
0.113516 0.241410 0.064457
0.131970 0.242295 0.064401
0.153143 0.243310 0.064338
0.177225 0.244464 0.064265
0.204347 0.245764 0.064184
0.234555 0.247212 0.064093
0.267787 0.248805 0.063993
0.303850 0.250533 0.063885
0.342413 0.252382 0.063769
0.383005 0.254327 0.063647
0.425027 0.256341 0.063521
0.467790 0.258391 0.063392
0.510553 0.260441 0.063264
0.552575 0.262455 0.063137
0.593167 0.264401 0.063015
0.631730 0.266249 0.062899
0.667793 0.267978 0.062791
0.701025 0.269570 0.062691
0.731233 0.271018 0.062600
0.758355 0.272318 0.062519
0.782437 0.273473 0.062446
0.803610 0.274487 0.062383
0.822064 0.275372 0.062327
0.838026 0.276137 0.062279
0.851743 0.276795 0.062238
0.863464 0.277356 0.062203
0.873432 0.277834 0.062173
0.881873 0.278239 0.062148
0.054861 0.273662 0.067799
0.063302 0.274067 0.067774
0.073270 0.274544 0.067744
0.084991 0.275106 0.067709
0.098708 0.275764 0.067667
0.114671 0.276529 0.067619
0.133124 0.277413 0.067564
0.154297 0.278428 0.067500
0.178379 0.279582 0.067428
0.205501 0.280882 0.067346
0.235709 0.282330 0.067256
0.268941 0.283923 0.067156
0.305004 0.285652 0.067047
0.343567 0.287500 0.066931
0.384159 0.289446 0.066809
0.426181 0.291460 0.066683
0.468944 0.293510 0.066555
0.511707 0.295559 0.066426
0.553730 0.297574 0.066300
0.594321 0.299519 0.066178
0.632884 0.301367 0.066062
0.668947 0.303096 0.065954
0.702179 0.304689 0.065854
0.732387 0.306137 0.065763
0.759509 0.307437 0.065681
0.783591 0.308591 0.065609
0.804764 0.309606 0.065545
0.823218 0.310490 0.065490
0.839180 0.311256 0.065442
0.852897 0.311913 0.065401
0.864618 0.312475 0.065365
0.874586 0.312953 0.065335
0.883028 0.313357 0.065310
0.056113 0.311773 0.071231
0.064555 0.312178 0.071206
0.074523 0.312656 0.071176
0.086244 0.313217 0.071141
0.099961 0.313875 0.071099
0.115923 0.314640 0.071051
0.134376 0.315524 0.070996
0.155549 0.316539 0.070932
0.179631 0.317694 0.070860
0.206753 0.318994 0.070778
0.236962 0.320442 0.070688
0.270193 0.322034 0.070588
0.306257 0.323763 0.070479
0.344820 0.325611 0.070364
0.385411 0.327557 0.070242
0.427433 0.329571 0.070115
0.470196 0.331621 0.069987
0.512960 0.333671 0.069858
0.554982 0.335685 0.069732
0.595573 0.337630 0.069610
0.634136 0.339479 0.069494
0.670200 0.341207 0.069386
0.703431 0.342800 0.069286
0.733640 0.344248 0.069195
0.760762 0.345548 0.069113
0.784844 0.346702 0.069041
0.806017 0.347717 0.068977
0.824470 0.348602 0.068922
0.840432 0.349367 0.068874
0.854149 0.350024 0.068833
0.865870 0.350586 0.068797
0.875838 0.351064 0.068768
0.884280 0.351468 0.068742
0.057452 0.352526 0.074901
0.065894 0.352931 0.074876
0.075862 0.353409 0.074846
0.087583 0.353970 0.074811
0.101300 0.354628 0.074769
0.117262 0.355393 0.074721
0.135716 0.356277 0.074666
0.156888 0.357292 0.074602
0.180970 0.358447 0.074530
0.208093 0.359747 0.074448
0.238301 0.361195 0.074358
0.271532 0.362787 0.074258
0.307596 0.364516 0.074149
0.346159 0.366364 0.074033
0.386750 0.368310 0.073911
0.428773 0.370324 0.073785
0.471536 0.372374 0.073657
0.514299 0.374424 0.073528
0.556321 0.376438 0.073402
0.596912 0.378383 0.073280
0.635476 0.380232 0.073164
0.671539 0.381960 0.073056
0.704771 0.383553 0.072956
0.734979 0.385001 0.072865
0.762101 0.386301 0.072783
0.786183 0.387455 0.072711
0.807356 0.388470 0.072647
0.825809 0.389355 0.072592
0.841771 0.390120 0.072544
0.855488 0.390777 0.072503
0.867210 0.391339 0.072467
0.877177 0.391817 0.072437
0.885619 0.392221 0.072412
0.058862 0.395422 0.078764
0.067304 0.395827 0.078739
0.077271 0.396304 0.078709
0.088993 0.396866 0.078674
0.102710 0.397524 0.078632
0.118672 0.398289 0.078584
0.137125 0.399173 0.078529
0.158298 0.400188 0.078465
0.182380 0.401343 0.078393
0.209502 0.402643 0.078311
0.239710 0.404090 0.078221
0.272942 0.405683 0.078121
0.309006 0.407412 0.078012
0.347569 0.409260 0.077896
0.388160 0.411206 0.077774
0.430182 0.413220 0.077648
0.472945 0.415270 0.077520
0.515709 0.417319 0.077391
0.557731 0.419334 0.077265
0.598322 0.421279 0.077143
0.636885 0.423128 0.077027
0.672949 0.424856 0.076918
0.706180 0.426449 0.076819
0.736389 0.427897 0.076728
0.763511 0.429197 0.076646
0.787593 0.430351 0.076574
0.808765 0.431366 0.076510
0.827219 0.432251 0.076455
0.843181 0.433016 0.076407
0.856898 0.433673 0.076366
0.868619 0.434235 0.076330
0.878587 0.434713 0.076300
0.887029 0.435117 0.076275
0.060321 0.439831 0.082763
0.068763 0.440235 0.082738
0.078731 0.440713 0.082708
0.090452 0.441275 0.082673
0.104169 0.441932 0.082631
0.120131 0.442697 0.082584
0.138585 0.443582 0.082528
0.159757 0.444597 0.082464
0.183839 0.445751 0.082392
0.210962 0.447051 0.082311
0.241170 0.448499 0.082220
0.274401 0.450092 0.082120
0.310465 0.451820 0.082011
0.349028 0.453669 0.081896
0.389619 0.455614 0.081774
0.431642 0.457628 0.081647
0.474405 0.459678 0.081519
0.517168 0.461728 0.081390
0.559190 0.463742 0.081264
0.599781 0.465688 0.081142
0.638345 0.467536 0.081026
0.674408 0.469265 0.080918
0.707640 0.470857 0.080818
0.737848 0.472305 0.080727
0.764970 0.473605 0.080645
0.789052 0.474760 0.080573
0.810225 0.475775 0.080509
0.828678 0.476659 0.080454
0.844641 0.477424 0.080406
0.858357 0.478082 0.080365
0.870079 0.478643 0.080329
0.880046 0.479121 0.080300
0.888488 0.479526 0.080274
0.061806 0.485022 0.086833
0.070248 0.485426 0.086808
0.080216 0.485904 0.086778
0.091937 0.486466 0.086742
0.105654 0.487124 0.086701
0.121616 0.487889 0.086653
0.140070 0.488773 0.086598
0.161242 0.489788 0.086534
0.185325 0.490942 0.086462
0.212447 0.492242 0.086380
0.242655 0.493690 0.086289
0.275887 0.495283 0.086189
0.311950 0.497012 0.086081
0.350513 0.498860 0.085965
0.391104 0.500806 0.085843
0.433127 0.502820 0.085717
0.475890 0.504870 0.085588
0.518653 0.506919 0.085460
0.560675 0.508933 0.085334
0.601266 0.510879 0.085212
0.639830 0.512727 0.085096
0.675893 0.514456 0.084987
0.709125 0.516049 0.084887
0.739333 0.517497 0.084797
0.766455 0.518797 0.084715
0.790537 0.519951 0.084643
0.811710 0.520966 0.084579
0.830163 0.521850 0.084524
0.846126 0.522615 0.084476
0.859843 0.523273 0.084434
0.871564 0.523835 0.084399
0.881532 0.524313 0.084369
0.889973 0.524717 0.084344
0.063291 0.530213 0.090903
0.071733 0.530618 0.090877
0.081701 0.531096 0.090847
0.093422 0.531657 0.090812
0.107139 0.532315 0.090771
0.123101 0.533080 0.090723
0.141555 0.533964 0.090667
0.162728 0.534979 0.090604
0.186810 0.536134 0.090531
0.213932 0.537434 0.090450
0.244140 0.538882 0.090359
0.277372 0.540474 0.090259
0.313435 0.542203 0.090151
0.351998 0.544051 0.090035
0.392590 0.545997 0.089913
0.434612 0.548011 0.089787
0.477375 0.550061 0.089658
0.520138 0.552111 0.089529
0.562160 0.554125 0.089403
0.602752 0.556070 0.089281
0.641315 0.557919 0.089165
0.677378 0.559647 0.089057
0.710610 0.561240 0.088957
0.740818 0.562688 0.088866
0.767940 0.563988 0.088785
0.792022 0.565142 0.088712
0.813195 0.566157 0.088649
0.831649 0.567042 0.088593
0.847611 0.567807 0.088545
0.861328 0.568464 0.088504
0.873049 0.569026 0.088469
0.883017 0.569504 0.088439
0.891458 0.569909 0.088413
0.064751 0.574622 0.094902
0.073193 0.575026 0.094876
0.083160 0.575504 0.094846
0.094882 0.576066 0.094811
0.108599 0.576723 0.094770
0.124561 0.577488 0.094722
0.143014 0.578373 0.094666
0.164187 0.579388 0.094603
0.188269 0.580542 0.094530
0.215391 0.581842 0.094449
0.245599 0.583290 0.094358
0.278831 0.584883 0.094258
0.314894 0.586611 0.094150
0.353458 0.588460 0.094034
0.394049 0.590405 0.093912
0.436071 0.592420 0.093786
0.478834 0.594469 0.093657
0.521598 0.596519 0.093529
0.563620 0.598533 0.093402
0.604211 0.600479 0.093280
0.642774 0.602327 0.093164
0.678838 0.604056 0.093056
0.712069 0.605649 0.092956
0.742278 0.607097 0.092865
0.769400 0.608397 0.092784
0.793482 0.609551 0.092711
0.814654 0.610566 0.092648
0.833108 0.611450 0.092592
0.849070 0.612215 0.092544
0.862787 0.612873 0.092503
0.874508 0.613435 0.092468
0.884476 0.613912 0.092438
0.892918 0.614317 0.092413
0.066161 0.617518 0.098765
0.074602 0.617922 0.098739
0.084570 0.618400 0.098709
0.096291 0.618962 0.098674
0.110008 0.619619 0.098633
0.125970 0.620384 0.098585
0.144424 0.621269 0.098529
0.165597 0.622284 0.098466
0.189679 0.623438 0.098393
0.216801 0.624738 0.098312
0.247009 0.626186 0.098221
0.280241 0.627779 0.098121
0.316304 0.629507 0.098013
0.354867 0.631356 0.097897
0.395459 0.633301 0.097775
0.437481 0.635316 0.097649
0.480244 0.637365 0.097520
0.523007 0.639415 0.097392
0.565029 0.641429 0.097265
0.605621 0.643375 0.097143
0.644184 0.645223 0.097027
0.680247 0.646952 0.096919
0.713479 0.648545 0.096819
0.743687 0.649992 0.096728
0.770809 0.651292 0.096647
0.794891 0.652447 0.096574
0.816064 0.653462 0.096511
0.834518 0.654346 0.096455
0.850480 0.655111 0.096407
0.864197 0.655769 0.096366
0.875918 0.656330 0.096331
0.885886 0.656808 0.096301
0.894328 0.657213 0.096275
0.067500 0.658271 0.102435
0.075942 0.658675 0.102409
0.085909 0.659153 0.102379
0.097631 0.659715 0.102344
0.111348 0.660372 0.102303
0.127310 0.661137 0.102255
0.145763 0.662022 0.102199
0.166936 0.663037 0.102136
0.191018 0.664191 0.102063
0.218140 0.665491 0.101982
0.248348 0.666939 0.101891
0.281580 0.668532 0.101791
0.317643 0.670260 0.101683
0.356207 0.672109 0.101567
0.396798 0.674054 0.101445
0.438820 0.676069 0.101319
0.481583 0.678118 0.101190
0.524346 0.680168 0.101061
0.566369 0.682182 0.100935
0.606960 0.684128 0.100813
0.645523 0.685976 0.100697
0.681587 0.687705 0.100589
0.714818 0.689298 0.100489
0.745026 0.690745 0.100398
0.772149 0.692045 0.100317
0.796231 0.693200 0.100244
0.817403 0.694215 0.100181
0.835857 0.695099 0.100125
0.851819 0.695864 0.100077
0.865536 0.696522 0.100036
0.877257 0.697083 0.100001
0.887225 0.697561 0.099971
0.895667 0.697966 0.099945
0.068752 0.696382 0.105867
0.077194 0.696786 0.105841
0.087162 0.697264 0.105811
0.098883 0.697826 0.105776
0.112600 0.698483 0.105735
0.128562 0.699249 0.105687
0.147016 0.700133 0.105631
0.168188 0.701148 0.105568
0.192270 0.702302 0.105495
0.219393 0.703602 0.105414
0.249601 0.705050 0.105323
0.282832 0.706643 0.105223
0.318896 0.708372 0.105115
0.357459 0.710220 0.104999
0.398050 0.712166 0.104877
0.440073 0.714180 0.104751
0.482836 0.716229 0.104622
0.525599 0.718279 0.104494
0.567621 0.720293 0.104367
0.608212 0.722239 0.104245
0.646776 0.724087 0.104129
0.682839 0.725816 0.104021
0.716071 0.727409 0.103921
0.746279 0.728857 0.103830
0.773401 0.730157 0.103749
0.797483 0.731311 0.103676
0.818656 0.732326 0.103613
0.837109 0.733210 0.103557
0.853071 0.733975 0.103509
0.866788 0.734633 0.103468
0.878510 0.735195 0.103433
0.888477 0.735672 0.103403
0.896919 0.736077 0.103377
0.069906 0.731500 0.109029
0.078348 0.731905 0.109004
0.088316 0.732383 0.108974
0.100037 0.732945 0.108939
0.113754 0.733602 0.108897
0.129716 0.734367 0.108849
0.148170 0.735252 0.108794
0.169342 0.736266 0.108730
0.193424 0.737421 0.108658
0.220547 0.738721 0.108576
0.250755 0.740169 0.108486
0.283986 0.741761 0.108386
0.320050 0.743490 0.108277
0.358613 0.745338 0.108161
0.399204 0.747284 0.108039
0.441227 0.749298 0.107913
0.483990 0.751348 0.107785
0.526753 0.753398 0.107656
0.568775 0.755412 0.107530
0.609366 0.757357 0.107408
0.647930 0.759206 0.107292
0.683993 0.760934 0.107183
0.717225 0.762527 0.107084
0.747433 0.763975 0.106993
0.774555 0.765275 0.106911
0.798637 0.766430 0.106839
0.819810 0.767444 0.106775
0.838263 0.768329 0.106720
0.854226 0.769094 0.106672
0.867942 0.769751 0.106631
0.879664 0.770313 0.106595
0.889631 0.770791 0.106565
0.898073 0.771196 0.106540
0.070955 0.763424 0.111904
0.079397 0.763828 0.111879
0.089365 0.764306 0.111849
0.101086 0.764868 0.111813
0.114803 0.765526 0.111772
0.130765 0.766291 0.111724
0.149219 0.767175 0.111669
0.170391 0.768190 0.111605
0.194474 0.769344 0.111533
0.221596 0.770644 0.111451
0.251804 0.772092 0.111360
0.285036 0.773685 0.111261
0.321099 0.775414 0.111152
0.359662 0.777262 0.111036
0.400253 0.779208 0.110914
0.442276 0.781222 0.110788
0.485039 0.783271 0.110659
0.527802 0.785321 0.110531
0.569824 0.787335 0.110405
0.610415 0.789281 0.110283
0.648979 0.791129 0.110167
0.685042 0.792858 0.110058
0.718274 0.794451 0.109958
0.748482 0.795899 0.109868
0.775604 0.797199 0.109786
0.799686 0.798353 0.109714
0.820859 0.799368 0.109650
0.839312 0.800252 0.109595
0.855275 0.801017 0.109547
0.868992 0.801675 0.109505
0.880713 0.802237 0.109470
0.890681 0.802715 0.109440
0.899122 0.803119 0.109415
0.071897 0.792086 0.114485
0.080339 0.792491 0.114460
0.090307 0.792968 0.114430
0.102028 0.793530 0.114395
0.115745 0.794188 0.114353
0.131707 0.794953 0.114305
0.150161 0.795837 0.114250
0.171333 0.796852 0.114186
0.195415 0.798006 0.114114
0.222538 0.799306 0.114032
0.252746 0.800754 0.113942
0.285977 0.802347 0.113842
0.322041 0.804076 0.113733
0.360604 0.805924 0.113617
0.401195 0.807870 0.113495
0.443218 0.809884 0.113369
0.485981 0.811934 0.113241
0.528744 0.813983 0.113112
0.570766 0.815998 0.112986
0.611357 0.817943 0.112864
0.649921 0.819792 0.112748
0.685984 0.821520 0.112639
0.719216 0.823113 0.112540
0.749424 0.824561 0.112449
0.776546 0.825861 0.112367
0.800628 0.827015 0.112295
0.821801 0.828030 0.112231
0.840254 0.828915 0.112176
0.856217 0.829680 0.112128
0.869933 0.830337 0.112087
0.881655 0.830899 0.112051
0.891622 0.831377 0.112021
0.900064 0.831781 0.111996
0.072734 0.817536 0.116777
0.081175 0.817940 0.116752
0.091143 0.818418 0.116722
0.102864 0.818980 0.116686
0.116581 0.819637 0.116645
0.132544 0.820402 0.116597
0.150997 0.821287 0.116542
0.172170 0.822302 0.116478
0.196252 0.823456 0.116406
0.223374 0.824756 0.116324
0.253582 0.826204 0.116233
0.286814 0.827797 0.116133
0.322877 0.829525 0.116025
0.361441 0.831374 0.115909
0.402032 0.833319 0.115787
0.444054 0.835334 0.115661
0.486817 0.837383 0.115532
0.529580 0.839433 0.115404
0.571603 0.841447 0.115278
0.612194 0.843393 0.115156
0.650757 0.845241 0.115040
0.686820 0.846970 0.114931
0.720052 0.848563 0.114831
0.750260 0.850010 0.114741
0.777382 0.851310 0.114659
0.801465 0.852465 0.114587
0.822637 0.853480 0.114523
0.841091 0.854364 0.114468
0.857053 0.855129 0.114420
0.870770 0.855787 0.114378
0.882491 0.856349 0.114343
0.892459 0.856826 0.114313
0.900901 0.857231 0.114288
0.073469 0.839910 0.118792
0.081911 0.840315 0.118766
0.091878 0.840793 0.118737
0.103600 0.841355 0.118701
0.117317 0.842012 0.118660
0.133279 0.842777 0.118612
0.151732 0.843662 0.118557
0.172905 0.844677 0.118493
0.196987 0.845831 0.118421
0.224109 0.847131 0.118339
0.254318 0.848579 0.118248
0.287549 0.850172 0.118148
0.323613 0.851900 0.118040
0.362176 0.853749 0.117924
0.402767 0.855694 0.117802
0.444789 0.857708 0.117676
0.487552 0.859758 0.117547
0.530316 0.861808 0.117419
0.572338 0.863822 0.117292
