static/luts/Ricoh_GR2_Posi_33_Rec709.cube
# Generated from DCU output TIFF (16-bit) sampled at patch centers
# Input chart: 33x33x33 full cube packed into 4928x3264 JPEG
# Intended use: apply on Rec.709/Display-referred footage AFTER any log->709 transform.
TITLE "Ricoh_GR2_Posi_33_Rec709"
LUT_3D_SIZE 9
DOMAIN_MIN 0 0 0
DOMAIN_MAX 1 1 1
0.047426 0.047426 0.047426
0.091274 0.049528 0.047294
0.170944 0.053346 0.047055
0.297570 0.059416 0.046674
0.461509 0.067274 0.046181
0.625449 0.075131 0.045689
0.752075 0.081201 0.045308
0.831745 0.085020 0.045069
0.875593 0.087121 0.044937
0.048949 0.093763 0.051599
0.092796 0.095865 0.051467
0.172467 0.099684 0.051227
0.299092 0.105753 0.050847
0.463032 0.113611 0.050354
0.626972 0.121469 0.049861
0.753597 0.127538 0.049481
0.833268 0.131357 0.049241
0.877116 0.133459 0.049110
0.051715 0.177958 0.059181
0.095563 0.180059 0.059049
0.175234 0.183878 0.058809
0.301859 0.189947 0.058429
0.465799 0.197805 0.057936
0.629739 0.205663 0.057443
0.756364 0.211733 0.057063
0.836035 0.215551 0.056823
0.879882 0.217653 0.056692
0.056113 0.311773 0.071231
0.099961 0.313875 0.071099
0.179631 0.317694 0.070860
0.306257 0.323763 0.070479
0.470196 0.331621 0.069987
0.634136 0.339479 0.069494
0.760762 0.345548 0.069113
0.840432 0.349367 0.068874
0.884280 0.351468 0.068742
0.061806 0.485022 0.086833
0.105654 0.487124 0.086701
0.185325 0.490942 0.086462
0.311950 0.497012 0.086081
0.475890 0.504870 0.085588
0.639830 0.512727 0.085096
0.766455 0.518797 0.084715
0.846126 0.522615 0.084476
0.889973 0.524717 0.084344
0.067500 0.658271 0.102435
0.111348 0.660372 0.102303
0.191018 0.664191 0.102063
0.317643 0.670260 0.101683
0.481583 0.678118 0.101190
0.645523 0.685976 0.100697
0.772149 0.692045 0.100317
0.851819 0.695864 0.100077
0.895667 0.697966 0.099945
0.071897 0.792086 0.114485
0.115745 0.794188 0.114353
0.195415 0.798006 0.114114
0.322041 0.804076 0.113733
0.485981 0.811934 0.113241
0.649921 0.819792 0.112748
0.776546 0.825861 0.112367
0.856217 0.829680 0.112128
0.900064 0.831781 0.111996
0.074664 0.876280 0.122067
0.118512 0.878382 0.121935
0.198182 0.882201 0.121696
0.324808 0.888270 0.121315
0.488748 0.896128 0.120823
0.652687 0.903986 0.120330
0.779313 0.910055 0.119949
0.858983 0.913874 0.119710
0.902831 0.915976 0.119578
0.076187 0.922618 0.126240
0.120035 0.924720 0.126108
0.199705 0.928538 0.125869
0.326331 0.934608 0.125488
0.490270 0.942465 0.124995
0.654210 0.950323 0.124503
0.780836 0.956393 0.124122
0.860506 0.960211 0.123883
0.904354 0.962313 0.123751
0.049979 0.046910 0.091308
0.093827 0.049012 0.091177
0.173497 0.052831 0.090937
0.300123 0.058900 0.090557
0.464062 0.066758 0.090064
0.628002 0.074616 0.089571
0.754628 0.080685 0.089191
0.834298 0.084504 0.088951
0.878146 0.086606 0.088819
0.051502 0.093248 0.095481
0.095349 0.095349 0.095349
0.175020 0.099168 0.095110
0.301645 0.105238 0.094729
0.465585 0.113095 0.094237
0.629525 0.120953 0.093744
0.756151 0.127023 0.093363
0.835821 0.130841 0.093124
0.879669 0.132943 0.092992
0.054269 0.177442 0.103063
0.098116 0.179544 0.102931
0.177787 0.183362 0.102692
0.304412 0.189432 0.102311
0.468352 0.197290 0.101819
0.632292 0.205148 0.101326
0.758917 0.211217 0.100945
0.838588 0.215036 0.100706
0.882436 0.217137 0.100574
0.058666 0.311258 0.115114
0.102514 0.313359 0.114982
0.182184 0.317178 0.114743
0.308810 0.323247 0.114362
0.472750 0.331105 0.113869
0.636689 0.338963 0.113376
0.763315 0.345032 0.112996
0.842985 0.348851 0.112756
0.886833 0.350953 0.112625
0.064359 0.484506 0.130715
0.108207 0.486608 0.130584
0.187878 0.490427 0.130344
0.314503 0.496496 0.129964
0.478443 0.504354 0.129471
0.642383 0.512212 0.128978
0.769008 0.518281 0.128598
0.848679 0.522100 0.128358
0.892526 0.524202 0.128226
0.070053 0.657755 0.146317
0.113901 0.659857 0.146185
0.193571 0.663675 0.145946
0.320196 0.669745 0.145565
0.484136 0.677603 0.145073
0.648076 0.685460 0.144580
0.774702 0.691530 0.144199
0.854372 0.695349 0.143960
0.898220 0.697450 0.143828
0.074450 0.791570 0.158368
0.118298 0.793672 0.158236
0.197969 0.797491 0.157996
0.324594 0.803560 0.157616
0.488534 0.811418 0.157123
0.652474 0.819276 0.156630
0.779099 0.825345 0.156250
0.858770 0.829164 0.156010
0.902617 0.831266 0.155879
0.077217 0.875765 0.165950
0.121065 0.877866 0.165818
0.200735 0.881685 0.165578
0.327361 0.887754 0.165198
0.491301 0.895612 0.164705
0.655241 0.903470 0.164212
0.781866 0.909540 0.163832
0.861536 0.913358 0.163592
0.905384 0.915460 0.163460
0.078740 0.922102 0.170122
0.122588 0.924204 0.169991
0.202258 0.928023 0.169751
0.328884 0.934092 0.169371
0.492823 0.941950 0.168878
0.656763 0.949808 0.168385
0.783389 0.955877 0.168005
0.863059 0.959696 0.167765
0.906907 0.961798 0.167633
0.054618 0.045973 0.171042
0.098466 0.048075 0.170910
0.178136 0.051894 0.170671
0.304761 0.057963 0.170290
0.468701 0.065821 0.169797
0.632641 0.073679 0.169305
0.759267 0.079748 0.168924
0.838937 0.083567 0.168685
0.882785 0.085669 0.168553
0.056141 0.092311 0.175215
0.099988 0.094413 0.175083
0.179659 0.098231 0.174844
0.306284 0.104301 0.174463
0.470224 0.112159 0.173970
0.634164 0.120016 0.173477
0.760789 0.126086 0.173097
0.840460 0.129905 0.172857
0.884308 0.132006 0.172726
0.058907 0.176505 0.182797
0.102755 0.178607 0.182665
0.182426 0.182426 0.182426
0.309051 0.188495 0.182045
0.472991 0.196353 0.181552
0.636931 0.204211 0.181059
0.763556 0.210280 0.180679
0.843227 0.214099 0.180439
0.887074 0.216200 0.180308
0.063305 0.310321 0.194847
0.107153 0.312422 0.194716
0.186823 0.316241 0.194476
0.313449 0.322310 0.194095
0.477388 0.330168 0.193603
0.641328 0.338026 0.193110
0.767954 0.344096 0.192729
0.847624 0.347914 0.192490
0.891472 0.350016 0.192358
0.068998 0.483569 0.210449
0.112846 0.485671 0.210317
0.192516 0.489490 0.210078
0.319142 0.495559 0.209697
0.483082 0.503417 0.209204
0.647022 0.511275 0.208712
0.773647 0.517344 0.208331
0.853317 0.521163 0.208092
0.897165 0.523265 0.207960
0.074692 0.656818 0.226051
0.118539 0.658920 0.225919
0.198210 0.662738 0.225679
0.324835 0.668808 0.225299
0.488775 0.676666 0.224806
0.652715 0.684524 0.224313
0.779340 0.690593 0.223933
0.859011 0.694412 0.223693
0.902859 0.696513 0.223561
0.079089 0.790634 0.238101
0.122937 0.792735 0.237969
0.202607 0.796554 0.237730
0.329233 0.802623 0.237349
0.493173 0.810481 0.236857
0.657113 0.818339 0.236364
0.783738 0.824408 0.235983
0.863408 0.828227 0.235744
0.907256 0.830329 0.235612
0.081856 0.874828 0.245683
0.125704 0.876929 0.245551
0.205374 0.880748 0.245312
0.332000 0.886818 0.244931
0.495940 0.894675 0.244439
0.659879 0.902533 0.243946
0.786505 0.908603 0.243565
0.866175 0.912421 0.243326
0.910023 0.914523 0.243194
0.083379 0.921165 0.249856
0.127227 0.923267 0.249724
0.206897 0.927086 0.249485
0.333522 0.933155 0.249104
0.497462 0.941013 0.248611
0.661402 0.948871 0.248119
0.788028 0.954940 0.247738
0.867698 0.958759 0.247499
0.911546 0.960861 0.247367
0.061991 0.044484 0.297768
0.105838 0.046586 0.297636
0.185509 0.050405 0.297396
0.312134 0.056474 0.297016
0.476074 0.064332 0.296523
0.640014 0.072190 0.296030
0.766639 0.078259 0.295650
0.846310 0.082078 0.295410
0.890158 0.084180 0.295279
0.063513 0.090822 0.301941
0.107361 0.092923 0.301809
0.187031 0.096742 0.301569
0.313657 0.102812 0.301189
0.477597 0.110669 0.300696
0.641537 0.118527 0.300203
0.768162 0.124597 0.299823
0.847833 0.128415 0.299583
0.891680 0.130517 0.299451
0.066280 0.175016 0.309523
0.110128 0.177118 0.309391
0.189798 0.180936 0.309151
0.316424 0.187006 0.308771
0.480364 0.194864 0.308278
0.644304 0.202722 0.307785
0.770929 0.208791 0.307405
0.850599 0.212610 0.307165
0.894447 0.214711 0.307033
0.070678 0.308832 0.321573
0.114525 0.310933 0.321441
0.194196 0.314752 0.321202
0.320821 0.320821 0.320821
0.484761 0.328679 0.320329
0.648701 0.336537 0.319836
0.775326 0.342606 0.319455
0.854997 0.346425 0.319216
0.898845 0.348527 0.319084
0.076371 0.482080 0.337175
0.120219 0.484182 0.337043
0.199889 0.488001 0.336804
0.326515 0.494070 0.336423
0.490455 0.501928 0.335930
0.654394 0.509786 0.335437
0.781020 0.515855 0.335057
0.860690 0.519674 0.334817
0.904538 0.521776 0.334686
0.082064 0.655329 0.352776
0.125912 0.657431 0.352645
0.205583 0.661249 0.352405
0.332208 0.667319 0.352025
0.496148 0.675177 0.351532
0.660088 0.683034 0.351039
0.786713 0.689104 0.350659
0.866384 0.692923 0.350419
0.910231 0.695024 0.350287
0.086462 0.789144 0.364827
0.130310 0.791246 0.364695
0.209980 0.795065 0.364456
0.336606 0.801134 0.364075
0.500545 0.808992 0.363582
0.664485 0.816850 0.363090
0.791111 0.822919 0.362709
0.870781 0.826738 0.362470
0.914629 0.828840 0.362338
0.089229 0.873339 0.372409
0.133077 0.875440 0.372277
0.212747 0.879259 0.372038
0.339372 0.885328 0.371657
0.503312 0.893186 0.371164
0.667252 0.901044 0.370672
0.793878 0.907114 0.370291
0.873548 0.910932 0.370052
0.917396 0.913034 0.369920
0.090752 0.919676 0.376582
0.134599 0.921778 0.376450
0.214270 0.925597 0.376211
0.340895 0.931666 0.375830
0.504835 0.939524 0.375337
0.668775 0.947382 0.374845
0.795400 0.953451 0.374464
0.875071 0.957270 0.374224
0.918919 0.959372 0.374093
0.071536 0.042556 0.461838
0.115384 0.044658 0.461706
0.195054 0.048477 0.461466
0.321680 0.054546 0.461086
0.485619 0.062404 0.460593
0.649559 0.070262 0.460100
0.776185 0.076331 0.459720
0.855855 0.080150 0.459480
0.899703 0.082252 0.459348
0.073059 0.088894 0.466010
0.116907 0.090996 0.465879
0.196577 0.094814 0.465639
0.323202 0.100884 0.465259
0.487142 0.108742 0.464766
0.651082 0.116599 0.464273
0.777708 0.122669 0.463893
0.857378 0.126488 0.463653
0.901226 0.128589 0.463521
0.075826 0.173088 0.473592
0.119673 0.175190 0.473461
0.199344 0.179009 0.473221
0.325969 0.185078 0.472841
0.489909 0.192936 0.472348
0.653849 0.200794 0.471855
0.780474 0.206863 0.471474
0.860145 0.210682 0.471235
0.903993 0.212783 0.471103
0.080223 0.306904 0.485643
0.124071 0.309005 0.485511
0.203741 0.312824 0.485272
0.330367 0.318893 0.484891
0.494307 0.326751 0.484398
0.658246 0.334609 0.483906
0.784872 0.340679 0.483525
0.864542 0.344497 0.483286
0.908390 0.346599 0.483154
0.085917 0.480152 0.501245
0.129764 0.482254 0.501113
0.209435 0.486073 0.500873
0.336060 0.492142 0.500493
0.500000 0.500000 0.500000
0.663940 0.507858 0.499507
0.790565 0.513927 0.499127
0.870236 0.517746 0.498887
0.914083 0.519848 0.498755
0.091610 0.653401 0.516846
0.135458 0.655503 0.516714
0.215128 0.659321 0.516475
0.341754 0.665391 0.516094
0.505693 0.673249 0.515602
0.669633 0.681107 0.515109
0.796259 0.687176 0.514728
0.875929 0.690995 0.514489
0.919777 0.693096 0.514357
0.096007 0.787217 0.528897
0.139855 0.789318 0.528765
0.219526 0.793137 0.528526
0.346151 0.799206 0.528145
0.510091 0.807064 0.527652
0.674031 0.814922 0.527159
0.800656 0.820991 0.526779
0.880327 0.824810 0.526539
0.924174 0.826912 0.526408
0.098774 0.871411 0.536479
0.142622 0.873512 0.536347
0.222292 0.877331 0.536107
0.348918 0.883401 0.535727
0.512858 0.891258 0.535234
0.676798 0.899116 0.534741
0.803423 0.905186 0.534361
0.883093 0.909004 0.534121
0.926941 0.911106 0.533990
0.100297 0.917748 0.540652
0.144145 0.919850 0.540520
0.223815 0.923669 0.540280
0.350441 0.929738 0.539900
0.514381 0.937596 0.539407
0.678320 0.945454 0.538914
0.804946 0.951523 0.538534
0.884616 0.955342 0.538294
0.928464 0.957444 0.538162
0.081081 0.040628 0.625907
0.124929 0.042730 0.625776
0.204600 0.046549 0.625536
0.331225 0.052618 0.625155
0.495165 0.060476 0.624663
0.659105 0.068334 0.624170
0.785730 0.074403 0.623789
0.865401 0.078222 0.623550
0.909248 0.080324 0.623418
0.082604 0.086966 0.630080
0.126452 0.089068 0.629948
0.206122 0.092886 0.629709
0.332748 0.098956 0.629328
0.496688 0.106814 0.628836
0.660628 0.114672 0.628343
0.787253 0.120741 0.627962
0.866923 0.124560 0.627723
0.910771 0.126661 0.627591
0.085371 0.171160 0.637662
0.129219 0.173262 0.637530
0.208889 0.177081 0.637291
0.335515 0.183150 0.636910
0.499455 0.191008 0.636418
0.663394 0.198866 0.635925
0.790020 0.204935 0.635544
0.869690 0.208754 0.635305
0.913538 0.210856 0.635173
0.089769 0.304976 0.649713
0.133616 0.307077 0.649581
0.213287 0.310896 0.649341
0.339912 0.316966 0.648961
0.503852 0.324823 0.648468
0.667792 0.332681 0.647975
0.794417 0.338751 0.647595
0.874088 0.342569 0.647355
0.917936 0.344671 0.647224
0.095462 0.478224 0.665314
0.139310 0.480326 0.665183
0.218980 0.484145 0.664943
0.345606 0.490214 0.664563
0.509545 0.498072 0.664070
0.673485 0.505930 0.663577
0.800111 0.511999 0.663196
0.879781 0.515818 0.662957
0.923629 0.517920 0.662825
0.101155 0.651473 0.680916
0.145003 0.653575 0.680784
0.224674 0.657394 0.680545
0.351299 0.663463 0.680164
0.515239 0.671321 0.679671
0.679179 0.679179 0.679179
0.805804 0.685248 0.678798
0.885475 0.689067 0.678559
0.929322 0.691168 0.678427
0.105553 0.785289 0.692967
0.149401 0.787390 0.692835
0.229071 0.791209 0.692595
0.355696 0.797278 0.692215
0.519636 0.805136 0.691722
0.683576 0.812994 0.691229
0.810202 0.819064 0.690849
0.889872 0.822882 0.690609
0.933720 0.824984 0.690477
0.108320 0.869483 0.700549
0.152167 0.871585 0.700417
0.231838 0.875403 0.700177
0.358463 0.881473 0.699797
0.522403 0.889331 0.699304
0.686343 0.897188 0.698811
0.812969 0.903258 0.698431
0.892639 0.907077 0.698191
0.936487 0.909178 0.698059
0.109842 0.915820 0.704721
0.153690 0.917922 0.704590
0.233361 0.921741 0.704350
0.359986 0.927810 0.703970
0.523926 0.935668 0.703477
0.687866 0.943526 0.702984
0.814491 0.949595 0.702604
0.894162 0.953414 0.702364
0.938009 0.955516 0.702232
0.088454 0.039139 0.752633
0.132302 0.041241 0.752501
0.211972 0.045060 0.752262
0.338598 0.051129 0.751881
0.502538 0.058987 0.751389
0.666478 0.066845 0.750896
0.793103 0.072914 0.750515
0.872773 0.076733 0.750276
0.916621 0.078835 0.750144
0.089977 0.085477 0.756806
0.133825 0.087579 0.756674
0.213495 0.091397 0.756435
0.340121 0.097467 0.756054
0.504060 0.105325 0.755561
0.668000 0.113182 0.755069
0.794626 0.119252 0.754688
0.874296 0.123071 0.754449
0.918144 0.125172 0.754317
0.092744 0.169671 0.764388
0.136592 0.171773 0.764256
0.216262 0.175592 0.764017
0.342887 0.181661 0.763636
0.506827 0.189519 0.763143
0.670767 0.197377 0.762651
0.797393 0.203446 0.762270
0.877063 0.207265 0.762031
0.920911 0.209366 0.761899
0.097141 0.303487 0.776439
0.140989 0.305588 0.776307
0.220660 0.309407 0.776067
0.347285 0.315476 0.775687
0.511225 0.323334 0.775194
0.675165 0.331192 0.774701
0.801790 0.337262 0.774321
0.881461 0.341080 0.774081
0.925308 0.343182 0.773949
0.102835 0.476735 0.792040
0.146683 0.478837 0.791908
0.226353 0.482656 0.791669
0.352978 0.488725 0.791288
0.516918 0.496583 0.790796
0.680858 0.504441 0.790303
0.807484 0.510510 0.789922
0.887154 0.514329 0.789683
0.931002 0.516431 0.789551
0.108528 0.649984 0.807642
0.152376 0.652086 0.807510
0.232046 0.655904 0.807271
0.358672 0.661974 0.806890
0.522612 0.669832 0.806397
0.686551 0.677690 0.805905
0.813177 0.683759 0.805524
0.892847 0.687578 0.805284
0.936695 0.689679 0.805153
0.112926 0.783800 0.819692
0.156773 0.785901 0.819561
0.236444 0.789720 0.819321
0.363069 0.795789 0.818941
0.527009 0.803647 0.818448
0.690949 0.811505 0.817955
0.817574 0.817574 0.817574
0.897245 0.821393 0.817335
0.941093 0.823495 0.817203
0.115692 0.867994 0.827274
0.159540 0.870095 0.827143
0.239211 0.873914 0.826903
0.365836 0.879984 0.826523
0.529776 0.887841 0.826030
0.693716 0.895699 0.825537
0.820341 0.901769 0.825156
0.900012 0.905587 0.824917
0.943859 0.907689 0.824785
0.117215 0.914331 0.831447
0.161063 0.916433 0.831315
0.240733 0.920252 0.831076
0.367359 0.926321 0.830695
0.531299 0.934179 0.830203
0.695239 0.942037 0.829710
0.821864 0.948106 0.829329
0.901534 0.951925 0.829090
0.945382 0.954027 0.828958
0.093093 0.038202 0.832367
0.136941 0.040304 0.832235
0.216611 0.044123 0.831995
0.343237 0.050192 0.831615
0.507177 0.058050 0.831122
0.671116 0.065908 0.830629
0.797742 0.071977 0.830249
0.877412 0.075796 0.830009
0.921260 0.077898 0.829878
0.094616 0.084540 0.836540
0.138464 0.086642 0.836408
0.218134 0.090460 0.836168
0.344759 0.096530 0.835788
0.508699 0.104388 0.835295
0.672639 0.112246 0.834802
0.799265 0.118315 0.834422
0.878935 0.122134 0.834182
0.922783 0.124235 0.834050
0.097383 0.168734 0.844121
0.141230 0.170836 0.843990
0.220901 0.174655 0.843750
0.347526 0.180724 0.843370
0.511466 0.188582 0.842877
0.675406 0.196440 0.842384
0.802031 0.202509 0.842004
0.881702 0.206328 0.841764
0.925550 0.208430 0.841632
0.101780 0.302550 0.856172
0.145628 0.304651 0.856040
0.225298 0.308470 0.855801
0.351924 0.314540 0.855420
0.515864 0.322397 0.854927
0.679804 0.330255 0.854435
0.806429 0.336325 0.854054
0.886099 0.340143 0.853815
0.929947 0.342245 0.853683
0.107474 0.475798 0.871774
0.151321 0.477900 0.871642
0.230992 0.481719 0.871402
0.357617 0.487788 0.871022
0.521557 0.495646 0.870529
0.685497 0.503504 0.870036
0.812122 0.509573 0.869656
0.891793 0.513392 0.869416
0.935641 0.515494 0.869285
0.113167 0.649047 0.887375
0.157015 0.651149 0.887244
0.236685 0.654968 0.887004
0.363311 0.661037 0.886624
0.527250 0.668895 0.886131
0.691190 0.676753 0.885638
0.817816 0.682822 0.885257
0.897486 0.686641 0.885018
0.941334 0.688742 0.884886
0.117564 0.782863 0.899426
0.161412 0.784964 0.899294
0.241083 0.788783 0.899055
0.367708 0.794852 0.898674
0.531648 0.802710 0.898181
0.695588 0.810568 0.897689
0.822213 0.816638 0.897308
0.901884 0.820456 0.897069
0.945731 0.822558 0.896937
0.120331 0.867057 0.907008
0.164179 0.869159 0.906876
0.243849 0.872977 0.906637
0.370475 0.879047 0.906256
0.534415 0.886905 0.905763
0.698355 0.894762 0.905271
0.824980 0.900832 0.904890
0.904651 0.904651 0.904651
0.948498 0.906752 0.904519
0.121854 0.913394 0.911181
0.165702 0.915496 0.911049
0.245372 0.919315 0.910809
0.371998 0.925384 0.910429
0.535938 0.933242 0.909936
0.699877 0.941100 0.909443
0.826503 0.947169 0.909063
0.906173 0.950988 0.908823
0.950021 0.953090 0.908692
0.095646 0.037687 0.876249
0.139494 0.039789 0.876117
0.219164 0.043607 0.875878
0.345790 0.049677 0.875497
0.509730 0.057535 0.875005
0.673669 0.065392 0.874512
0.800295 0.071462 0.874131
0.879965 0.075280 0.873892
0.923813 0.077382 0.873760
0.097169 0.084024 0.880422
0.141017 0.086126 0.880290
0.220687 0.089945 0.880051
0.347313 0.096014 0.879670
0.511252 0.103872 0.879177
0.675192 0.111730 0.878685
0.801818 0.117799 0.878304
0.881488 0.121618 0.878065
0.925336 0.123720 0.877933
0.099936 0.168219 0.888004
0.143783 0.170320 0.887872
0.223454 0.174139 0.887633
0.350079 0.180208 0.887252
0.514019 0.188066 0.886759
0.677959 0.195924 0.886267
0.804585 0.201994 0.885886
0.884255 0.205812 0.885647
0.928103 0.207914 0.885515
0.104333 0.302034 0.900055
0.148181 0.304136 0.899923
0.227851 0.307955 0.899683
0.354477 0.314024 0.899303
0.518417 0.321882 0.898810
0.682357 0.329740 0.898317
0.808982 0.335809 0.897937
0.888652 0.339628 0.897697
0.932500 0.341729 0.897565
0.110027 0.475283 0.915656
0.153874 0.477385 0.915524
0.233545 0.481203 0.915285
0.360170 0.487273 0.914904
0.524110 0.495130 0.914412
0.688050 0.502988 0.913919
0.814675 0.509058 0.913538
0.894346 0.512876 0.913299
0.938194 0.514978 0.913167
0.115720 0.648532 0.931258
0.159568 0.650633 0.931126
0.239238 0.654452 0.930887
0.365864 0.660521 0.930506
0.529804 0.668379 0.930013
0.693743 0.676237 0.929521
0.820369 0.682306 0.929140
0.900039 0.686125 0.928901
0.943887 0.688227 0.928769
0.120118 0.782347 0.943308
0.163965 0.784449 0.943177
0.243636 0.788267 0.942937
0.370261 0.794337 0.942557
0.534201 0.802195 0.942064
0.698141 0.810053 0.941571
0.824766 0.816122 0.941191
0.904437 0.819941 0.940951
0.948285 0.822042 0.940819
0.122884 0.866541 0.950890
0.166732 0.868643 0.950759
0.246403 0.872462 0.950519
0.373028 0.878531 0.950139
0.536968 0.886389 0.949646
0.700908 0.894247 0.949153
0.827533 0.900316 0.948773
0.907204 0.904135 0.948533
0.951051 0.906237 0.948401
0.124407 0.912879 0.955063
0.168255 0.914980 0.954931
0.247925 0.918799 0.954692
0.374551 0.924869 0.954311
0.538491 0.932726 0.953819
0.702430 0.940584 0.953326
0.829056 0.946654 0.952945
0.908726 0.950472 0.952706
0.952574 0.952574 0.952574
