static/luts/Ricoh_GR2_Posi_33_Rec709.cube
# Generated from DCU output TIFF (16-bit) sampled at patch centers
# Input chart: 33x33x33 full cube packed into 4928x3264 JPEG
# Intended use: apply on Rec.709/Display-referred footage AFTER any log->709 transform.
TITLE "Ricoh_GR2_Posi_33_Rec709"
LUT_3D_SIZE 5
DOMAIN_MIN 0 0 0
DOMAIN_MAX 1 1 1
0.047426 0.047426 0.047426
0.170944 0.053346 0.047055
0.461509 0.067274 0.046181
0.752075 0.081201 0.045308
0.875593 0.087121 0.044937
0.051715 0.177958 0.059181
0.175234 0.183878 0.058809
0.465799 0.197805 0.057936
0.756364 0.211733 0.057063
0.879882 0.217653 0.056692
0.061806 0.485022 0.086833
0.185325 0.490942 0.086462
0.475890 0.504870 0.085588
0.766455 0.518797 0.084715
0.889973 0.524717 0.084344
0.071897 0.792086 0.114485
0.195415 0.798006 0.114114
0.485981 0.811934 0.113241
0.776546 0.825861 0.112367
0.900064 0.831781 0.111996
0.076187 0.922618 0.126240
0.199705 0.928538 0.125869
0.490270 0.942465 0.124995
0.780836 0.956393 0.124122
0.904354 0.962313 0.123751
0.054618 0.045973 0.171042
0.178136 0.051894 0.170671
0.468701 0.065821 0.169797
0.759267 0.079748 0.168924
0.882785 0.085669 0.168553
0.058907 0.176505 0.182797
0.182426 0.182426 0.182426
0.472991 0.196353 0.181552
0.763556 0.210280 0.180679
0.887074 0.216200 0.180308
0.068998 0.483569 0.210449
0.192516 0.489490 0.210078
0.483082 0.503417 0.209204
0.773647 0.517344 0.208331
0.897165 0.523265 0.207960
0.079089 0.790634 0.238101
0.202607 0.796554 0.237730
0.493173 0.810481 0.236857
0.783738 0.824408 0.235983
0.907256 0.830329 0.235612
0.083379 0.921165 0.249856
0.206897 0.927086 0.249485
0.497462 0.941013 0.248611
0.788028 0.954940 0.247738
0.911546 0.960861 0.247367
0.071536 0.042556 0.461838
0.195054 0.048477 0.461466
0.485619 0.062404 0.460593
0.776185 0.076331 0.459720
0.899703 0.082252 0.459348
0.075826 0.173088 0.473592
0.199344 0.179009 0.473221
0.489909 0.192936 0.472348
0.780474 0.206863 0.471474
0.903993 0.212783 0.471103
0.085917 0.480152 0.501245
0.209435 0.486073 0.500873
0.500000 0.500000 0.500000
0.790565 0.513927 0.499127
0.914083 0.519848 0.498755
0.096007 0.787217 0.528897
0.219526 0.793137 0.528526
0.510091 0.807064 0.527652
0.800656 0.820991 0.526779
0.924174 0.826912 0.526408
0.100297 0.917748 0.540652
0.223815 0.923669 0.540280
0.514381 0.937596 0.539407
0.804946 0.951523 0.538534
0.928464 0.957444 0.538162
0.088454 0.039139 0.752633
0.211972 0.045060 0.752262
0.502538 0.058987 0.751389
0.793103 0.072914 0.750515
0.916621 0.078835 0.750144
0.092744 0.169671 0.764388
0.216262 0.175592 0.764017
0.506827 0.189519 0.763143
0.797393 0.203446 0.762270
0.920911 0.209366 0.761899
0.102835 0.476735 0.792040
0.226353 0.482656 0.791669
0.516918 0.496583 0.790796
0.807484 0.510510 0.789922
0.931002 0.516431 0.789551
0.112926 0.783800 0.819692
0.236444 0.789720 0.819321
0.527009 0.803647 0.818448
0.817574 0.817574 0.817574
0.941093 0.823495 0.817203
0.117215 0.914331 0.831447
0.240733 0.920252 0.831076
0.531299 0.934179 0.830203
0.821864 0.948106 0.829329
0.945382 0.954027 0.828958
0.095646 0.037687 0.876249
0.219164 0.043607 0.875878
0.509730 0.057535 0.875005
0.800295 0.071462 0.874131
0.923813 0.077382 0.873760
0.099936 0.168219 0.888004
0.223454 0.174139 0.887633
0.514019 0.188066 0.886759
0.804585 0.201994 0.885886
0.928103 0.207914 0.885515
0.110027 0.475283 0.915656
0.233545 0.481203 0.915285
0.524110 0.495130 0.914412
0.814675 0.509058 0.913538
0.938194 0.514978 0.913167
0.120118 0.782347 0.943308
0.243636 0.788267 0.942937
0.534201 0.802195 0.942064
0.824766 0.816122 0.941191
0.948285 0.822042 0.940819
0.124407 0.912879 0.955063
0.247925 0.918799 0.954692
0.538491 0.932726 0.953819
0.829056 0.946654 0.952945
0.952574 0.952574 0.952574
